(Generated by PartKam Version 0.05)

G20 G90 G40

(Circle_O)
G0 Z0.5
T0 M6
G17
M3
G0 X3.7262 Y3.1284
G1 Z-0.1 F30
G3 X3.4584 Y3.4522 I-1.8464 J-1.2548 F60
G3 X3.1347 Y3.72 I-1.5786 J-1.5786
G3 X2.7917 Y3.905 I-1.0746 J-1.5812
G3 X2.4183 Y4.0167 I-0.7316 J-1.7663
G3 X2 Y4.0563 I-0.4183 J-2.1929
G3 X1.5817 Y4.0167 I0 J-2.2324
G3 X1.2083 Y3.905 I0.3582 J-1.8779
G3 X0.8653 Y3.72 I0.7316 J-1.7663
G3 X0.5416 Y3.4522 I1.2548 J-1.8464
G3 X0.2738 Y3.1284 I1.5786 J-1.5786
G3 X0.0887 Y2.7854 I1.5812 J-1.0746
G3 X-0.023 Y2.412 I1.7663 J-0.7316
G3 X-0.0625 Y1.9938 I2.1929 J-0.4183
G3 X-0.023 Y1.5755 I2.2324 J0
G3 X0.0887 Y1.2021 I1.8779 J0.3582
G3 X0.2738 Y0.8591 I1.7663 J0.7316
G3 X0.5416 Y0.5353 I1.8464 J1.2548
G3 X0.8653 Y0.2675 I1.5786 J1.5786
G3 X1.2083 Y0.0825 I1.0746 J1.5812
G3 X1.5817 Y-0.0292 I0.7316 J1.7663
G3 X2 Y-0.0687 I0.4183 J2.1929
G3 X2.4183 Y-0.0292 I0 J2.2324
G3 X2.7917 Y0.0825 I-0.3582 J1.8779
G3 X3.1347 Y0.2675 I-0.7316 J1.7663
G3 X3.4584 Y0.5353 I-1.2548 J1.8464
G3 X3.7262 Y0.8591 I-1.5786 J1.5786
G3 X3.9113 Y1.2021 I-1.5812 J1.0746
G3 X4.023 Y1.5755 I-1.7663 J0.7316
G3 X4.0625 Y1.9938 I-2.1929 J0.4183
G3 X4.023 Y2.412 I-2.2324 J0
G3 X3.9113 Y2.7854 I-1.8779 J-0.3582
G3 X3.7262 Y3.1284 I-1.7663 J-0.7316
G1 Z-0.2 F30
G3 X3.4584 Y3.4522 I-1.8464 J-1.2548 F60
G3 X3.1347 Y3.72 I-1.5786 J-1.5786
G3 X2.7917 Y3.905 I-1.0746 J-1.5812
G3 X2.4183 Y4.0167 I-0.7316 J-1.7663
G3 X2 Y4.0563 I-0.4183 J-2.1929
G3 X1.5817 Y4.0167 I0 J-2.2324
G3 X1.2083 Y3.905 I0.3582 J-1.8779
G3 X0.8653 Y3.72 I0.7316 J-1.7663
G3 X0.5416 Y3.4522 I1.2548 J-1.8464
G3 X0.2738 Y3.1284 I1.5786 J-1.5786
G3 X0.0887 Y2.7854 I1.5812 J-1.0746
G3 X-0.023 Y2.412 I1.7663 J-0.7316
G3 X-0.0625 Y1.9938 I2.1929 J-0.4183
G3 X-0.023 Y1.5755 I2.2324 J0
G3 X0.0887 Y1.2021 I1.8779 J0.3582
G3 X0.2738 Y0.8591 I1.7663 J0.7316
G3 X0.5416 Y0.5353 I1.8464 J1.2548
G3 X0.8653 Y0.2675 I1.5786 J1.5786
G3 X1.2083 Y0.0825 I1.0746 J1.5812
G3 X1.5817 Y-0.0292 I0.7316 J1.7663
G3 X2 Y-0.0687 I0.4183 J2.1929
G3 X2.4183 Y-0.0292 I0 J2.2324
G3 X2.7917 Y0.0825 I-0.3582 J1.8779
G3 X3.1347 Y0.2675 I-0.7316 J1.7663
G3 X3.4584 Y0.5353 I-1.2548 J1.8464
G3 X3.7262 Y0.8591 I-1.5786 J1.5786
G3 X3.9113 Y1.2021 I-1.5812 J1.0746
G3 X4.023 Y1.5755 I-1.7663 J0.7316
G3 X4.0625 Y1.9938 I-2.1929 J0.4183
G3 X4.023 Y2.412 I-2.2324 J0
G3 X3.9113 Y2.7854 I-1.8779 J-0.3582
G3 X3.7262 Y3.1284 I-1.7663 J-0.7316
G1 Z-0.3 F30
G3 X3.4584 Y3.4522 I-1.8464 J-1.2548 F60
G3 X3.1347 Y3.72 I-1.5786 J-1.5786
G3 X2.7917 Y3.905 I-1.0746 J-1.5812
G3 X2.4183 Y4.0167 I-0.7316 J-1.7663
G3 X2 Y4.0563 I-0.4183 J-2.1929
G3 X1.5817 Y4.0167 I0 J-2.2324
G3 X1.2083 Y3.905 I0.3582 J-1.8779
G3 X0.8653 Y3.72 I0.7316 J-1.7663
G3 X0.5416 Y3.4522 I1.2548 J-1.8464
G3 X0.2738 Y3.1284 I1.5786 J-1.5786
G3 X0.0887 Y2.7854 I1.5812 J-1.0746
G3 X-0.023 Y2.412 I1.7663 J-0.7316
G3 X-0.0625 Y1.9938 I2.1929 J-0.4183
G3 X-0.023 Y1.5755 I2.2324 J0
G3 X0.0887 Y1.2021 I1.8779 J0.3582
G3 X0.2738 Y0.8591 I1.7663 J0.7316
G3 X0.5416 Y0.5353 I1.8464 J1.2548
G3 X0.8653 Y0.2675 I1.5786 J1.5786
G3 X1.2083 Y0.0825 I1.0746 J1.5812
G3 X1.5817 Y-0.0292 I0.7316 J1.7663
G3 X2 Y-0.0687 I0.4183 J2.1929
G3 X2.4183 Y-0.0292 I0 J2.2324
G3 X2.7917 Y0.0825 I-0.3582 J1.8779
G3 X3.1347 Y0.2675 I-0.7316 J1.7663
G3 X3.4584 Y0.5353 I-1.2548 J1.8464
G3 X3.7262 Y0.8591 I-1.5786 J1.5786
G3 X3.9113 Y1.2021 I-1.5812 J1.0746
G3 X4.023 Y1.5755 I-1.7663 J0.7316
G3 X4.0625 Y1.9938 I-2.1929 J0.4183
G3 X4.023 Y2.412 I-2.2324 J0
G3 X3.9113 Y2.7854 I-1.8779 J-0.3582
G3 X3.7262 Y3.1284 I-1.7663 J-0.7316
G1 Z-0.4 F30
G3 X3.4584 Y3.4522 I-1.8464 J-1.2548 F60
G3 X3.1347 Y3.72 I-1.5786 J-1.5786
G3 X2.7917 Y3.905 I-1.0746 J-1.5812
G3 X2.4183 Y4.0167 I-0.7316 J-1.7663
G3 X2 Y4.0563 I-0.4183 J-2.1929
G3 X1.5817 Y4.0167 I0 J-2.2324
G3 X1.2083 Y3.905 I0.3582 J-1.8779
G3 X0.8653 Y3.72 I0.7316 J-1.7663
G3 X0.5416 Y3.4522 I1.2548 J-1.8464
G3 X0.2738 Y3.1284 I1.5786 J-1.5786
G3 X0.0887 Y2.7854 I1.5812 J-1.0746
G3 X-0.023 Y2.412 I1.7663 J-0.7316
G3 X-0.0625 Y1.9938 I2.1929 J-0.4183
G3 X-0.023 Y1.5755 I2.2324 J0
G3 X0.0887 Y1.2021 I1.8779 J0.3582
G3 X0.2738 Y0.8591 I1.7663 J0.7316
G3 X0.5416 Y0.5353 I1.8464 J1.2548
G3 X0.8653 Y0.2675 I1.5786 J1.5786
G3 X1.2083 Y0.0825 I1.0746 J1.5812
G3 X1.5817 Y-0.0292 I0.7316 J1.7663
G3 X2 Y-0.0687 I0.4183 J2.1929
G3 X2.4183 Y-0.0292 I0 J2.2324
G3 X2.7917 Y0.0825 I-0.3582 J1.8779
G3 X3.1347 Y0.2675 I-0.7316 J1.7663
G3 X3.4584 Y0.5353 I-1.2548 J1.8464
G3 X3.7262 Y0.8591 I-1.5786 J1.5786
G3 X3.9113 Y1.2021 I-1.5812 J1.0746
G3 X4.023 Y1.5755 I-1.7663 J0.7316
G3 X4.0625 Y1.9938 I-2.1929 J0.4183
G3 X4.023 Y2.412 I-2.2324 J0
G3 X3.9113 Y2.7854 I-1.8779 J-0.3582
G3 X3.7262 Y3.1284 I-1.7663 J-0.7316
G1 Z-0.5 F30
G3 X3.4584 Y3.4522 I-1.8464 J-1.2548 F60
G3 X3.1347 Y3.72 I-1.5786 J-1.5786
G3 X2.7917 Y3.905 I-1.0746 J-1.5812
G3 X2.4183 Y4.0167 I-0.7316 J-1.7663
G3 X2 Y4.0563 I-0.4183 J-2.1929
G3 X1.5817 Y4.0167 I0 J-2.2324
G3 X1.2083 Y3.905 I0.3582 J-1.8779
G3 X0.8653 Y3.72 I0.7316 J-1.7663
G3 X0.5416 Y3.4522 I1.2548 J-1.8464
G3 X0.2738 Y3.1284 I1.5786 J-1.5786
G3 X0.0887 Y2.7854 I1.5812 J-1.0746
G3 X-0.023 Y2.412 I1.7663 J-0.7316
G3 X-0.0625 Y1.9938 I2.1929 J-0.4183
G3 X-0.023 Y1.5755 I2.2324 J0
G3 X0.0887 Y1.2021 I1.8779 J0.3582
G3 X0.2738 Y0.8591 I1.7663 J0.7316
G3 X0.5416 Y0.5353 I1.8464 J1.2548
G3 X0.8653 Y0.2675 I1.5786 J1.5786
G3 X1.2083 Y0.0825 I1.0746 J1.5812
G3 X1.5817 Y-0.0292 I0.7316 J1.7663
G3 X2 Y-0.0687 I0.4183 J2.1929
G3 X2.4183 Y-0.0292 I0 J2.2324
G3 X2.7917 Y0.0825 I-0.3582 J1.8779
G3 X3.1347 Y0.2675 I-0.7316 J1.7663
G3 X3.4584 Y0.5353 I-1.2548 J1.8464
G3 X3.7262 Y0.8591 I-1.5786 J1.5786
G3 X3.9113 Y1.2021 I-1.5812 J1.0746
G3 X4.023 Y1.5755 I-1.7663 J0.7316
G3 X4.0625 Y1.9938 I-2.1929 J0.4183
G3 X4.023 Y2.412 I-2.2324 J0
G3 X3.9113 Y2.7854 I-1.8779 J-0.3582
G3 X3.7262 Y3.1284 I-1.7663 J-0.7316
G0 Z0.5
M5
M30
