(Generated by PartKam Version 0.05)

G20 G90 G40

(sparkypocket)
G0 Z0.25
T0 M6
G17
M3
G0 X2.6754 Y1.6734
G1 Z-0.1 F30
G1 X2.4526 Y1.6454 F60
G1 X2.4598 Y1.587
G2 X2.5752 Y1.5577 I-0.1047 J-0.6542
G2 X2.6825 Y1.6158 I0.3676 J-0.5511
G1 X2.6754 Y1.6734
G1 X2.7189 Y1.7292 F60
G1 X2.3969 Y1.6888 F60
G1 X2.415 Y1.5424
G2 X2.5822 Y1.5017 I-0.0598 J-0.6096
G2 X2.7368 Y1.5834 I0.3606 J-0.4951
G1 X2.7189 Y1.7292
G1 X2.7624 Y1.7851 F60
G1 X2.3412 Y1.7322 F60
G1 X2.3665 Y1.5271
G1 X2.3704 Y1.4951
G2 X2.5894 Y1.4442 I-0.0153 J-0.5623
G2 X2.7915 Y1.5483 I0.3534 J-0.4376
G1 X2.7624 Y1.7851
G1 X2.8059 Y1.8409 F60
G1 X2.2855 Y1.7756 F60
G1 X2.3168 Y1.521
G1 X2.3263 Y1.4445
G2 X2.5969 Y1.3847 I0.0288 J-0.5117
G2 X2.8466 Y1.51 I0.3459 J-0.3781
G1 X2.8059 Y1.8409
G1 X2.8494 Y1.8968 F60
G1 X2.2298 Y1.819 F60
G1 X2.2672 Y1.5148
G1 X2.2818 Y1.3964
G3 X2.3045 Y1.3927 I0.0254 J0.0855
G1 X2.3182 Y1.3938
G2 X2.6047 Y1.3222 I0.0369 J-0.461
G2 X2.8668 Y1.4628 I0.3381 J-0.3156
G3 X2.8984 Y1.4738 I-0.0162 J0.097
G3 X2.9013 Y1.4756 I-0.0183 J0.0329
G1 X2.8494 Y1.8968
G1 X2.8988 Y1.9043 F60
G1 X2.8927 Y1.9536 F60
G2 X2.8644 Y1.9491 I-0.0798 J0.4047
G1 X2.174 Y1.8623
G1 X2.2176 Y1.5087
G1 X2.2349 Y1.3685
G3 X2.2417 Y1.3615 I0.0267 J0.0191
G3 X2.2664 Y1.3488 I0.048 J0.063
G3 X2.3061 Y1.3427 I0.0408 J0.1331
G1 X2.3222 Y1.344
G2 X2.6132 Y1.2546 I0.033 J-0.4112
G2 X2.875 Y1.4134 I0.3296 J-0.248
G3 X2.9227 Y1.4301 I-0.0244 J0.1463
G3 X2.9471 Y1.4503 I-0.0426 J0.0766
G3 X2.9535 Y1.4608 I-0.0295 J0.0249
G1 X2.8988 Y1.9043
G1 X2.9484 Y1.9104 F60
G1 X2.9367 Y2.0057 F60
G2 X2.9355 Y2.0172 I0.3598 J0.0443
G2 X2.8581 Y1.9987 I-0.1225 J0.3412
G1 X2.1668 Y1.9118
G2 X2.1178 Y1.909 I-0.0452 J0.3597
G2 X2.1189 Y1.9014 I-0.3588 J-0.0519
G1 X2.168 Y1.5026
G1 X2.1857 Y1.3589
G3 X2.1903 Y1.3455 I0.0345 J0.0043
G3 X2.2114 Y1.3217 I0.0713 J0.0421
G3 X2.2518 Y1.301 I0.0782 J0.1028
G3 X2.308 Y1.2927 I0.0555 J0.1809
G1 X2.3262 Y1.2941
G2 X2.6229 Y1.1771 I0.029 J-0.3613
G2 X2.8832 Y1.3641 I0.3199 J-0.1705
G3 X2.947 Y1.3864 I-0.0326 J0.1956
G3 X2.9854 Y1.418 I-0.0669 J0.1203
G3 X3.0022 Y1.4488 I-0.0678 J0.0571
G3 X3.0038 Y1.4591 I-0.0332 J0.0103
G3 X3.0035 Y1.4633 I-0.0347 J0
G1 X2.9484 Y1.9104
G1 X2.9981 Y1.9165 F60
G1 X2.9863 Y2.0119 F60
G2 X2.984 Y2.0501 I0.3102 J0.0382
G2 X2.9879 Y2.0994 I0.3125 J0
G2 X2.8519 Y2.0483 I-0.1749 J0.2589
G1 X2.1605 Y1.9614
G2 X2.0516 Y1.9669 I-0.039 J0.3101
G2 X2.0692 Y1.8953 I-0.2926 J-0.1098
G1 X2.1183 Y1.4965
G1 X2.1361 Y1.3528
G3 X2.1472 Y1.3201 I0.0842 J0.0104
G3 X2.1811 Y1.2819 I0.1144 J0.0675
G3 X2.2371 Y1.2532 I0.1085 J0.1426
G3 X2.3102 Y1.2427 I0.0701 J0.2287
G1 X2.3301 Y1.2443
G2 X2.6365 Y1.0687 I0.025 J-0.3115
G2 X2.8914 Y1.3148 I0.3063 J-0.0621
G3 X2.9713 Y1.3427 I-0.0408 J0.2449
G3 X3.0236 Y1.3858 I-0.0912 J0.164
G3 X3.0499 Y1.4339 I-0.106 J0.0893
G3 X3.0538 Y1.4591 I-0.0809 J0.0252
G3 X3.0532 Y1.4694 I-0.0847 J0
G1 X2.9981 Y1.9165
G1 X3.0477 Y1.9226 F60
G1 X3.0359 Y2.018 F60
G2 X3.034 Y2.0501 I0.2605 J0.0321
G2 X3.0516 Y2.1446 I0.2625 J0
G2 X2.9942 Y2.1685 I0.0712 J0.2527
G2 X2.8457 Y2.0979 I-0.1812 J0.1899
G1 X2.1543 Y2.011
G2 X1.9929 Y2.0427 I-0.0327 J0.2605
G2 X1.9652 Y2.0197 I-0.1812 J0.1899
G2 X2.0196 Y1.8892 I-0.2061 J-0.1625
G1 X2.0687 Y1.4903
G1 X2.0864 Y1.3467
G3 X2.1041 Y1.2947 I0.1338 J0.0165
G3 X2.1509 Y1.2421 I0.1574 J0.0929
G3 X2.2225 Y1.2054 I0.1388 J0.1824
G3 X2.3126 Y1.1927 I0.0848 J0.2765
G1 X2.3341 Y1.1945
G2 X2.6154 Y0.9672 I0.021 J-0.2617
G2 X2.6659 Y0.9374 I-0.1072 J-0.2396
G2 X2.6843 Y0.958 I0.2047 J-0.1643
G1 X2.6823 Y0.9743
G2 X2.6803 Y1.0066 I0.2605 J0.0323
G2 X2.8997 Y1.2655 I0.2625 J0
G3 X2.9956 Y1.2991 I-0.049 J0.2942
G3 X3.0619 Y1.3536 I-0.1155 J0.2077
G3 X3.0977 Y1.419 I-0.1442 J0.1215
G3 X3.1038 Y1.4591 I-0.1286 J0.0401
G3 X3.1028 Y1.4756 I-0.1347 J0
G1 X3.0477 Y1.9226
G1 X3.0973 Y1.9287 F60
G1 X3.0856 Y2.0241 F60
G2 X3.084 Y2.0501 I0.2109 J0.026
G2 X3.1323 Y2.185 I0.2125 J0
G2 X2.9859 Y2.2348 I-0.0095 J0.2123
G2 X2.8394 Y2.1475 I-0.1729 J0.1235
G1 X2.1481 Y2.0607
G2 X1.9846 Y2.1091 I-0.0265 J0.2108
G2 X1.8805 Y2.0315 I-0.1729 J0.1235
G2 X1.97 Y1.8831 I-0.1214 J-0.1744
G1 X2.0191 Y1.4842
G1 X2.0368 Y1.3406
G3 X2.0611 Y1.2693 I0.1834 J0.0226
G3 X2.1206 Y1.2024 I0.2005 J0.1183
G3 X2.2078 Y1.1576 I0.1691 J0.2221
G3 X2.3152 Y1.1428 I0.0994 J0.3243
G1 X2.3381 Y1.1446
G2 X2.566 Y0.9588 I0.017 J-0.2118
G1 X2.5694 Y0.931
G2 X2.6759 Y0.858 I-0.0613 J-0.2035
G2 X2.7371 Y0.9384 I0.1948 J-0.085
G1 X2.7319 Y0.9804
G2 X2.7303 Y1.0066 I0.2109 J0.0261
G2 X2.9079 Y1.2162 I0.2125 J0
G3 X3.02 Y1.2554 I-0.0573 J0.3436
G3 X3.1001 Y1.3214 I-0.1398 J0.2514
G3 X3.1454 Y1.4041 I-0.1825 J0.1537
G3 X3.1538 Y1.4591 I-0.1764 J0.055
G3 X3.1524 Y1.4817 I-0.1847 J0
G1 X3.0973 Y1.9287
G1 X3.1469 Y1.9348 F60
G1 X3.1352 Y2.0302 F60
G2 X3.134 Y2.0501 I0.1613 J0.0199
G2 X3.2761 Y2.2113 I0.1625 J0
G1 X3.2941 Y2.2136
G1 X3.2891 Y2.2544
G1 X3.1431 Y2.2361
G2 X2.9735 Y2.3332 I-0.0202 J0.1612
G2 X2.8332 Y2.1971 I-0.1605 J0.0251
G1 X2.1418 Y2.1103
G2 X1.9722 Y2.2075 I-0.0203 J0.1612
G2 X1.832 Y2.0714 I-0.1605 J0.0251
G1 X1.7166 Y2.0568
G1 X1.7216 Y2.0162
G1 X1.7387 Y2.0183
G2 X1.9204 Y1.877 I0.0203 J-0.1612
G1 X1.9695 Y1.4781
G1 X1.9872 Y1.3345
G3 X2.018 Y1.2439 I0.233 J0.0288
G3 X2.0903 Y1.1626 I0.2436 J0.1437
G3 X2.1931 Y1.1098 I0.1994 J0.2619
G3 X2.3178 Y1.0928 I0.1141 J0.3721
G1 X2.3421 Y1.0948
G2 X2.5164 Y0.9527 I0.013 J-0.162
G1 X2.5242 Y0.8892
G2 X2.6696 Y0.7457 I-0.016 J-0.1617
G2 X2.6824 Y0.6162 I-4.6125 J-0.5199
G2 X2.6881 Y0.5257 I-2.151 J-0.1815
G2 X2.6894 Y0.4681 I-1.3649 J-0.0576
G2 X2.6888 Y0.4307 I-1.3661 J0
G2 X2.6827 Y0.3659 I-0.4825 J0.0132
G2 X2.6706 Y0.3102 I-0.5626 J0.0922
G3 X2.6798 Y0.3288 I-0.3106 J0.1637
G3 X2.6994 Y0.3803 I-0.4023 J0.1825
G3 X2.7174 Y0.4512 I-0.6707 J0.2084
G3 X2.7262 Y0.5396 I-0.4425 J0.0884
G3 X2.7261 Y0.5474 I-0.4512 J0
G3 X2.7098 Y0.7499 I-1.6134 J-0.0279
G2 X2.7081 Y0.7731 I0.1608 J0.0232
G1 X2.7081 Y0.7731
G2 X2.7905 Y0.9144 I0.1625 J0
G1 X2.7815 Y0.9866
G2 X2.7803 Y1.0066 I0.1613 J0.02
G2 X2.9161 Y1.1668 I0.1625 J0
G3 X3.0443 Y1.2117 I-0.0655 J0.3929
G3 X3.1383 Y1.2892 I-0.1642 J0.2951
G3 X3.1932 Y1.3893 I-0.2207 J0.1859
G3 X3.2038 Y1.4591 I-0.2241 J0.0698
G3 X3.202 Y1.4878 I-0.2347 J0
G1 X3.1469 Y1.9348
G1 X3.1966 Y1.941 F60
G1 X3.1848 Y2.0363 F60
G2 X3.184 Y2.0501 I0.1117 J0.0138
G2 X3.2824 Y2.1617 I0.1125 J0
G1 X3.3499 Y2.1702
G1 X3.3325 Y2.3102
G1 X3.3307 Y2.31
G1 X3.1368 Y2.2857
G2 X3.0112 Y2.3836 I-0.014 J0.1116
G1 X2.9326 Y3.0219
G3 X2.9311 Y3.0261 I-0.0103 J-0.0012
G3 X2.9234 Y3.0342 I-0.0234 J-0.0146
G3 X2.9087 Y3.0407 I-0.0245 J-0.0356
G3 X2.8868 Y3.0419 I-0.0143 J-0.0616
G3 X2.8654 Y3.0352 I0.0081 J-0.0636
G3 X2.8524 Y3.0251 I0.0204 J-0.0396
G3 X2.8466 Y3.0149 I0.0217 J-0.0191
G3 X2.8461 Y3.0115 I0.0106 J-0.0034
G3 X2.8461 Y3.0102 I0.0111 J0
G1 X2.9246 Y2.3721
G2 X2.9255 Y2.3584 I-0.1117 J-0.0137
G2 X2.827 Y2.2467 I-0.1125 J0
G1 X2.1356 Y2.1599
G2 X2.0099 Y2.2578 I-0.014 J0.1116
G1 X1.9309 Y2.8997
G3 X1.9294 Y2.9041 I-0.0105 J-0.0013
G3 X1.9216 Y2.9122 I-0.0235 J-0.0147
G3 X1.9069 Y2.9187 I-0.0244 J-0.0356
G3 X1.8849 Y2.9198 I-0.0142 J-0.0613
G3 X1.8636 Y2.9132 I0.0079 J-0.063
G3 X1.8506 Y2.903 I0.0205 J-0.0397
G3 X1.8448 Y2.8929 I0.0216 J-0.019
G3 X1.8443 Y2.8897 I0.0099 J-0.0032
G3 X1.8445 Y2.8881 I0.0104 J0
G1 X1.9233 Y2.2463
G2 X1.9242 Y2.2326 I-0.1117 J-0.0137
G2 X1.8257 Y2.121 I-0.1125 J0
G1 X1.6609 Y2.1002
G1 X1.6781 Y1.9603
G1 X1.745 Y1.9687
G2 X1.8707 Y1.8709 I0.0141 J-0.1116
G1 X1.9198 Y1.472
G1 X1.9376 Y1.3283
G3 X1.9749 Y1.2185 I0.2827 J0.0349
G3 X2.06 Y1.1228 I0.2866 J0.1691
G3 X2.1785 Y1.062 I0.2296 J0.3017
G3 X2.3205 Y1.0429 I0.1287 J0.4199
G1 X2.3461 Y1.0449
G2 X2.4668 Y0.9465 I0.009 J-0.1121
G1 X2.4802 Y0.8374
G1 X2.4942 Y0.8392
G2 X2.62 Y0.7401 I0.014 J-0.1116
G2 X2.6326 Y0.612 I-4.5628 J-0.5143
G2 X2.6382 Y0.5236 I-2.1011 J-0.1773
G2 X2.6394 Y0.4681 I-1.315 J-0.0555
G2 X2.6389 Y0.4321 I-1.3161 J0
G2 X2.6333 Y0.374 I-0.4325 J0.0118
G2 X2.5868 Y0.2285 I-0.5133 J0.0841
G2 X2.5762 Y0.2081 I-0.5674 J0.2792
G3 X2.5991 Y0.2156 I-0.5758 J1.777
G3 X2.6928 Y0.2502 I-0.5988 J1.7699
G3 X2.7012 Y0.2629 I-0.2278 J0.1588
G3 X2.7253 Y0.3082 I-0.3411 J0.2109
G3 X2.7471 Y0.3654 I-0.4479 J0.2032
G3 X2.7664 Y0.4414 I-0.7185 J0.2232
G3 X2.7762 Y0.5396 I-0.4915 J0.0982
G3 X2.7761 Y0.5483 I-0.5012 J0
G3 X2.7593 Y0.757 I-1.6634 J-0.0287
G2 X2.7581 Y0.7731 I0.1113 J0.0161
G2 X2.8448 Y0.8826 I0.1125 J0
G1 X2.8312 Y0.9927
G2 X2.8303 Y1.0066 I0.1116 J0.0138
G2 X2.9243 Y1.1175 I0.1125 J0
G3 X3.0686 Y1.168 I-0.0737 J0.4422
G3 X3.1766 Y1.257 I-0.1885 J0.3388
G3 X3.2409 Y1.3744 I-0.2589 J0.2182
G3 X3.2538 Y1.4591 I-0.2718 J0.0847
G3 X3.2516 Y1.4939 I-0.2847 J0
G1 X3.1966 Y1.941
G1 X3.2462 Y1.9471 F60
G1 X3.2344 Y2.0424 F60
G2 X3.234 Y2.0501 I0.062 J0.0076
G2 X3.2886 Y2.1121 I0.0625 J0
G1 X3.368 Y2.1221
G3 X3.3848 Y2.1273 I-0.0062 J0.0497
G3 X3.396 Y2.136 I-0.0174 J0.0338
G3 X3.4016 Y2.146 I-0.0213 J0.0187
G3 X3.4025 Y2.1513 I-0.0166 J0.0054
G3 X3.4023 Y2.1534 I-0.0174 J0
G1 X3.3793 Y2.3399
G3 X3.3768 Y2.3468 I-0.0167 J-0.002
G3 X3.3691 Y2.3549 I-0.0233 J-0.0146
G3 X3.3564 Y2.3605 I-0.0211 J-0.0307
G3 X3.3387 Y2.3614 I-0.0112 J-0.0486
G1 X3.3244 Y2.3596
G1 X3.1306 Y2.3353
G2 X3.0608 Y2.3897 I-0.0078 J0.062
G1 X2.9823 Y3.0279
G3 X2.9735 Y3.0526 I-0.0599 J-0.0073
G3 X2.9517 Y3.0754 I-0.0658 J-0.0411
G3 X2.92 Y3.0894 I-0.0528 J-0.0768
G3 X2.8805 Y3.0915 I-0.0256 J-0.1103
G3 X2.8425 Y3.0796 I0.0143 J-0.1132
G3 X2.8149 Y3.0581 I0.0434 J-0.084
G3 X2.7991 Y3.0304 I0.0592 J-0.0521
G3 X2.7961 Y3.0115 I0.0581 J-0.0189
G3 X2.7965 Y3.0041 I0.0611 J0
G1 X2.875 Y2.366
G2 X2.8755 Y2.3584 I-0.062 J-0.0076
G2 X2.8207 Y2.2963 I-0.0625 J0
G1 X2.1294 Y2.2095
G2 X2.0596 Y2.2639 I-0.0078 J0.062
G1 X1.9806 Y2.9058
G3 X1.9718 Y2.9306 I-0.0602 J-0.0073
G3 X1.9499 Y2.9534 I-0.0659 J-0.0412
G3 X1.9182 Y2.9674 I-0.0528 J-0.0768
G3 X1.8786 Y2.9694 I-0.0255 J-0.11
G3 X1.8407 Y2.9576 I0.0142 J-0.1126
G3 X1.8131 Y2.9361 I0.0435 J-0.0841
G3 X1.7973 Y2.9083 I0.0591 J-0.052
G3 X1.7943 Y2.8897 I0.0575 J-0.0186
G3 X1.7948 Y2.882 I0.0604 J0
G1 X1.8737 Y2.2402
G2 X1.8742 Y2.2326 I-0.062 J-0.0076
G2 X1.8195 Y2.1706 I-0.0625 J0
G1 X1.6429 Y2.1484
G3 X1.626 Y2.1431 I0.0062 J-0.0501
G3 X1.6148 Y2.1344 I0.0174 J-0.0338
G3 X1.6092 Y2.1245 I0.0212 J-0.0186
G3 X1.6084 Y2.1193 I0.0162 J-0.0052
G3 X1.6085 Y2.1171 I0.017 J0
G1 X1.6314 Y1.9309
G3 X1.6339 Y1.9237 I0.0175 J0.0022
G3 X1.6417 Y1.9156 I0.0236 J0.0148
G3 X1.6544 Y1.91 I0.0211 J0.0306
G3 X1.672 Y1.9091 I0.0112 J0.0484
G1 X1.7512 Y1.9191
G2 X1.8211 Y1.8648 I0.0078 J-0.062
G1 X1.8702 Y1.4658
G1 X1.8879 Y1.3222
G3 X1.9319 Y1.1931 I0.3323 J0.041
G3 X2.0297 Y1.083 I0.3297 J0.1945
G3 X2.1638 Y1.0142 I0.2599 J0.3415
G3 X2.3233 Y0.993 I0.1434 J0.4677
G1 X2.3501 Y0.9951
G2 X2.4171 Y0.9404 I0.005 J-0.0623
G1 X2.4334 Y0.808
G3 X2.4359 Y0.801 I0.0169 J0.0021
G3 X2.4438 Y0.7928 I0.0237 J0.0149
G3 X2.4566 Y0.7872 I0.0214 J0.0311
G3 X2.4741 Y0.7863 I0.0114 J0.0489
G1 X2.5004 Y0.7896
G2 X2.5703 Y0.7345 I0.0078 J-0.062
G2 X2.5828 Y0.6078 I-4.5132 J-0.5087
G2 X2.5882 Y0.5215 I-2.0513 J-0.1731
G2 X2.5894 Y0.4681 I-1.265 J-0.0534
G2 X2.5889 Y0.4335 I-1.2661 J0
G2 X2.584 Y0.3821 I-0.3825 J0.0105
G2 X2.5419 Y0.2506 I-0.4639 J0.076
G2 X2.4579 Y0.1245 I-0.5225 J0.2571
G2 X2.4556 Y0.1219 I-0.5285 J0.4617
G3 X2.4881 Y0.1301 I-0.4559 J1.8658
G3 X2.6151 Y0.1683 I-0.4876 J1.855
G3 X2.7247 Y0.2091 I-0.6148 J1.8173
G3 X2.7437 Y0.2366 I-0.2597 J0.1999
G3 X2.7708 Y0.2875 I-0.3836 J0.2372
G3 X2.7949 Y0.3506 I-0.4934 J0.2238
G3 X2.8155 Y0.4316 I-0.7662 J0.2381
G3 X2.8262 Y0.5396 I-0.5405 J0.108
G3 X2.8261 Y0.5491 I-0.5512 J0
G3 X2.8088 Y0.7641 I-1.7134 J-0.0296
G2 X2.8081 Y0.7731 I0.0619 J0.0089
G2 X2.8628 Y0.8351 I0.0625 J0
G3 X2.8795 Y0.8403 I-0.0062 J0.0493
G3 X2.8907 Y0.8491 I-0.0177 J0.0342
G3 X2.8965 Y0.8592 I-0.0217 J0.019
G3 X2.8973 Y0.8644 I-0.0162 J0.0053
G3 X2.8972 Y0.8664 I-0.017 J0
G1 X2.8808 Y0.9989
G2 X2.8803 Y1.0066 I0.062 J0.0077
G2 X2.9325 Y1.0682 I0.0625 J0
G3 X3.0929 Y1.1243 I-0.0819 J0.4915
G3 X3.2148 Y1.2247 I-0.2128 J0.3825
G3 X3.2886 Y1.3595 I-0.2972 J0.2504
G3 X3.3038 Y1.4591 I-0.3196 J0.0996
G3 X3.3013 Y1.5 I-0.3347 J0
G1 X3.2462 Y1.9471
G0 Z0.25
G0 X2.6754 Y1.6734
G1 Z-0.2 F30
G1 X2.4526 Y1.6454 F60
G1 X2.4598 Y1.587
G2 X2.5752 Y1.5577 I-0.1047 J-0.6542
G2 X2.6825 Y1.6158 I0.3676 J-0.5511
G1 X2.6754 Y1.6734
G1 X2.7189 Y1.7292 F60
G1 X2.3969 Y1.6888 F60
G1 X2.415 Y1.5424
G2 X2.5822 Y1.5017 I-0.0598 J-0.6096
G2 X2.7368 Y1.5834 I0.3606 J-0.4951
G1 X2.7189 Y1.7292
G1 X2.7624 Y1.7851 F60
G1 X2.3412 Y1.7322 F60
G1 X2.3665 Y1.5271
G1 X2.3704 Y1.4951
G2 X2.5894 Y1.4442 I-0.0153 J-0.5623
G2 X2.7915 Y1.5483 I0.3534 J-0.4376
G1 X2.7624 Y1.7851
G1 X2.8059 Y1.8409 F60
G1 X2.2855 Y1.7756 F60
G1 X2.3168 Y1.521
G1 X2.3263 Y1.4445
G2 X2.5969 Y1.3847 I0.0288 J-0.5117
G2 X2.8466 Y1.51 I0.3459 J-0.3781
G1 X2.8059 Y1.8409
G1 X2.8494 Y1.8968 F60
G1 X2.2298 Y1.819 F60
G1 X2.2672 Y1.5148
G1 X2.2818 Y1.3964
G3 X2.3045 Y1.3927 I0.0254 J0.0855
G1 X2.3182 Y1.3938
G2 X2.6047 Y1.3222 I0.0369 J-0.461
G2 X2.8668 Y1.4628 I0.3381 J-0.3156
G3 X2.8984 Y1.4738 I-0.0162 J0.097
G3 X2.9013 Y1.4756 I-0.0183 J0.0329
G1 X2.8494 Y1.8968
G1 X2.8988 Y1.9043 F60
G1 X2.8927 Y1.9536 F60
G2 X2.8644 Y1.9491 I-0.0798 J0.4047
G1 X2.174 Y1.8623
G1 X2.2176 Y1.5087
G1 X2.2349 Y1.3685
G3 X2.2417 Y1.3615 I0.0267 J0.0191
G3 X2.2664 Y1.3488 I0.048 J0.063
G3 X2.3061 Y1.3427 I0.0408 J0.1331
G1 X2.3222 Y1.344
G2 X2.6132 Y1.2546 I0.033 J-0.4112
G2 X2.875 Y1.4134 I0.3296 J-0.248
G3 X2.9227 Y1.4301 I-0.0244 J0.1463
G3 X2.9471 Y1.4503 I-0.0426 J0.0766
G3 X2.9535 Y1.4608 I-0.0295 J0.0249
G1 X2.8988 Y1.9043
G1 X2.9484 Y1.9104 F60
G1 X2.9367 Y2.0057 F60
G2 X2.9355 Y2.0172 I0.3598 J0.0443
G2 X2.8581 Y1.9987 I-0.1225 J0.3412
G1 X2.1668 Y1.9118
G2 X2.1178 Y1.909 I-0.0452 J0.3597
G2 X2.1189 Y1.9014 I-0.3588 J-0.0519
G1 X2.168 Y1.5026
G1 X2.1857 Y1.3589
G3 X2.1903 Y1.3455 I0.0345 J0.0043
G3 X2.2114 Y1.3217 I0.0713 J0.0421
G3 X2.2518 Y1.301 I0.0782 J0.1028
G3 X2.308 Y1.2927 I0.0555 J0.1809
G1 X2.3262 Y1.2941
G2 X2.6229 Y1.1771 I0.029 J-0.3613
G2 X2.8832 Y1.3641 I0.3199 J-0.1705
G3 X2.947 Y1.3864 I-0.0326 J0.1956
G3 X2.9854 Y1.418 I-0.0669 J0.1203
G3 X3.0022 Y1.4488 I-0.0678 J0.0571
G3 X3.0038 Y1.4591 I-0.0332 J0.0103
G3 X3.0035 Y1.4633 I-0.0347 J0
G1 X2.9484 Y1.9104
G1 X2.9981 Y1.9165 F60
G1 X2.9863 Y2.0119 F60
G2 X2.984 Y2.0501 I0.3102 J0.0382
G2 X2.9879 Y2.0994 I0.3125 J0
G2 X2.8519 Y2.0483 I-0.1749 J0.2589
G1 X2.1605 Y1.9614
G2 X2.0516 Y1.9669 I-0.039 J0.3101
G2 X2.0692 Y1.8953 I-0.2926 J-0.1098
G1 X2.1183 Y1.4965
G1 X2.1361 Y1.3528
G3 X2.1472 Y1.3201 I0.0842 J0.0104
G3 X2.1811 Y1.2819 I0.1144 J0.0675
G3 X2.2371 Y1.2532 I0.1085 J0.1426
G3 X2.3102 Y1.2427 I0.0701 J0.2287
G1 X2.3301 Y1.2443
G2 X2.6365 Y1.0687 I0.025 J-0.3115
G2 X2.8914 Y1.3148 I0.3063 J-0.0621
G3 X2.9713 Y1.3427 I-0.0408 J0.2449
G3 X3.0236 Y1.3858 I-0.0912 J0.164
G3 X3.0499 Y1.4339 I-0.106 J0.0893
G3 X3.0538 Y1.4591 I-0.0809 J0.0252
G3 X3.0532 Y1.4694 I-0.0847 J0
G1 X2.9981 Y1.9165
G1 X3.0477 Y1.9226 F60
G1 X3.0359 Y2.018 F60
G2 X3.034 Y2.0501 I0.2605 J0.0321
G2 X3.0516 Y2.1446 I0.2625 J0
G2 X2.9942 Y2.1685 I0.0712 J0.2527
G2 X2.8457 Y2.0979 I-0.1812 J0.1899
G1 X2.1543 Y2.011
G2 X1.9929 Y2.0427 I-0.0327 J0.2605
G2 X1.9652 Y2.0197 I-0.1812 J0.1899
G2 X2.0196 Y1.8892 I-0.2061 J-0.1625
G1 X2.0687 Y1.4903
G1 X2.0864 Y1.3467
G3 X2.1041 Y1.2947 I0.1338 J0.0165
G3 X2.1509 Y1.2421 I0.1574 J0.0929
G3 X2.2225 Y1.2054 I0.1388 J0.1824
G3 X2.3126 Y1.1927 I0.0848 J0.2765
G1 X2.3341 Y1.1945
G2 X2.6154 Y0.9672 I0.021 J-0.2617
G2 X2.6659 Y0.9374 I-0.1072 J-0.2396
G2 X2.6843 Y0.958 I0.2047 J-0.1643
G1 X2.6823 Y0.9743
G2 X2.6803 Y1.0066 I0.2605 J0.0323
G2 X2.8997 Y1.2655 I0.2625 J0
G3 X2.9956 Y1.2991 I-0.049 J0.2942
G3 X3.0619 Y1.3536 I-0.1155 J0.2077
G3 X3.0977 Y1.419 I-0.1442 J0.1215
G3 X3.1038 Y1.4591 I-0.1286 J0.0401
G3 X3.1028 Y1.4756 I-0.1347 J0
G1 X3.0477 Y1.9226
G1 X3.0973 Y1.9287 F60
G1 X3.0856 Y2.0241 F60
G2 X3.084 Y2.0501 I0.2109 J0.026
G2 X3.1323 Y2.185 I0.2125 J0
G2 X2.9859 Y2.2348 I-0.0095 J0.2123
G2 X2.8394 Y2.1475 I-0.1729 J0.1235
G1 X2.1481 Y2.0607
G2 X1.9846 Y2.1091 I-0.0265 J0.2108
G2 X1.8805 Y2.0315 I-0.1729 J0.1235
G2 X1.97 Y1.8831 I-0.1214 J-0.1744
G1 X2.0191 Y1.4842
G1 X2.0368 Y1.3406
G3 X2.0611 Y1.2693 I0.1834 J0.0226
G3 X2.1206 Y1.2024 I0.2005 J0.1183
G3 X2.2078 Y1.1576 I0.1691 J0.2221
G3 X2.3152 Y1.1428 I0.0994 J0.3243
G1 X2.3381 Y1.1446
G2 X2.566 Y0.9588 I0.017 J-0.2118
G1 X2.5694 Y0.931
G2 X2.6759 Y0.858 I-0.0613 J-0.2035
G2 X2.7371 Y0.9384 I0.1948 J-0.085
G1 X2.7319 Y0.9804
G2 X2.7303 Y1.0066 I0.2109 J0.0261
G2 X2.9079 Y1.2162 I0.2125 J0
G3 X3.02 Y1.2554 I-0.0573 J0.3436
G3 X3.1001 Y1.3214 I-0.1398 J0.2514
G3 X3.1454 Y1.4041 I-0.1825 J0.1537
G3 X3.1538 Y1.4591 I-0.1764 J0.055
G3 X3.1524 Y1.4817 I-0.1847 J0
G1 X3.0973 Y1.9287
G1 X3.1469 Y1.9348 F60
G1 X3.1352 Y2.0302 F60
G2 X3.134 Y2.0501 I0.1613 J0.0199
G2 X3.2761 Y2.2113 I0.1625 J0
G1 X3.2941 Y2.2136
G1 X3.2891 Y2.2544
G1 X3.1431 Y2.2361
G2 X2.9735 Y2.3332 I-0.0202 J0.1612
G2 X2.8332 Y2.1971 I-0.1605 J0.0251
G1 X2.1418 Y2.1103
G2 X1.9722 Y2.2075 I-0.0203 J0.1612
G2 X1.832 Y2.0714 I-0.1605 J0.0251
G1 X1.7166 Y2.0568
G1 X1.7216 Y2.0162
G1 X1.7387 Y2.0183
G2 X1.9204 Y1.877 I0.0203 J-0.1612
G1 X1.9695 Y1.4781
G1 X1.9872 Y1.3345
G3 X2.018 Y1.2439 I0.233 J0.0288
G3 X2.0903 Y1.1626 I0.2436 J0.1437
G3 X2.1931 Y1.1098 I0.1994 J0.2619
G3 X2.3178 Y1.0928 I0.1141 J0.3721
G1 X2.3421 Y1.0948
G2 X2.5164 Y0.9527 I0.013 J-0.162
G1 X2.5242 Y0.8892
G2 X2.6696 Y0.7457 I-0.016 J-0.1617
G2 X2.6824 Y0.6162 I-4.6125 J-0.5199
G2 X2.6881 Y0.5257 I-2.151 J-0.1815
G2 X2.6894 Y0.4681 I-1.3649 J-0.0576
G2 X2.6888 Y0.4307 I-1.3661 J0
G2 X2.6827 Y0.3659 I-0.4825 J0.0132
G2 X2.6706 Y0.3102 I-0.5626 J0.0922
G3 X2.6798 Y0.3288 I-0.3106 J0.1637
G3 X2.6994 Y0.3803 I-0.4023 J0.1825
G3 X2.7174 Y0.4512 I-0.6707 J0.2084
G3 X2.7262 Y0.5396 I-0.4425 J0.0884
G3 X2.7261 Y0.5474 I-0.4512 J0
G3 X2.7098 Y0.7499 I-1.6134 J-0.0279
G2 X2.7081 Y0.7731 I0.1608 J0.0232
G1 X2.7081 Y0.7731
G2 X2.7905 Y0.9144 I0.1625 J0
G1 X2.7815 Y0.9866
G2 X2.7803 Y1.0066 I0.1613 J0.02
G2 X2.9161 Y1.1668 I0.1625 J0
G3 X3.0443 Y1.2117 I-0.0655 J0.3929
G3 X3.1383 Y1.2892 I-0.1642 J0.2951
G3 X3.1932 Y1.3893 I-0.2207 J0.1859
G3 X3.2038 Y1.4591 I-0.2241 J0.0698
G3 X3.202 Y1.4878 I-0.2347 J0
G1 X3.1469 Y1.9348
G1 X3.1966 Y1.941 F60
G1 X3.1848 Y2.0363 F60
G2 X3.184 Y2.0501 I0.1117 J0.0138
G2 X3.2824 Y2.1617 I0.1125 J0
G1 X3.3499 Y2.1702
G1 X3.3325 Y2.3102
G1 X3.3307 Y2.31
G1 X3.1368 Y2.2857
G2 X3.0112 Y2.3836 I-0.014 J0.1116
G1 X2.9326 Y3.0219
G3 X2.9311 Y3.0261 I-0.0103 J-0.0012
G3 X2.9234 Y3.0342 I-0.0234 J-0.0146
G3 X2.9087 Y3.0407 I-0.0245 J-0.0356
G3 X2.8868 Y3.0419 I-0.0143 J-0.0616
G3 X2.8654 Y3.0352 I0.0081 J-0.0636
G3 X2.8524 Y3.0251 I0.0204 J-0.0396
G3 X2.8466 Y3.0149 I0.0217 J-0.0191
G3 X2.8461 Y3.0115 I0.0106 J-0.0034
G3 X2.8461 Y3.0102 I0.0111 J0
G1 X2.9246 Y2.3721
G2 X2.9255 Y2.3584 I-0.1117 J-0.0137
G2 X2.827 Y2.2467 I-0.1125 J0
G1 X2.1356 Y2.1599
G2 X2.0099 Y2.2578 I-0.014 J0.1116
G1 X1.9309 Y2.8997
G3 X1.9294 Y2.9041 I-0.0105 J-0.0013
G3 X1.9216 Y2.9122 I-0.0235 J-0.0147
G3 X1.9069 Y2.9187 I-0.0244 J-0.0356
G3 X1.8849 Y2.9198 I-0.0142 J-0.0613
G3 X1.8636 Y2.9132 I0.0079 J-0.063
G3 X1.8506 Y2.903 I0.0205 J-0.0397
G3 X1.8448 Y2.8929 I0.0216 J-0.019
G3 X1.8443 Y2.8897 I0.0099 J-0.0032
G3 X1.8445 Y2.8881 I0.0104 J0
G1 X1.9233 Y2.2463
G2 X1.9242 Y2.2326 I-0.1117 J-0.0137
G2 X1.8257 Y2.121 I-0.1125 J0
G1 X1.6609 Y2.1002
G1 X1.6781 Y1.9603
G1 X1.745 Y1.9687
G2 X1.8707 Y1.8709 I0.0141 J-0.1116
G1 X1.9198 Y1.472
G1 X1.9376 Y1.3283
G3 X1.9749 Y1.2185 I0.2827 J0.0349
G3 X2.06 Y1.1228 I0.2866 J0.1691
G3 X2.1785 Y1.062 I0.2296 J0.3017
G3 X2.3205 Y1.0429 I0.1287 J0.4199
G1 X2.3461 Y1.0449
G2 X2.4668 Y0.9465 I0.009 J-0.1121
G1 X2.4802 Y0.8374
G1 X2.4942 Y0.8392
G2 X2.62 Y0.7401 I0.014 J-0.1116
G2 X2.6326 Y0.612 I-4.5628 J-0.5143
G2 X2.6382 Y0.5236 I-2.1011 J-0.1773
G2 X2.6394 Y0.4681 I-1.315 J-0.0555
G2 X2.6389 Y0.4321 I-1.3161 J0
G2 X2.6333 Y0.374 I-0.4325 J0.0118
G2 X2.5868 Y0.2285 I-0.5133 J0.0841
G2 X2.5762 Y0.2081 I-0.5674 J0.2792
G3 X2.5991 Y0.2156 I-0.5758 J1.777
G3 X2.6928 Y0.2502 I-0.5988 J1.7699
G3 X2.7012 Y0.2629 I-0.2278 J0.1588
G3 X2.7253 Y0.3082 I-0.3411 J0.2109
G3 X2.7471 Y0.3654 I-0.4479 J0.2032
G3 X2.7664 Y0.4414 I-0.7185 J0.2232
G3 X2.7762 Y0.5396 I-0.4915 J0.0982
G3 X2.7761 Y0.5483 I-0.5012 J0
G3 X2.7593 Y0.757 I-1.6634 J-0.0287
G2 X2.7581 Y0.7731 I0.1113 J0.0161
G2 X2.8448 Y0.8826 I0.1125 J0
G1 X2.8312 Y0.9927
G2 X2.8303 Y1.0066 I0.1116 J0.0138
G2 X2.9243 Y1.1175 I0.1125 J0
G3 X3.0686 Y1.168 I-0.0737 J0.4422
G3 X3.1766 Y1.257 I-0.1885 J0.3388
G3 X3.2409 Y1.3744 I-0.2589 J0.2182
G3 X3.2538 Y1.4591 I-0.2718 J0.0847
G3 X3.2516 Y1.4939 I-0.2847 J0
G1 X3.1966 Y1.941
G1 X3.2462 Y1.9471 F60
G1 X3.2344 Y2.0424 F60
G2 X3.234 Y2.0501 I0.062 J0.0076
G2 X3.2886 Y2.1121 I0.0625 J0
G1 X3.368 Y2.1221
G3 X3.3848 Y2.1273 I-0.0062 J0.0497
G3 X3.396 Y2.136 I-0.0174 J0.0338
G3 X3.4016 Y2.146 I-0.0213 J0.0187
G3 X3.4025 Y2.1513 I-0.0166 J0.0054
G3 X3.4023 Y2.1534 I-0.0174 J0
G1 X3.3793 Y2.3399
G3 X3.3768 Y2.3468 I-0.0167 J-0.002
G3 X3.3691 Y2.3549 I-0.0233 J-0.0146
G3 X3.3564 Y2.3605 I-0.0211 J-0.0307
G3 X3.3387 Y2.3614 I-0.0112 J-0.0486
G1 X3.3244 Y2.3596
G1 X3.1306 Y2.3353
G2 X3.0608 Y2.3897 I-0.0078 J0.062
G1 X2.9823 Y3.0279
G3 X2.9735 Y3.0526 I-0.0599 J-0.0073
G3 X2.9517 Y3.0754 I-0.0658 J-0.0411
G3 X2.92 Y3.0894 I-0.0528 J-0.0768
G3 X2.8805 Y3.0915 I-0.0256 J-0.1103
G3 X2.8425 Y3.0796 I0.0143 J-0.1132
G3 X2.8149 Y3.0581 I0.0434 J-0.084
G3 X2.7991 Y3.0304 I0.0592 J-0.0521
G3 X2.7961 Y3.0115 I0.0581 J-0.0189
G3 X2.7965 Y3.0041 I0.0611 J0
G1 X2.875 Y2.366
G2 X2.8755 Y2.3584 I-0.062 J-0.0076
G2 X2.8207 Y2.2963 I-0.0625 J0
G1 X2.1294 Y2.2095
G2 X2.0596 Y2.2639 I-0.0078 J0.062
G1 X1.9806 Y2.9058
G3 X1.9718 Y2.9306 I-0.0602 J-0.0073
G3 X1.9499 Y2.9534 I-0.0659 J-0.0412
G3 X1.9182 Y2.9674 I-0.0528 J-0.0768
G3 X1.8786 Y2.9694 I-0.0255 J-0.11
G3 X1.8407 Y2.9576 I0.0142 J-0.1126
G3 X1.8131 Y2.9361 I0.0435 J-0.0841
G3 X1.7973 Y2.9083 I0.0591 J-0.052
G3 X1.7943 Y2.8897 I0.0575 J-0.0186
G3 X1.7948 Y2.882 I0.0604 J0
G1 X1.8737 Y2.2402
G2 X1.8742 Y2.2326 I-0.062 J-0.0076
G2 X1.8195 Y2.1706 I-0.0625 J0
G1 X1.6429 Y2.1484
G3 X1.626 Y2.1431 I0.0062 J-0.0501
G3 X1.6148 Y2.1344 I0.0174 J-0.0338
G3 X1.6092 Y2.1245 I0.0212 J-0.0186
G3 X1.6084 Y2.1193 I0.0162 J-0.0052
G3 X1.6085 Y2.1171 I0.017 J0
G1 X1.6314 Y1.9309
G3 X1.6339 Y1.9237 I0.0175 J0.0022
G3 X1.6417 Y1.9156 I0.0236 J0.0148
G3 X1.6544 Y1.91 I0.0211 J0.0306
G3 X1.672 Y1.9091 I0.0112 J0.0484
G1 X1.7512 Y1.9191
G2 X1.8211 Y1.8648 I0.0078 J-0.062
G1 X1.8702 Y1.4658
G1 X1.8879 Y1.3222
G3 X1.9319 Y1.1931 I0.3323 J0.041
G3 X2.0297 Y1.083 I0.3297 J0.1945
G3 X2.1638 Y1.0142 I0.2599 J0.3415
G3 X2.3233 Y0.993 I0.1434 J0.4677
G1 X2.3501 Y0.9951
G2 X2.4171 Y0.9404 I0.005 J-0.0623
G1 X2.4334 Y0.808
G3 X2.4359 Y0.801 I0.0169 J0.0021
G3 X2.4438 Y0.7928 I0.0237 J0.0149
G3 X2.4566 Y0.7872 I0.0214 J0.0311
G3 X2.4741 Y0.7863 I0.0114 J0.0489
G1 X2.5004 Y0.7896
G2 X2.5703 Y0.7345 I0.0078 J-0.062
G2 X2.5828 Y0.6078 I-4.5132 J-0.5087
G2 X2.5882 Y0.5215 I-2.0513 J-0.1731
G2 X2.5894 Y0.4681 I-1.265 J-0.0534
G2 X2.5889 Y0.4335 I-1.2661 J0
G2 X2.584 Y0.3821 I-0.3825 J0.0105
G2 X2.5419 Y0.2506 I-0.4639 J0.076
G2 X2.4579 Y0.1245 I-0.5225 J0.2571
G2 X2.4556 Y0.1219 I-0.5285 J0.4617
G3 X2.4881 Y0.1301 I-0.4559 J1.8658
G3 X2.6151 Y0.1683 I-0.4876 J1.855
G3 X2.7247 Y0.2091 I-0.6148 J1.8173
G3 X2.7437 Y0.2366 I-0.2597 J0.1999
G3 X2.7708 Y0.2875 I-0.3836 J0.2372
G3 X2.7949 Y0.3506 I-0.4934 J0.2238
G3 X2.8155 Y0.4316 I-0.7662 J0.2381
G3 X2.8262 Y0.5396 I-0.5405 J0.108
G3 X2.8261 Y0.5491 I-0.5512 J0
G3 X2.8088 Y0.7641 I-1.7134 J-0.0296
G2 X2.8081 Y0.7731 I0.0619 J0.0089
G2 X2.8628 Y0.8351 I0.0625 J0
G3 X2.8795 Y0.8403 I-0.0062 J0.0493
G3 X2.8907 Y0.8491 I-0.0177 J0.0342
G3 X2.8965 Y0.8592 I-0.0217 J0.019
G3 X2.8973 Y0.8644 I-0.0162 J0.0053
G3 X2.8972 Y0.8664 I-0.017 J0
G1 X2.8808 Y0.9989
G2 X2.8803 Y1.0066 I0.062 J0.0077
G2 X2.9325 Y1.0682 I0.0625 J0
G3 X3.0929 Y1.1243 I-0.0819 J0.4915
G3 X3.2148 Y1.2247 I-0.2128 J0.3825
G3 X3.2886 Y1.3595 I-0.2972 J0.2504
G3 X3.3038 Y1.4591 I-0.3196 J0.0996
G3 X3.3013 Y1.5 I-0.3347 J0
G1 X3.2462 Y1.9471
G0 Z0.25
G0 X2.6754 Y1.6734
G1 Z-0.3 F30
G1 X2.4526 Y1.6454 F60
G1 X2.4598 Y1.587
G2 X2.5752 Y1.5577 I-0.1047 J-0.6542
G2 X2.6825 Y1.6158 I0.3676 J-0.5511
G1 X2.6754 Y1.6734
G1 X2.7189 Y1.7292 F60
G1 X2.3969 Y1.6888 F60
G1 X2.415 Y1.5424
G2 X2.5822 Y1.5017 I-0.0598 J-0.6096
G2 X2.7368 Y1.5834 I0.3606 J-0.4951
G1 X2.7189 Y1.7292
G1 X2.7624 Y1.7851 F60
G1 X2.3412 Y1.7322 F60
G1 X2.3665 Y1.5271
G1 X2.3704 Y1.4951
G2 X2.5894 Y1.4442 I-0.0153 J-0.5623
G2 X2.7915 Y1.5483 I0.3534 J-0.4376
G1 X2.7624 Y1.7851
G1 X2.8059 Y1.8409 F60
G1 X2.2855 Y1.7756 F60
G1 X2.3168 Y1.521
G1 X2.3263 Y1.4445
G2 X2.5969 Y1.3847 I0.0288 J-0.5117
G2 X2.8466 Y1.51 I0.3459 J-0.3781
G1 X2.8059 Y1.8409
G1 X2.8494 Y1.8968 F60
G1 X2.2298 Y1.819 F60
G1 X2.2672 Y1.5148
G1 X2.2818 Y1.3964
G3 X2.3045 Y1.3927 I0.0254 J0.0855
G1 X2.3182 Y1.3938
G2 X2.6047 Y1.3222 I0.0369 J-0.461
G2 X2.8668 Y1.4628 I0.3381 J-0.3156
G3 X2.8984 Y1.4738 I-0.0162 J0.097
G3 X2.9013 Y1.4756 I-0.0183 J0.0329
G1 X2.8494 Y1.8968
G1 X2.8988 Y1.9043 F60
G1 X2.8927 Y1.9536 F60
G2 X2.8644 Y1.9491 I-0.0798 J0.4047
G1 X2.174 Y1.8623
G1 X2.2176 Y1.5087
G1 X2.2349 Y1.3685
G3 X2.2417 Y1.3615 I0.0267 J0.0191
G3 X2.2664 Y1.3488 I0.048 J0.063
G3 X2.3061 Y1.3427 I0.0408 J0.1331
G1 X2.3222 Y1.344
G2 X2.6132 Y1.2546 I0.033 J-0.4112
G2 X2.875 Y1.4134 I0.3296 J-0.248
G3 X2.9227 Y1.4301 I-0.0244 J0.1463
G3 X2.9471 Y1.4503 I-0.0426 J0.0766
G3 X2.9535 Y1.4608 I-0.0295 J0.0249
G1 X2.8988 Y1.9043
G1 X2.9484 Y1.9104 F60
G1 X2.9367 Y2.0057 F60
G2 X2.9355 Y2.0172 I0.3598 J0.0443
G2 X2.8581 Y1.9987 I-0.1225 J0.3412
G1 X2.1668 Y1.9118
G2 X2.1178 Y1.909 I-0.0452 J0.3597
G2 X2.1189 Y1.9014 I-0.3588 J-0.0519
G1 X2.168 Y1.5026
G1 X2.1857 Y1.3589
G3 X2.1903 Y1.3455 I0.0345 J0.0043
G3 X2.2114 Y1.3217 I0.0713 J0.0421
G3 X2.2518 Y1.301 I0.0782 J0.1028
G3 X2.308 Y1.2927 I0.0555 J0.1809
G1 X2.3262 Y1.2941
G2 X2.6229 Y1.1771 I0.029 J-0.3613
G2 X2.8832 Y1.3641 I0.3199 J-0.1705
G3 X2.947 Y1.3864 I-0.0326 J0.1956
G3 X2.9854 Y1.418 I-0.0669 J0.1203
G3 X3.0022 Y1.4488 I-0.0678 J0.0571
G3 X3.0038 Y1.4591 I-0.0332 J0.0103
G3 X3.0035 Y1.4633 I-0.0347 J0
G1 X2.9484 Y1.9104
G1 X2.9981 Y1.9165 F60
G1 X2.9863 Y2.0119 F60
G2 X2.984 Y2.0501 I0.3102 J0.0382
G2 X2.9879 Y2.0994 I0.3125 J0
G2 X2.8519 Y2.0483 I-0.1749 J0.2589
G1 X2.1605 Y1.9614
G2 X2.0516 Y1.9669 I-0.039 J0.3101
G2 X2.0692 Y1.8953 I-0.2926 J-0.1098
G1 X2.1183 Y1.4965
G1 X2.1361 Y1.3528
G3 X2.1472 Y1.3201 I0.0842 J0.0104
G3 X2.1811 Y1.2819 I0.1144 J0.0675
G3 X2.2371 Y1.2532 I0.1085 J0.1426
G3 X2.3102 Y1.2427 I0.0701 J0.2287
G1 X2.3301 Y1.2443
G2 X2.6365 Y1.0687 I0.025 J-0.3115
G2 X2.8914 Y1.3148 I0.3063 J-0.0621
G3 X2.9713 Y1.3427 I-0.0408 J0.2449
G3 X3.0236 Y1.3858 I-0.0912 J0.164
G3 X3.0499 Y1.4339 I-0.106 J0.0893
G3 X3.0538 Y1.4591 I-0.0809 J0.0252
G3 X3.0532 Y1.4694 I-0.0847 J0
G1 X2.9981 Y1.9165
G1 X3.0477 Y1.9226 F60
G1 X3.0359 Y2.018 F60
G2 X3.034 Y2.0501 I0.2605 J0.0321
G2 X3.0516 Y2.1446 I0.2625 J0
G2 X2.9942 Y2.1685 I0.0712 J0.2527
G2 X2.8457 Y2.0979 I-0.1812 J0.1899
G1 X2.1543 Y2.011
G2 X1.9929 Y2.0427 I-0.0327 J0.2605
G2 X1.9652 Y2.0197 I-0.1812 J0.1899
G2 X2.0196 Y1.8892 I-0.2061 J-0.1625
G1 X2.0687 Y1.4903
G1 X2.0864 Y1.3467
G3 X2.1041 Y1.2947 I0.1338 J0.0165
G3 X2.1509 Y1.2421 I0.1574 J0.0929
G3 X2.2225 Y1.2054 I0.1388 J0.1824
G3 X2.3126 Y1.1927 I0.0848 J0.2765
G1 X2.3341 Y1.1945
G2 X2.6154 Y0.9672 I0.021 J-0.2617
G2 X2.6659 Y0.9374 I-0.1072 J-0.2396
G2 X2.6843 Y0.958 I0.2047 J-0.1643
G1 X2.6823 Y0.9743
G2 X2.6803 Y1.0066 I0.2605 J0.0323
G2 X2.8997 Y1.2655 I0.2625 J0
G3 X2.9956 Y1.2991 I-0.049 J0.2942
G3 X3.0619 Y1.3536 I-0.1155 J0.2077
G3 X3.0977 Y1.419 I-0.1442 J0.1215
G3 X3.1038 Y1.4591 I-0.1286 J0.0401
G3 X3.1028 Y1.4756 I-0.1347 J0
G1 X3.0477 Y1.9226
G1 X3.0973 Y1.9287 F60
G1 X3.0856 Y2.0241 F60
G2 X3.084 Y2.0501 I0.2109 J0.026
G2 X3.1323 Y2.185 I0.2125 J0
G2 X2.9859 Y2.2348 I-0.0095 J0.2123
G2 X2.8394 Y2.1475 I-0.1729 J0.1235
G1 X2.1481 Y2.0607
G2 X1.9846 Y2.1091 I-0.0265 J0.2108
G2 X1.8805 Y2.0315 I-0.1729 J0.1235
G2 X1.97 Y1.8831 I-0.1214 J-0.1744
G1 X2.0191 Y1.4842
G1 X2.0368 Y1.3406
G3 X2.0611 Y1.2693 I0.1834 J0.0226
G3 X2.1206 Y1.2024 I0.2005 J0.1183
G3 X2.2078 Y1.1576 I0.1691 J0.2221
G3 X2.3152 Y1.1428 I0.0994 J0.3243
G1 X2.3381 Y1.1446
G2 X2.566 Y0.9588 I0.017 J-0.2118
G1 X2.5694 Y0.931
G2 X2.6759 Y0.858 I-0.0613 J-0.2035
G2 X2.7371 Y0.9384 I0.1948 J-0.085
G1 X2.7319 Y0.9804
G2 X2.7303 Y1.0066 I0.2109 J0.0261
G2 X2.9079 Y1.2162 I0.2125 J0
G3 X3.02 Y1.2554 I-0.0573 J0.3436
G3 X3.1001 Y1.3214 I-0.1398 J0.2514
G3 X3.1454 Y1.4041 I-0.1825 J0.1537
G3 X3.1538 Y1.4591 I-0.1764 J0.055
G3 X3.1524 Y1.4817 I-0.1847 J0
G1 X3.0973 Y1.9287
G1 X3.1469 Y1.9348 F60
G1 X3.1352 Y2.0302 F60
G2 X3.134 Y2.0501 I0.1613 J0.0199
G2 X3.2761 Y2.2113 I0.1625 J0
G1 X3.2941 Y2.2136
G1 X3.2891 Y2.2544
G1 X3.1431 Y2.2361
G2 X2.9735 Y2.3332 I-0.0202 J0.1612
G2 X2.8332 Y2.1971 I-0.1605 J0.0251
G1 X2.1418 Y2.1103
G2 X1.9722 Y2.2075 I-0.0203 J0.1612
G2 X1.832 Y2.0714 I-0.1605 J0.0251
G1 X1.7166 Y2.0568
G1 X1.7216 Y2.0162
G1 X1.7387 Y2.0183
G2 X1.9204 Y1.877 I0.0203 J-0.1612
G1 X1.9695 Y1.4781
G1 X1.9872 Y1.3345
G3 X2.018 Y1.2439 I0.233 J0.0288
G3 X2.0903 Y1.1626 I0.2436 J0.1437
G3 X2.1931 Y1.1098 I0.1994 J0.2619
G3 X2.3178 Y1.0928 I0.1141 J0.3721
G1 X2.3421 Y1.0948
G2 X2.5164 Y0.9527 I0.013 J-0.162
G1 X2.5242 Y0.8892
G2 X2.6696 Y0.7457 I-0.016 J-0.1617
G2 X2.6824 Y0.6162 I-4.6125 J-0.5199
G2 X2.6881 Y0.5257 I-2.151 J-0.1815
G2 X2.6894 Y0.4681 I-1.3649 J-0.0576
G2 X2.6888 Y0.4307 I-1.3661 J0
G2 X2.6827 Y0.3659 I-0.4825 J0.0132
G2 X2.6706 Y0.3102 I-0.5626 J0.0922
G3 X2.6798 Y0.3288 I-0.3106 J0.1637
G3 X2.6994 Y0.3803 I-0.4023 J0.1825
G3 X2.7174 Y0.4512 I-0.6707 J0.2084
G3 X2.7262 Y0.5396 I-0.4425 J0.0884
G3 X2.7261 Y0.5474 I-0.4512 J0
G3 X2.7098 Y0.7499 I-1.6134 J-0.0279
G2 X2.7081 Y0.7731 I0.1608 J0.0232
G1 X2.7081 Y0.7731
G2 X2.7905 Y0.9144 I0.1625 J0
G1 X2.7815 Y0.9866
G2 X2.7803 Y1.0066 I0.1613 J0.02
G2 X2.9161 Y1.1668 I0.1625 J0
G3 X3.0443 Y1.2117 I-0.0655 J0.3929
G3 X3.1383 Y1.2892 I-0.1642 J0.2951
G3 X3.1932 Y1.3893 I-0.2207 J0.1859
G3 X3.2038 Y1.4591 I-0.2241 J0.0698
G3 X3.202 Y1.4878 I-0.2347 J0
G1 X3.1469 Y1.9348
G1 X3.1966 Y1.941 F60
G1 X3.1848 Y2.0363 F60
G2 X3.184 Y2.0501 I0.1117 J0.0138
G2 X3.2824 Y2.1617 I0.1125 J0
G1 X3.3499 Y2.1702
G1 X3.3325 Y2.3102
G1 X3.3307 Y2.31
G1 X3.1368 Y2.2857
G2 X3.0112 Y2.3836 I-0.014 J0.1116
G1 X2.9326 Y3.0219
G3 X2.9311 Y3.0261 I-0.0103 J-0.0012
G3 X2.9234 Y3.0342 I-0.0234 J-0.0146
G3 X2.9087 Y3.0407 I-0.0245 J-0.0356
G3 X2.8868 Y3.0419 I-0.0143 J-0.0616
G3 X2.8654 Y3.0352 I0.0081 J-0.0636
G3 X2.8524 Y3.0251 I0.0204 J-0.0396
G3 X2.8466 Y3.0149 I0.0217 J-0.0191
G3 X2.8461 Y3.0115 I0.0106 J-0.0034
G3 X2.8461 Y3.0102 I0.0111 J0
G1 X2.9246 Y2.3721
G2 X2.9255 Y2.3584 I-0.1117 J-0.0137
G2 X2.827 Y2.2467 I-0.1125 J0
G1 X2.1356 Y2.1599
G2 X2.0099 Y2.2578 I-0.014 J0.1116
G1 X1.9309 Y2.8997
G3 X1.9294 Y2.9041 I-0.0105 J-0.0013
G3 X1.9216 Y2.9122 I-0.0235 J-0.0147
G3 X1.9069 Y2.9187 I-0.0244 J-0.0356
G3 X1.8849 Y2.9198 I-0.0142 J-0.0613
G3 X1.8636 Y2.9132 I0.0079 J-0.063
G3 X1.8506 Y2.903 I0.0205 J-0.0397
G3 X1.8448 Y2.8929 I0.0216 J-0.019
G3 X1.8443 Y2.8897 I0.0099 J-0.0032
G3 X1.8445 Y2.8881 I0.0104 J0
G1 X1.9233 Y2.2463
G2 X1.9242 Y2.2326 I-0.1117 J-0.0137
G2 X1.8257 Y2.121 I-0.1125 J0
G1 X1.6609 Y2.1002
G1 X1.6781 Y1.9603
G1 X1.745 Y1.9687
G2 X1.8707 Y1.8709 I0.0141 J-0.1116
G1 X1.9198 Y1.472
G1 X1.9376 Y1.3283
G3 X1.9749 Y1.2185 I0.2827 J0.0349
G3 X2.06 Y1.1228 I0.2866 J0.1691
G3 X2.1785 Y1.062 I0.2296 J0.3017
G3 X2.3205 Y1.0429 I0.1287 J0.4199
G1 X2.3461 Y1.0449
G2 X2.4668 Y0.9465 I0.009 J-0.1121
G1 X2.4802 Y0.8374
G1 X2.4942 Y0.8392
G2 X2.62 Y0.7401 I0.014 J-0.1116
G2 X2.6326 Y0.612 I-4.5628 J-0.5143
G2 X2.6382 Y0.5236 I-2.1011 J-0.1773
G2 X2.6394 Y0.4681 I-1.315 J-0.0555
G2 X2.6389 Y0.4321 I-1.3161 J0
G2 X2.6333 Y0.374 I-0.4325 J0.0118
G2 X2.5868 Y0.2285 I-0.5133 J0.0841
G2 X2.5762 Y0.2081 I-0.5674 J0.2792
G3 X2.5991 Y0.2156 I-0.5758 J1.777
G3 X2.6928 Y0.2502 I-0.5988 J1.7699
G3 X2.7012 Y0.2629 I-0.2278 J0.1588
G3 X2.7253 Y0.3082 I-0.3411 J0.2109
G3 X2.7471 Y0.3654 I-0.4479 J0.2032
G3 X2.7664 Y0.4414 I-0.7185 J0.2232
G3 X2.7762 Y0.5396 I-0.4915 J0.0982
G3 X2.7761 Y0.5483 I-0.5012 J0
G3 X2.7593 Y0.757 I-1.6634 J-0.0287
G2 X2.7581 Y0.7731 I0.1113 J0.0161
G2 X2.8448 Y0.8826 I0.1125 J0
G1 X2.8312 Y0.9927
G2 X2.8303 Y1.0066 I0.1116 J0.0138
G2 X2.9243 Y1.1175 I0.1125 J0
G3 X3.0686 Y1.168 I-0.0737 J0.4422
G3 X3.1766 Y1.257 I-0.1885 J0.3388
G3 X3.2409 Y1.3744 I-0.2589 J0.2182
G3 X3.2538 Y1.4591 I-0.2718 J0.0847
G3 X3.2516 Y1.4939 I-0.2847 J0
G1 X3.1966 Y1.941
G1 X3.2462 Y1.9471 F60
G1 X3.2344 Y2.0424 F60
G2 X3.234 Y2.0501 I0.062 J0.0076
G2 X3.2886 Y2.1121 I0.0625 J0
G1 X3.368 Y2.1221
G3 X3.3848 Y2.1273 I-0.0062 J0.0497
G3 X3.396 Y2.136 I-0.0174 J0.0338
G3 X3.4016 Y2.146 I-0.0213 J0.0187
G3 X3.4025 Y2.1513 I-0.0166 J0.0054
G3 X3.4023 Y2.1534 I-0.0174 J0
G1 X3.3793 Y2.3399
G3 X3.3768 Y2.3468 I-0.0167 J-0.002
G3 X3.3691 Y2.3549 I-0.0233 J-0.0146
G3 X3.3564 Y2.3605 I-0.0211 J-0.0307
G3 X3.3387 Y2.3614 I-0.0112 J-0.0486
G1 X3.3244 Y2.3596
G1 X3.1306 Y2.3353
G2 X3.0608 Y2.3897 I-0.0078 J0.062
G1 X2.9823 Y3.0279
G3 X2.9735 Y3.0526 I-0.0599 J-0.0073
G3 X2.9517 Y3.0754 I-0.0658 J-0.0411
G3 X2.92 Y3.0894 I-0.0528 J-0.0768
G3 X2.8805 Y3.0915 I-0.0256 J-0.1103
G3 X2.8425 Y3.0796 I0.0143 J-0.1132
G3 X2.8149 Y3.0581 I0.0434 J-0.084
G3 X2.7991 Y3.0304 I0.0592 J-0.0521
G3 X2.7961 Y3.0115 I0.0581 J-0.0189
G3 X2.7965 Y3.0041 I0.0611 J0
G1 X2.875 Y2.366
G2 X2.8755 Y2.3584 I-0.062 J-0.0076
G2 X2.8207 Y2.2963 I-0.0625 J0
G1 X2.1294 Y2.2095
G2 X2.0596 Y2.2639 I-0.0078 J0.062
G1 X1.9806 Y2.9058
G3 X1.9718 Y2.9306 I-0.0602 J-0.0073
G3 X1.9499 Y2.9534 I-0.0659 J-0.0412
G3 X1.9182 Y2.9674 I-0.0528 J-0.0768
G3 X1.8786 Y2.9694 I-0.0255 J-0.11
G3 X1.8407 Y2.9576 I0.0142 J-0.1126
G3 X1.8131 Y2.9361 I0.0435 J-0.0841
G3 X1.7973 Y2.9083 I0.0591 J-0.052
G3 X1.7943 Y2.8897 I0.0575 J-0.0186
G3 X1.7948 Y2.882 I0.0604 J0
G1 X1.8737 Y2.2402
G2 X1.8742 Y2.2326 I-0.062 J-0.0076
G2 X1.8195 Y2.1706 I-0.0625 J0
G1 X1.6429 Y2.1484
G3 X1.626 Y2.1431 I0.0062 J-0.0501
G3 X1.6148 Y2.1344 I0.0174 J-0.0338
G3 X1.6092 Y2.1245 I0.0212 J-0.0186
G3 X1.6084 Y2.1193 I0.0162 J-0.0052
G3 X1.6085 Y2.1171 I0.017 J0
G1 X1.6314 Y1.9309
G3 X1.6339 Y1.9237 I0.0175 J0.0022
G3 X1.6417 Y1.9156 I0.0236 J0.0148
G3 X1.6544 Y1.91 I0.0211 J0.0306
G3 X1.672 Y1.9091 I0.0112 J0.0484
G1 X1.7512 Y1.9191
G2 X1.8211 Y1.8648 I0.0078 J-0.062
G1 X1.8702 Y1.4658
G1 X1.8879 Y1.3222
G3 X1.9319 Y1.1931 I0.3323 J0.041
G3 X2.0297 Y1.083 I0.3297 J0.1945
G3 X2.1638 Y1.0142 I0.2599 J0.3415
G3 X2.3233 Y0.993 I0.1434 J0.4677
G1 X2.3501 Y0.9951
G2 X2.4171 Y0.9404 I0.005 J-0.0623
G1 X2.4334 Y0.808
G3 X2.4359 Y0.801 I0.0169 J0.0021
G3 X2.4438 Y0.7928 I0.0237 J0.0149
G3 X2.4566 Y0.7872 I0.0214 J0.0311
G3 X2.4741 Y0.7863 I0.0114 J0.0489
G1 X2.5004 Y0.7896
G2 X2.5703 Y0.7345 I0.0078 J-0.062
G2 X2.5828 Y0.6078 I-4.5132 J-0.5087
G2 X2.5882 Y0.5215 I-2.0513 J-0.1731
G2 X2.5894 Y0.4681 I-1.265 J-0.0534
G2 X2.5889 Y0.4335 I-1.2661 J0
G2 X2.584 Y0.3821 I-0.3825 J0.0105
G2 X2.5419 Y0.2506 I-0.4639 J0.076
G2 X2.4579 Y0.1245 I-0.5225 J0.2571
G2 X2.4556 Y0.1219 I-0.5285 J0.4617
G3 X2.4881 Y0.1301 I-0.4559 J1.8658
G3 X2.6151 Y0.1683 I-0.4876 J1.855
G3 X2.7247 Y0.2091 I-0.6148 J1.8173
G3 X2.7437 Y0.2366 I-0.2597 J0.1999
G3 X2.7708 Y0.2875 I-0.3836 J0.2372
G3 X2.7949 Y0.3506 I-0.4934 J0.2238
G3 X2.8155 Y0.4316 I-0.7662 J0.2381
G3 X2.8262 Y0.5396 I-0.5405 J0.108
G3 X2.8261 Y0.5491 I-0.5512 J0
G3 X2.8088 Y0.7641 I-1.7134 J-0.0296
G2 X2.8081 Y0.7731 I0.0619 J0.0089
G2 X2.8628 Y0.8351 I0.0625 J0
G3 X2.8795 Y0.8403 I-0.0062 J0.0493
G3 X2.8907 Y0.8491 I-0.0177 J0.0342
G3 X2.8965 Y0.8592 I-0.0217 J0.019
G3 X2.8973 Y0.8644 I-0.0162 J0.0053
G3 X2.8972 Y0.8664 I-0.017 J0
G1 X2.8808 Y0.9989
G2 X2.8803 Y1.0066 I0.062 J0.0077
G2 X2.9325 Y1.0682 I0.0625 J0
G3 X3.0929 Y1.1243 I-0.0819 J0.4915
G3 X3.2148 Y1.2247 I-0.2128 J0.3825
G3 X3.2886 Y1.3595 I-0.2972 J0.2504
G3 X3.3038 Y1.4591 I-0.3196 J0.0996
G3 X3.3013 Y1.5 I-0.3347 J0
G1 X3.2462 Y1.9471
G0 Z0.25
G0 X2.6754 Y1.6734
G1 Z-0.4 F30
G1 X2.4526 Y1.6454 F60
G1 X2.4598 Y1.587
G2 X2.5752 Y1.5577 I-0.1047 J-0.6542
G2 X2.6825 Y1.6158 I0.3676 J-0.5511
G1 X2.6754 Y1.6734
G1 X2.7189 Y1.7292 F60
G1 X2.3969 Y1.6888 F60
G1 X2.415 Y1.5424
G2 X2.5822 Y1.5017 I-0.0598 J-0.6096
G2 X2.7368 Y1.5834 I0.3606 J-0.4951
G1 X2.7189 Y1.7292
G1 X2.7624 Y1.7851 F60
G1 X2.3412 Y1.7322 F60
G1 X2.3665 Y1.5271
G1 X2.3704 Y1.4951
G2 X2.5894 Y1.4442 I-0.0153 J-0.5623
G2 X2.7915 Y1.5483 I0.3534 J-0.4376
G1 X2.7624 Y1.7851
G1 X2.8059 Y1.8409 F60
G1 X2.2855 Y1.7756 F60
G1 X2.3168 Y1.521
G1 X2.3263 Y1.4445
G2 X2.5969 Y1.3847 I0.0288 J-0.5117
G2 X2.8466 Y1.51 I0.3459 J-0.3781
G1 X2.8059 Y1.8409
G1 X2.8494 Y1.8968 F60
G1 X2.2298 Y1.819 F60
G1 X2.2672 Y1.5148
G1 X2.2818 Y1.3964
G3 X2.3045 Y1.3927 I0.0254 J0.0855
G1 X2.3182 Y1.3938
G2 X2.6047 Y1.3222 I0.0369 J-0.461
G2 X2.8668 Y1.4628 I0.3381 J-0.3156
G3 X2.8984 Y1.4738 I-0.0162 J0.097
G3 X2.9013 Y1.4756 I-0.0183 J0.0329
G1 X2.8494 Y1.8968
G1 X2.8988 Y1.9043 F60
G1 X2.8927 Y1.9536 F60
G2 X2.8644 Y1.9491 I-0.0798 J0.4047
G1 X2.174 Y1.8623
G1 X2.2176 Y1.5087
G1 X2.2349 Y1.3685
G3 X2.2417 Y1.3615 I0.0267 J0.0191
G3 X2.2664 Y1.3488 I0.048 J0.063
G3 X2.3061 Y1.3427 I0.0408 J0.1331
G1 X2.3222 Y1.344
G2 X2.6132 Y1.2546 I0.033 J-0.4112
G2 X2.875 Y1.4134 I0.3296 J-0.248
G3 X2.9227 Y1.4301 I-0.0244 J0.1463
G3 X2.9471 Y1.4503 I-0.0426 J0.0766
G3 X2.9535 Y1.4608 I-0.0295 J0.0249
G1 X2.8988 Y1.9043
G1 X2.9484 Y1.9104 F60
G1 X2.9367 Y2.0057 F60
G2 X2.9355 Y2.0172 I0.3598 J0.0443
G2 X2.8581 Y1.9987 I-0.1225 J0.3412
G1 X2.1668 Y1.9118
G2 X2.1178 Y1.909 I-0.0452 J0.3597
G2 X2.1189 Y1.9014 I-0.3588 J-0.0519
G1 X2.168 Y1.5026
G1 X2.1857 Y1.3589
G3 X2.1903 Y1.3455 I0.0345 J0.0043
G3 X2.2114 Y1.3217 I0.0713 J0.0421
G3 X2.2518 Y1.301 I0.0782 J0.1028
G3 X2.308 Y1.2927 I0.0555 J0.1809
G1 X2.3262 Y1.2941
G2 X2.6229 Y1.1771 I0.029 J-0.3613
G2 X2.8832 Y1.3641 I0.3199 J-0.1705
G3 X2.947 Y1.3864 I-0.0326 J0.1956
G3 X2.9854 Y1.418 I-0.0669 J0.1203
G3 X3.0022 Y1.4488 I-0.0678 J0.0571
G3 X3.0038 Y1.4591 I-0.0332 J0.0103
G3 X3.0035 Y1.4633 I-0.0347 J0
G1 X2.9484 Y1.9104
G1 X2.9981 Y1.9165 F60
G1 X2.9863 Y2.0119 F60
G2 X2.984 Y2.0501 I0.3102 J0.0382
G2 X2.9879 Y2.0994 I0.3125 J0
G2 X2.8519 Y2.0483 I-0.1749 J0.2589
G1 X2.1605 Y1.9614
G2 X2.0516 Y1.9669 I-0.039 J0.3101
G2 X2.0692 Y1.8953 I-0.2926 J-0.1098
G1 X2.1183 Y1.4965
G1 X2.1361 Y1.3528
G3 X2.1472 Y1.3201 I0.0842 J0.0104
G3 X2.1811 Y1.2819 I0.1144 J0.0675
G3 X2.2371 Y1.2532 I0.1085 J0.1426
G3 X2.3102 Y1.2427 I0.0701 J0.2287
G1 X2.3301 Y1.2443
G2 X2.6365 Y1.0687 I0.025 J-0.3115
G2 X2.8914 Y1.3148 I0.3063 J-0.0621
G3 X2.9713 Y1.3427 I-0.0408 J0.2449
G3 X3.0236 Y1.3858 I-0.0912 J0.164
G3 X3.0499 Y1.4339 I-0.106 J0.0893
G3 X3.0538 Y1.4591 I-0.0809 J0.0252
G3 X3.0532 Y1.4694 I-0.0847 J0
G1 X2.9981 Y1.9165
G1 X3.0477 Y1.9226 F60
G1 X3.0359 Y2.018 F60
G2 X3.034 Y2.0501 I0.2605 J0.0321
G2 X3.0516 Y2.1446 I0.2625 J0
G2 X2.9942 Y2.1685 I0.0712 J0.2527
G2 X2.8457 Y2.0979 I-0.1812 J0.1899
G1 X2.1543 Y2.011
G2 X1.9929 Y2.0427 I-0.0327 J0.2605
G2 X1.9652 Y2.0197 I-0.1812 J0.1899
G2 X2.0196 Y1.8892 I-0.2061 J-0.1625
G1 X2.0687 Y1.4903
G1 X2.0864 Y1.3467
G3 X2.1041 Y1.2947 I0.1338 J0.0165
G3 X2.1509 Y1.2421 I0.1574 J0.0929
G3 X2.2225 Y1.2054 I0.1388 J0.1824
G3 X2.3126 Y1.1927 I0.0848 J0.2765
G1 X2.3341 Y1.1945
G2 X2.6154 Y0.9672 I0.021 J-0.2617
G2 X2.6659 Y0.9374 I-0.1072 J-0.2396
G2 X2.6843 Y0.958 I0.2047 J-0.1643
G1 X2.6823 Y0.9743
G2 X2.6803 Y1.0066 I0.2605 J0.0323
G2 X2.8997 Y1.2655 I0.2625 J0
G3 X2.9956 Y1.2991 I-0.049 J0.2942
G3 X3.0619 Y1.3536 I-0.1155 J0.2077
G3 X3.0977 Y1.419 I-0.1442 J0.1215
G3 X3.1038 Y1.4591 I-0.1286 J0.0401
G3 X3.1028 Y1.4756 I-0.1347 J0
G1 X3.0477 Y1.9226
G1 X3.0973 Y1.9287 F60
G1 X3.0856 Y2.0241 F60
G2 X3.084 Y2.0501 I0.2109 J0.026
G2 X3.1323 Y2.185 I0.2125 J0
G2 X2.9859 Y2.2348 I-0.0095 J0.2123
G2 X2.8394 Y2.1475 I-0.1729 J0.1235
G1 X2.1481 Y2.0607
G2 X1.9846 Y2.1091 I-0.0265 J0.2108
G2 X1.8805 Y2.0315 I-0.1729 J0.1235
G2 X1.97 Y1.8831 I-0.1214 J-0.1744
G1 X2.0191 Y1.4842
G1 X2.0368 Y1.3406
G3 X2.0611 Y1.2693 I0.1834 J0.0226
G3 X2.1206 Y1.2024 I0.2005 J0.1183
G3 X2.2078 Y1.1576 I0.1691 J0.2221
G3 X2.3152 Y1.1428 I0.0994 J0.3243
G1 X2.3381 Y1.1446
G2 X2.566 Y0.9588 I0.017 J-0.2118
G1 X2.5694 Y0.931
G2 X2.6759 Y0.858 I-0.0613 J-0.2035
G2 X2.7371 Y0.9384 I0.1948 J-0.085
G1 X2.7319 Y0.9804
G2 X2.7303 Y1.0066 I0.2109 J0.0261
G2 X2.9079 Y1.2162 I0.2125 J0
G3 X3.02 Y1.2554 I-0.0573 J0.3436
G3 X3.1001 Y1.3214 I-0.1398 J0.2514
G3 X3.1454 Y1.4041 I-0.1825 J0.1537
G3 X3.1538 Y1.4591 I-0.1764 J0.055
G3 X3.1524 Y1.4817 I-0.1847 J0
G1 X3.0973 Y1.9287
G1 X3.1469 Y1.9348 F60
G1 X3.1352 Y2.0302 F60
G2 X3.134 Y2.0501 I0.1613 J0.0199
G2 X3.2761 Y2.2113 I0.1625 J0
G1 X3.2941 Y2.2136
G1 X3.2891 Y2.2544
G1 X3.1431 Y2.2361
G2 X2.9735 Y2.3332 I-0.0202 J0.1612
G2 X2.8332 Y2.1971 I-0.1605 J0.0251
G1 X2.1418 Y2.1103
G2 X1.9722 Y2.2075 I-0.0203 J0.1612
G2 X1.832 Y2.0714 I-0.1605 J0.0251
G1 X1.7166 Y2.0568
G1 X1.7216 Y2.0162
G1 X1.7387 Y2.0183
G2 X1.9204 Y1.877 I0.0203 J-0.1612
G1 X1.9695 Y1.4781
G1 X1.9872 Y1.3345
G3 X2.018 Y1.2439 I0.233 J0.0288
G3 X2.0903 Y1.1626 I0.2436 J0.1437
G3 X2.1931 Y1.1098 I0.1994 J0.2619
G3 X2.3178 Y1.0928 I0.1141 J0.3721
G1 X2.3421 Y1.0948
G2 X2.5164 Y0.9527 I0.013 J-0.162
G1 X2.5242 Y0.8892
G2 X2.6696 Y0.7457 I-0.016 J-0.1617
G2 X2.6824 Y0.6162 I-4.6125 J-0.5199
G2 X2.6881 Y0.5257 I-2.151 J-0.1815
G2 X2.6894 Y0.4681 I-1.3649 J-0.0576
G2 X2.6888 Y0.4307 I-1.3661 J0
G2 X2.6827 Y0.3659 I-0.4825 J0.0132
G2 X2.6706 Y0.3102 I-0.5626 J0.0922
G3 X2.6798 Y0.3288 I-0.3106 J0.1637
G3 X2.6994 Y0.3803 I-0.4023 J0.1825
G3 X2.7174 Y0.4512 I-0.6707 J0.2084
G3 X2.7262 Y0.5396 I-0.4425 J0.0884
G3 X2.7261 Y0.5474 I-0.4512 J0
G3 X2.7098 Y0.7499 I-1.6134 J-0.0279
G2 X2.7081 Y0.7731 I0.1608 J0.0232
G1 X2.7081 Y0.7731
G2 X2.7905 Y0.9144 I0.1625 J0
G1 X2.7815 Y0.9866
G2 X2.7803 Y1.0066 I0.1613 J0.02
G2 X2.9161 Y1.1668 I0.1625 J0
G3 X3.0443 Y1.2117 I-0.0655 J0.3929
G3 X3.1383 Y1.2892 I-0.1642 J0.2951
G3 X3.1932 Y1.3893 I-0.2207 J0.1859
G3 X3.2038 Y1.4591 I-0.2241 J0.0698
G3 X3.202 Y1.4878 I-0.2347 J0
G1 X3.1469 Y1.9348
G1 X3.1966 Y1.941 F60
G1 X3.1848 Y2.0363 F60
G2 X3.184 Y2.0501 I0.1117 J0.0138
G2 X3.2824 Y2.1617 I0.1125 J0
G1 X3.3499 Y2.1702
G1 X3.3325 Y2.3102
G1 X3.3307 Y2.31
G1 X3.1368 Y2.2857
G2 X3.0112 Y2.3836 I-0.014 J0.1116
G1 X2.9326 Y3.0219
G3 X2.9311 Y3.0261 I-0.0103 J-0.0012
G3 X2.9234 Y3.0342 I-0.0234 J-0.0146
G3 X2.9087 Y3.0407 I-0.0245 J-0.0356
G3 X2.8868 Y3.0419 I-0.0143 J-0.0616
G3 X2.8654 Y3.0352 I0.0081 J-0.0636
G3 X2.8524 Y3.0251 I0.0204 J-0.0396
G3 X2.8466 Y3.0149 I0.0217 J-0.0191
G3 X2.8461 Y3.0115 I0.0106 J-0.0034
G3 X2.8461 Y3.0102 I0.0111 J0
G1 X2.9246 Y2.3721
G2 X2.9255 Y2.3584 I-0.1117 J-0.0137
G2 X2.827 Y2.2467 I-0.1125 J0
G1 X2.1356 Y2.1599
G2 X2.0099 Y2.2578 I-0.014 J0.1116
G1 X1.9309 Y2.8997
G3 X1.9294 Y2.9041 I-0.0105 J-0.0013
G3 X1.9216 Y2.9122 I-0.0235 J-0.0147
G3 X1.9069 Y2.9187 I-0.0244 J-0.0356
G3 X1.8849 Y2.9198 I-0.0142 J-0.0613
G3 X1.8636 Y2.9132 I0.0079 J-0.063
G3 X1.8506 Y2.903 I0.0205 J-0.0397
G3 X1.8448 Y2.8929 I0.0216 J-0.019
G3 X1.8443 Y2.8897 I0.0099 J-0.0032
G3 X1.8445 Y2.8881 I0.0104 J0
G1 X1.9233 Y2.2463
G2 X1.9242 Y2.2326 I-0.1117 J-0.0137
G2 X1.8257 Y2.121 I-0.1125 J0
G1 X1.6609 Y2.1002
G1 X1.6781 Y1.9603
G1 X1.745 Y1.9687
G2 X1.8707 Y1.8709 I0.0141 J-0.1116
G1 X1.9198 Y1.472
G1 X1.9376 Y1.3283
G3 X1.9749 Y1.2185 I0.2827 J0.0349
G3 X2.06 Y1.1228 I0.2866 J0.1691
G3 X2.1785 Y1.062 I0.2296 J0.3017
G3 X2.3205 Y1.0429 I0.1287 J0.4199
G1 X2.3461 Y1.0449
G2 X2.4668 Y0.9465 I0.009 J-0.1121
G1 X2.4802 Y0.8374
G1 X2.4942 Y0.8392
G2 X2.62 Y0.7401 I0.014 J-0.1116
G2 X2.6326 Y0.612 I-4.5628 J-0.5143
G2 X2.6382 Y0.5236 I-2.1011 J-0.1773
G2 X2.6394 Y0.4681 I-1.315 J-0.0555
G2 X2.6389 Y0.4321 I-1.3161 J0
G2 X2.6333 Y0.374 I-0.4325 J0.0118
G2 X2.5868 Y0.2285 I-0.5133 J0.0841
G2 X2.5762 Y0.2081 I-0.5674 J0.2792
G3 X2.5991 Y0.2156 I-0.5758 J1.777
G3 X2.6928 Y0.2502 I-0.5988 J1.7699
G3 X2.7012 Y0.2629 I-0.2278 J0.1588
G3 X2.7253 Y0.3082 I-0.3411 J0.2109
G3 X2.7471 Y0.3654 I-0.4479 J0.2032
G3 X2.7664 Y0.4414 I-0.7185 J0.2232
G3 X2.7762 Y0.5396 I-0.4915 J0.0982
G3 X2.7761 Y0.5483 I-0.5012 J0
G3 X2.7593 Y0.757 I-1.6634 J-0.0287
G2 X2.7581 Y0.7731 I0.1113 J0.0161
G2 X2.8448 Y0.8826 I0.1125 J0
G1 X2.8312 Y0.9927
G2 X2.8303 Y1.0066 I0.1116 J0.0138
G2 X2.9243 Y1.1175 I0.1125 J0
G3 X3.0686 Y1.168 I-0.0737 J0.4422
G3 X3.1766 Y1.257 I-0.1885 J0.3388
G3 X3.2409 Y1.3744 I-0.2589 J0.2182
G3 X3.2538 Y1.4591 I-0.2718 J0.0847
G3 X3.2516 Y1.4939 I-0.2847 J0
G1 X3.1966 Y1.941
G1 X3.2462 Y1.9471 F60
G1 X3.2344 Y2.0424 F60
G2 X3.234 Y2.0501 I0.062 J0.0076
G2 X3.2886 Y2.1121 I0.0625 J0
G1 X3.368 Y2.1221
G3 X3.3848 Y2.1273 I-0.0062 J0.0497
G3 X3.396 Y2.136 I-0.0174 J0.0338
G3 X3.4016 Y2.146 I-0.0213 J0.0187
G3 X3.4025 Y2.1513 I-0.0166 J0.0054
G3 X3.4023 Y2.1534 I-0.0174 J0
G1 X3.3793 Y2.3399
G3 X3.3768 Y2.3468 I-0.0167 J-0.002
G3 X3.3691 Y2.3549 I-0.0233 J-0.0146
G3 X3.3564 Y2.3605 I-0.0211 J-0.0307
G3 X3.3387 Y2.3614 I-0.0112 J-0.0486
G1 X3.3244 Y2.3596
G1 X3.1306 Y2.3353
G2 X3.0608 Y2.3897 I-0.0078 J0.062
G1 X2.9823 Y3.0279
G3 X2.9735 Y3.0526 I-0.0599 J-0.0073
G3 X2.9517 Y3.0754 I-0.0658 J-0.0411
G3 X2.92 Y3.0894 I-0.0528 J-0.0768
G3 X2.8805 Y3.0915 I-0.0256 J-0.1103
G3 X2.8425 Y3.0796 I0.0143 J-0.1132
G3 X2.8149 Y3.0581 I0.0434 J-0.084
G3 X2.7991 Y3.0304 I0.0592 J-0.0521
G3 X2.7961 Y3.0115 I0.0581 J-0.0189
G3 X2.7965 Y3.0041 I0.0611 J0
G1 X2.875 Y2.366
G2 X2.8755 Y2.3584 I-0.062 J-0.0076
G2 X2.8207 Y2.2963 I-0.0625 J0
G1 X2.1294 Y2.2095
G2 X2.0596 Y2.2639 I-0.0078 J0.062
G1 X1.9806 Y2.9058
G3 X1.9718 Y2.9306 I-0.0602 J-0.0073
G3 X1.9499 Y2.9534 I-0.0659 J-0.0412
G3 X1.9182 Y2.9674 I-0.0528 J-0.0768
G3 X1.8786 Y2.9694 I-0.0255 J-0.11
G3 X1.8407 Y2.9576 I0.0142 J-0.1126
G3 X1.8131 Y2.9361 I0.0435 J-0.0841
G3 X1.7973 Y2.9083 I0.0591 J-0.052
G3 X1.7943 Y2.8897 I0.0575 J-0.0186
G3 X1.7948 Y2.882 I0.0604 J0
G1 X1.8737 Y2.2402
G2 X1.8742 Y2.2326 I-0.062 J-0.0076
G2 X1.8195 Y2.1706 I-0.0625 J0
G1 X1.6429 Y2.1484
G3 X1.626 Y2.1431 I0.0062 J-0.0501
G3 X1.6148 Y2.1344 I0.0174 J-0.0338
G3 X1.6092 Y2.1245 I0.0212 J-0.0186
G3 X1.6084 Y2.1193 I0.0162 J-0.0052
G3 X1.6085 Y2.1171 I0.017 J0
G1 X1.6314 Y1.9309
G3 X1.6339 Y1.9237 I0.0175 J0.0022
G3 X1.6417 Y1.9156 I0.0236 J0.0148
G3 X1.6544 Y1.91 I0.0211 J0.0306
G3 X1.672 Y1.9091 I0.0112 J0.0484
G1 X1.7512 Y1.9191
G2 X1.8211 Y1.8648 I0.0078 J-0.062
G1 X1.8702 Y1.4658
G1 X1.8879 Y1.3222
G3 X1.9319 Y1.1931 I0.3323 J0.041
G3 X2.0297 Y1.083 I0.3297 J0.1945
G3 X2.1638 Y1.0142 I0.2599 J0.3415
G3 X2.3233 Y0.993 I0.1434 J0.4677
G1 X2.3501 Y0.9951
G2 X2.4171 Y0.9404 I0.005 J-0.0623
G1 X2.4334 Y0.808
G3 X2.4359 Y0.801 I0.0169 J0.0021
G3 X2.4438 Y0.7928 I0.0237 J0.0149
G3 X2.4566 Y0.7872 I0.0214 J0.0311
G3 X2.4741 Y0.7863 I0.0114 J0.0489
G1 X2.5004 Y0.7896
G2 X2.5703 Y0.7345 I0.0078 J-0.062
G2 X2.5828 Y0.6078 I-4.5132 J-0.5087
G2 X2.5882 Y0.5215 I-2.0513 J-0.1731
G2 X2.5894 Y0.4681 I-1.265 J-0.0534
G2 X2.5889 Y0.4335 I-1.2661 J0
G2 X2.584 Y0.3821 I-0.3825 J0.0105
G2 X2.5419 Y0.2506 I-0.4639 J0.076
G2 X2.4579 Y0.1245 I-0.5225 J0.2571
G2 X2.4556 Y0.1219 I-0.5285 J0.4617
G3 X2.4881 Y0.1301 I-0.4559 J1.8658
G3 X2.6151 Y0.1683 I-0.4876 J1.855
G3 X2.7247 Y0.2091 I-0.6148 J1.8173
G3 X2.7437 Y0.2366 I-0.2597 J0.1999
G3 X2.7708 Y0.2875 I-0.3836 J0.2372
G3 X2.7949 Y0.3506 I-0.4934 J0.2238
G3 X2.8155 Y0.4316 I-0.7662 J0.2381
G3 X2.8262 Y0.5396 I-0.5405 J0.108
G3 X2.8261 Y0.5491 I-0.5512 J0
G3 X2.8088 Y0.7641 I-1.7134 J-0.0296
G2 X2.8081 Y0.7731 I0.0619 J0.0089
G2 X2.8628 Y0.8351 I0.0625 J0
G3 X2.8795 Y0.8403 I-0.0062 J0.0493
G3 X2.8907 Y0.8491 I-0.0177 J0.0342
G3 X2.8965 Y0.8592 I-0.0217 J0.019
G3 X2.8973 Y0.8644 I-0.0162 J0.0053
G3 X2.8972 Y0.8664 I-0.017 J0
G1 X2.8808 Y0.9989
G2 X2.8803 Y1.0066 I0.062 J0.0077
G2 X2.9325 Y1.0682 I0.0625 J0
G3 X3.0929 Y1.1243 I-0.0819 J0.4915
G3 X3.2148 Y1.2247 I-0.2128 J0.3825
G3 X3.2886 Y1.3595 I-0.2972 J0.2504
G3 X3.3038 Y1.4591 I-0.3196 J0.0996
G3 X3.3013 Y1.5 I-0.3347 J0
G1 X3.2462 Y1.9471
G0 Z0.25
G0 X2.6754 Y1.6734
G1 Z-0.5 F30
G1 X2.4526 Y1.6454 F60
G1 X2.4598 Y1.587
G2 X2.5752 Y1.5577 I-0.1047 J-0.6542
G2 X2.6825 Y1.6158 I0.3676 J-0.5511
G1 X2.6754 Y1.6734
G1 X2.7189 Y1.7292 F60
G1 X2.3969 Y1.6888 F60
G1 X2.415 Y1.5424
G2 X2.5822 Y1.5017 I-0.0598 J-0.6096
G2 X2.7368 Y1.5834 I0.3606 J-0.4951
G1 X2.7189 Y1.7292
G1 X2.7624 Y1.7851 F60
G1 X2.3412 Y1.7322 F60
G1 X2.3665 Y1.5271
G1 X2.3704 Y1.4951
G2 X2.5894 Y1.4442 I-0.0153 J-0.5623
G2 X2.7915 Y1.5483 I0.3534 J-0.4376
G1 X2.7624 Y1.7851
G1 X2.8059 Y1.8409 F60
G1 X2.2855 Y1.7756 F60
G1 X2.3168 Y1.521
G1 X2.3263 Y1.4445
G2 X2.5969 Y1.3847 I0.0288 J-0.5117
G2 X2.8466 Y1.51 I0.3459 J-0.3781
G1 X2.8059 Y1.8409
G1 X2.8494 Y1.8968 F60
G1 X2.2298 Y1.819 F60
G1 X2.2672 Y1.5148
G1 X2.2818 Y1.3964
G3 X2.3045 Y1.3927 I0.0254 J0.0855
G1 X2.3182 Y1.3938
G2 X2.6047 Y1.3222 I0.0369 J-0.461
G2 X2.8668 Y1.4628 I0.3381 J-0.3156
G3 X2.8984 Y1.4738 I-0.0162 J0.097
G3 X2.9013 Y1.4756 I-0.0183 J0.0329
G1 X2.8494 Y1.8968
G1 X2.8988 Y1.9043 F60
G1 X2.8927 Y1.9536 F60
G2 X2.8644 Y1.9491 I-0.0798 J0.4047
G1 X2.174 Y1.8623
G1 X2.2176 Y1.5087
G1 X2.2349 Y1.3685
G3 X2.2417 Y1.3615 I0.0267 J0.0191
G3 X2.2664 Y1.3488 I0.048 J0.063
G3 X2.3061 Y1.3427 I0.0408 J0.1331
G1 X2.3222 Y1.344
G2 X2.6132 Y1.2546 I0.033 J-0.4112
G2 X2.875 Y1.4134 I0.3296 J-0.248
G3 X2.9227 Y1.4301 I-0.0244 J0.1463
G3 X2.9471 Y1.4503 I-0.0426 J0.0766
G3 X2.9535 Y1.4608 I-0.0295 J0.0249
G1 X2.8988 Y1.9043
G1 X2.9484 Y1.9104 F60
G1 X2.9367 Y2.0057 F60
G2 X2.9355 Y2.0172 I0.3598 J0.0443
G2 X2.8581 Y1.9987 I-0.1225 J0.3412
G1 X2.1668 Y1.9118
G2 X2.1178 Y1.909 I-0.0452 J0.3597
G2 X2.1189 Y1.9014 I-0.3588 J-0.0519
G1 X2.168 Y1.5026
G1 X2.1857 Y1.3589
G3 X2.1903 Y1.3455 I0.0345 J0.0043
G3 X2.2114 Y1.3217 I0.0713 J0.0421
G3 X2.2518 Y1.301 I0.0782 J0.1028
G3 X2.308 Y1.2927 I0.0555 J0.1809
G1 X2.3262 Y1.2941
G2 X2.6229 Y1.1771 I0.029 J-0.3613
G2 X2.8832 Y1.3641 I0.3199 J-0.1705
G3 X2.947 Y1.3864 I-0.0326 J0.1956
G3 X2.9854 Y1.418 I-0.0669 J0.1203
G3 X3.0022 Y1.4488 I-0.0678 J0.0571
G3 X3.0038 Y1.4591 I-0.0332 J0.0103
G3 X3.0035 Y1.4633 I-0.0347 J0
G1 X2.9484 Y1.9104
G1 X2.9981 Y1.9165 F60
G1 X2.9863 Y2.0119 F60
G2 X2.984 Y2.0501 I0.3102 J0.0382
G2 X2.9879 Y2.0994 I0.3125 J0
G2 X2.8519 Y2.0483 I-0.1749 J0.2589
G1 X2.1605 Y1.9614
G2 X2.0516 Y1.9669 I-0.039 J0.3101
G2 X2.0692 Y1.8953 I-0.2926 J-0.1098
G1 X2.1183 Y1.4965
G1 X2.1361 Y1.3528
G3 X2.1472 Y1.3201 I0.0842 J0.0104
G3 X2.1811 Y1.2819 I0.1144 J0.0675
G3 X2.2371 Y1.2532 I0.1085 J0.1426
G3 X2.3102 Y1.2427 I0.0701 J0.2287
G1 X2.3301 Y1.2443
G2 X2.6365 Y1.0687 I0.025 J-0.3115
G2 X2.8914 Y1.3148 I0.3063 J-0.0621
G3 X2.9713 Y1.3427 I-0.0408 J0.2449
G3 X3.0236 Y1.3858 I-0.0912 J0.164
G3 X3.0499 Y1.4339 I-0.106 J0.0893
G3 X3.0538 Y1.4591 I-0.0809 J0.0252
G3 X3.0532 Y1.4694 I-0.0847 J0
G1 X2.9981 Y1.9165
G1 X3.0477 Y1.9226 F60
G1 X3.0359 Y2.018 F60
G2 X3.034 Y2.0501 I0.2605 J0.0321
G2 X3.0516 Y2.1446 I0.2625 J0
G2 X2.9942 Y2.1685 I0.0712 J0.2527
G2 X2.8457 Y2.0979 I-0.1812 J0.1899
G1 X2.1543 Y2.011
G2 X1.9929 Y2.0427 I-0.0327 J0.2605
G2 X1.9652 Y2.0197 I-0.1812 J0.1899
G2 X2.0196 Y1.8892 I-0.2061 J-0.1625
G1 X2.0687 Y1.4903
G1 X2.0864 Y1.3467
G3 X2.1041 Y1.2947 I0.1338 J0.0165
G3 X2.1509 Y1.2421 I0.1574 J0.0929
G3 X2.2225 Y1.2054 I0.1388 J0.1824
G3 X2.3126 Y1.1927 I0.0848 J0.2765
G1 X2.3341 Y1.1945
G2 X2.6154 Y0.9672 I0.021 J-0.2617
G2 X2.6659 Y0.9374 I-0.1072 J-0.2396
G2 X2.6843 Y0.958 I0.2047 J-0.1643
G1 X2.6823 Y0.9743
G2 X2.6803 Y1.0066 I0.2605 J0.0323
G2 X2.8997 Y1.2655 I0.2625 J0
G3 X2.9956 Y1.2991 I-0.049 J0.2942
G3 X3.0619 Y1.3536 I-0.1155 J0.2077
G3 X3.0977 Y1.419 I-0.1442 J0.1215
G3 X3.1038 Y1.4591 I-0.1286 J0.0401
G3 X3.1028 Y1.4756 I-0.1347 J0
G1 X3.0477 Y1.9226
G1 X3.0973 Y1.9287 F60
G1 X3.0856 Y2.0241 F60
G2 X3.084 Y2.0501 I0.2109 J0.026
G2 X3.1323 Y2.185 I0.2125 J0
G2 X2.9859 Y2.2348 I-0.0095 J0.2123
G2 X2.8394 Y2.1475 I-0.1729 J0.1235
G1 X2.1481 Y2.0607
G2 X1.9846 Y2.1091 I-0.0265 J0.2108
G2 X1.8805 Y2.0315 I-0.1729 J0.1235
G2 X1.97 Y1.8831 I-0.1214 J-0.1744
G1 X2.0191 Y1.4842
G1 X2.0368 Y1.3406
G3 X2.0611 Y1.2693 I0.1834 J0.0226
G3 X2.1206 Y1.2024 I0.2005 J0.1183
G3 X2.2078 Y1.1576 I0.1691 J0.2221
G3 X2.3152 Y1.1428 I0.0994 J0.3243
G1 X2.3381 Y1.1446
G2 X2.566 Y0.9588 I0.017 J-0.2118
G1 X2.5694 Y0.931
G2 X2.6759 Y0.858 I-0.0613 J-0.2035
G2 X2.7371 Y0.9384 I0.1948 J-0.085
G1 X2.7319 Y0.9804
G2 X2.7303 Y1.0066 I0.2109 J0.0261
G2 X2.9079 Y1.2162 I0.2125 J0
G3 X3.02 Y1.2554 I-0.0573 J0.3436
G3 X3.1001 Y1.3214 I-0.1398 J0.2514
G3 X3.1454 Y1.4041 I-0.1825 J0.1537
G3 X3.1538 Y1.4591 I-0.1764 J0.055
G3 X3.1524 Y1.4817 I-0.1847 J0
G1 X3.0973 Y1.9287
G1 X3.1469 Y1.9348 F60
G1 X3.1352 Y2.0302 F60
G2 X3.134 Y2.0501 I0.1613 J0.0199
G2 X3.2761 Y2.2113 I0.1625 J0
G1 X3.2941 Y2.2136
G1 X3.2891 Y2.2544
G1 X3.1431 Y2.2361
G2 X2.9735 Y2.3332 I-0.0202 J0.1612
G2 X2.8332 Y2.1971 I-0.1605 J0.0251
G1 X2.1418 Y2.1103
G2 X1.9722 Y2.2075 I-0.0203 J0.1612
G2 X1.832 Y2.0714 I-0.1605 J0.0251
G1 X1.7166 Y2.0568
G1 X1.7216 Y2.0162
G1 X1.7387 Y2.0183
G2 X1.9204 Y1.877 I0.0203 J-0.1612
G1 X1.9695 Y1.4781
G1 X1.9872 Y1.3345
G3 X2.018 Y1.2439 I0.233 J0.0288
G3 X2.0903 Y1.1626 I0.2436 J0.1437
G3 X2.1931 Y1.1098 I0.1994 J0.2619
G3 X2.3178 Y1.0928 I0.1141 J0.3721
G1 X2.3421 Y1.0948
G2 X2.5164 Y0.9527 I0.013 J-0.162
G1 X2.5242 Y0.8892
G2 X2.6696 Y0.7457 I-0.016 J-0.1617
G2 X2.6824 Y0.6162 I-4.6125 J-0.5199
G2 X2.6881 Y0.5257 I-2.151 J-0.1815
G2 X2.6894 Y0.4681 I-1.3649 J-0.0576
G2 X2.6888 Y0.4307 I-1.3661 J0
G2 X2.6827 Y0.3659 I-0.4825 J0.0132
G2 X2.6706 Y0.3102 I-0.5626 J0.0922
G3 X2.6798 Y0.3288 I-0.3106 J0.1637
G3 X2.6994 Y0.3803 I-0.4023 J0.1825
G3 X2.7174 Y0.4512 I-0.6707 J0.2084
G3 X2.7262 Y0.5396 I-0.4425 J0.0884
G3 X2.7261 Y0.5474 I-0.4512 J0
G3 X2.7098 Y0.7499 I-1.6134 J-0.0279
G2 X2.7081 Y0.7731 I0.1608 J0.0232
G1 X2.7081 Y0.7731
G2 X2.7905 Y0.9144 I0.1625 J0
G1 X2.7815 Y0.9866
G2 X2.7803 Y1.0066 I0.1613 J0.02
G2 X2.9161 Y1.1668 I0.1625 J0
G3 X3.0443 Y1.2117 I-0.0655 J0.3929
G3 X3.1383 Y1.2892 I-0.1642 J0.2951
G3 X3.1932 Y1.3893 I-0.2207 J0.1859
G3 X3.2038 Y1.4591 I-0.2241 J0.0698
G3 X3.202 Y1.4878 I-0.2347 J0
G1 X3.1469 Y1.9348
G1 X3.1966 Y1.941 F60
G1 X3.1848 Y2.0363 F60
G2 X3.184 Y2.0501 I0.1117 J0.0138
G2 X3.2824 Y2.1617 I0.1125 J0
G1 X3.3499 Y2.1702
G1 X3.3325 Y2.3102
G1 X3.3307 Y2.31
G1 X3.1368 Y2.2857
G2 X3.0112 Y2.3836 I-0.014 J0.1116
G1 X2.9326 Y3.0219
G3 X2.9311 Y3.0261 I-0.0103 J-0.0012
G3 X2.9234 Y3.0342 I-0.0234 J-0.0146
G3 X2.9087 Y3.0407 I-0.0245 J-0.0356
G3 X2.8868 Y3.0419 I-0.0143 J-0.0616
G3 X2.8654 Y3.0352 I0.0081 J-0.0636
G3 X2.8524 Y3.0251 I0.0204 J-0.0396
G3 X2.8466 Y3.0149 I0.0217 J-0.0191
G3 X2.8461 Y3.0115 I0.0106 J-0.0034
G3 X2.8461 Y3.0102 I0.0111 J0
G1 X2.9246 Y2.3721
G2 X2.9255 Y2.3584 I-0.1117 J-0.0137
G2 X2.827 Y2.2467 I-0.1125 J0
G1 X2.1356 Y2.1599
G2 X2.0099 Y2.2578 I-0.014 J0.1116
G1 X1.9309 Y2.8997
G3 X1.9294 Y2.9041 I-0.0105 J-0.0013
G3 X1.9216 Y2.9122 I-0.0235 J-0.0147
G3 X1.9069 Y2.9187 I-0.0244 J-0.0356
G3 X1.8849 Y2.9198 I-0.0142 J-0.0613
G3 X1.8636 Y2.9132 I0.0079 J-0.063
G3 X1.8506 Y2.903 I0.0205 J-0.0397
G3 X1.8448 Y2.8929 I0.0216 J-0.019
G3 X1.8443 Y2.8897 I0.0099 J-0.0032
G3 X1.8445 Y2.8881 I0.0104 J0
G1 X1.9233 Y2.2463
G2 X1.9242 Y2.2326 I-0.1117 J-0.0137
G2 X1.8257 Y2.121 I-0.1125 J0
G1 X1.6609 Y2.1002
G1 X1.6781 Y1.9603
G1 X1.745 Y1.9687
G2 X1.8707 Y1.8709 I0.0141 J-0.1116
G1 X1.9198 Y1.472
G1 X1.9376 Y1.3283
G3 X1.9749 Y1.2185 I0.2827 J0.0349
G3 X2.06 Y1.1228 I0.2866 J0.1691
G3 X2.1785 Y1.062 I0.2296 J0.3017
G3 X2.3205 Y1.0429 I0.1287 J0.4199
G1 X2.3461 Y1.0449
G2 X2.4668 Y0.9465 I0.009 J-0.1121
G1 X2.4802 Y0.8374
G1 X2.4942 Y0.8392
G2 X2.62 Y0.7401 I0.014 J-0.1116
G2 X2.6326 Y0.612 I-4.5628 J-0.5143
G2 X2.6382 Y0.5236 I-2.1011 J-0.1773
G2 X2.6394 Y0.4681 I-1.315 J-0.0555
G2 X2.6389 Y0.4321 I-1.3161 J0
G2 X2.6333 Y0.374 I-0.4325 J0.0118
G2 X2.5868 Y0.2285 I-0.5133 J0.0841
G2 X2.5762 Y0.2081 I-0.5674 J0.2792
G3 X2.5991 Y0.2156 I-0.5758 J1.777
G3 X2.6928 Y0.2502 I-0.5988 J1.7699
G3 X2.7012 Y0.2629 I-0.2278 J0.1588
G3 X2.7253 Y0.3082 I-0.3411 J0.2109
G3 X2.7471 Y0.3654 I-0.4479 J0.2032
G3 X2.7664 Y0.4414 I-0.7185 J0.2232
G3 X2.7762 Y0.5396 I-0.4915 J0.0982
G3 X2.7761 Y0.5483 I-0.5012 J0
G3 X2.7593 Y0.757 I-1.6634 J-0.0287
G2 X2.7581 Y0.7731 I0.1113 J0.0161
G2 X2.8448 Y0.8826 I0.1125 J0
G1 X2.8312 Y0.9927
G2 X2.8303 Y1.0066 I0.1116 J0.0138
G2 X2.9243 Y1.1175 I0.1125 J0
G3 X3.0686 Y1.168 I-0.0737 J0.4422
G3 X3.1766 Y1.257 I-0.1885 J0.3388
G3 X3.2409 Y1.3744 I-0.2589 J0.2182
G3 X3.2538 Y1.4591 I-0.2718 J0.0847
G3 X3.2516 Y1.4939 I-0.2847 J0
G1 X3.1966 Y1.941
G1 X3.2462 Y1.9471 F60
G1 X3.2344 Y2.0424 F60
G2 X3.234 Y2.0501 I0.062 J0.0076
G2 X3.2886 Y2.1121 I0.0625 J0
G1 X3.368 Y2.1221
G3 X3.3848 Y2.1273 I-0.0062 J0.0497
G3 X3.396 Y2.136 I-0.0174 J0.0338
G3 X3.4016 Y2.146 I-0.0213 J0.0187
G3 X3.4025 Y2.1513 I-0.0166 J0.0054
G3 X3.4023 Y2.1534 I-0.0174 J0
G1 X3.3793 Y2.3399
G3 X3.3768 Y2.3468 I-0.0167 J-0.002
G3 X3.3691 Y2.3549 I-0.0233 J-0.0146
G3 X3.3564 Y2.3605 I-0.0211 J-0.0307
G3 X3.3387 Y2.3614 I-0.0112 J-0.0486
G1 X3.3244 Y2.3596
G1 X3.1306 Y2.3353
G2 X3.0608 Y2.3897 I-0.0078 J0.062
G1 X2.9823 Y3.0279
G3 X2.9735 Y3.0526 I-0.0599 J-0.0073
G3 X2.9517 Y3.0754 I-0.0658 J-0.0411
G3 X2.92 Y3.0894 I-0.0528 J-0.0768
G3 X2.8805 Y3.0915 I-0.0256 J-0.1103
G3 X2.8425 Y3.0796 I0.0143 J-0.1132
G3 X2.8149 Y3.0581 I0.0434 J-0.084
G3 X2.7991 Y3.0304 I0.0592 J-0.0521
G3 X2.7961 Y3.0115 I0.0581 J-0.0189
G3 X2.7965 Y3.0041 I0.0611 J0
G1 X2.875 Y2.366
G2 X2.8755 Y2.3584 I-0.062 J-0.0076
G2 X2.8207 Y2.2963 I-0.0625 J0
G1 X2.1294 Y2.2095
G2 X2.0596 Y2.2639 I-0.0078 J0.062
G1 X1.9806 Y2.9058
G3 X1.9718 Y2.9306 I-0.0602 J-0.0073
G3 X1.9499 Y2.9534 I-0.0659 J-0.0412
G3 X1.9182 Y2.9674 I-0.0528 J-0.0768
G3 X1.8786 Y2.9694 I-0.0255 J-0.11
G3 X1.8407 Y2.9576 I0.0142 J-0.1126
G3 X1.8131 Y2.9361 I0.0435 J-0.0841
G3 X1.7973 Y2.9083 I0.0591 J-0.052
G3 X1.7943 Y2.8897 I0.0575 J-0.0186
G3 X1.7948 Y2.882 I0.0604 J0
G1 X1.8737 Y2.2402
G2 X1.8742 Y2.2326 I-0.062 J-0.0076
G2 X1.8195 Y2.1706 I-0.0625 J0
G1 X1.6429 Y2.1484
G3 X1.626 Y2.1431 I0.0062 J-0.0501
G3 X1.6148 Y2.1344 I0.0174 J-0.0338
G3 X1.6092 Y2.1245 I0.0212 J-0.0186
G3 X1.6084 Y2.1193 I0.0162 J-0.0052
G3 X1.6085 Y2.1171 I0.017 J0
G1 X1.6314 Y1.9309
G3 X1.6339 Y1.9237 I0.0175 J0.0022
G3 X1.6417 Y1.9156 I0.0236 J0.0148
G3 X1.6544 Y1.91 I0.0211 J0.0306
G3 X1.672 Y1.9091 I0.0112 J0.0484
G1 X1.7512 Y1.9191
G2 X1.8211 Y1.8648 I0.0078 J-0.062
G1 X1.8702 Y1.4658
G1 X1.8879 Y1.3222
G3 X1.9319 Y1.1931 I0.3323 J0.041
G3 X2.0297 Y1.083 I0.3297 J0.1945
G3 X2.1638 Y1.0142 I0.2599 J0.3415
G3 X2.3233 Y0.993 I0.1434 J0.4677
G1 X2.3501 Y0.9951
G2 X2.4171 Y0.9404 I0.005 J-0.0623
G1 X2.4334 Y0.808
G3 X2.4359 Y0.801 I0.0169 J0.0021
G3 X2.4438 Y0.7928 I0.0237 J0.0149
G3 X2.4566 Y0.7872 I0.0214 J0.0311
G3 X2.4741 Y0.7863 I0.0114 J0.0489
G1 X2.5004 Y0.7896
G2 X2.5703 Y0.7345 I0.0078 J-0.062
G2 X2.5828 Y0.6078 I-4.5132 J-0.5087
G2 X2.5882 Y0.5215 I-2.0513 J-0.1731
G2 X2.5894 Y0.4681 I-1.265 J-0.0534
G2 X2.5889 Y0.4335 I-1.2661 J0
G2 X2.584 Y0.3821 I-0.3825 J0.0105
G2 X2.5419 Y0.2506 I-0.4639 J0.076
G2 X2.4579 Y0.1245 I-0.5225 J0.2571
G2 X2.4556 Y0.1219 I-0.5285 J0.4617
G3 X2.4881 Y0.1301 I-0.4559 J1.8658
G3 X2.6151 Y0.1683 I-0.4876 J1.855
G3 X2.7247 Y0.2091 I-0.6148 J1.8173
G3 X2.7437 Y0.2366 I-0.2597 J0.1999
G3 X2.7708 Y0.2875 I-0.3836 J0.2372
G3 X2.7949 Y0.3506 I-0.4934 J0.2238
G3 X2.8155 Y0.4316 I-0.7662 J0.2381
G3 X2.8262 Y0.5396 I-0.5405 J0.108
G3 X2.8261 Y0.5491 I-0.5512 J0
G3 X2.8088 Y0.7641 I-1.7134 J-0.0296
G2 X2.8081 Y0.7731 I0.0619 J0.0089
G2 X2.8628 Y0.8351 I0.0625 J0
G3 X2.8795 Y0.8403 I-0.0062 J0.0493
G3 X2.8907 Y0.8491 I-0.0177 J0.0342
G3 X2.8965 Y0.8592 I-0.0217 J0.019
G3 X2.8973 Y0.8644 I-0.0162 J0.0053
G3 X2.8972 Y0.8664 I-0.017 J0
G1 X2.8808 Y0.9989
G2 X2.8803 Y1.0066 I0.062 J0.0077
G2 X2.9325 Y1.0682 I0.0625 J0
G3 X3.0929 Y1.1243 I-0.0819 J0.4915
G3 X3.2148 Y1.2247 I-0.2128 J0.3825
G3 X3.2886 Y1.3595 I-0.2972 J0.2504
G3 X3.3038 Y1.4591 I-0.3196 J0.0996
G3 X3.3013 Y1.5 I-0.3347 J0
G1 X3.2462 Y1.9471
G0 Z0.25
M5
M30
