(Generated by PartKam Version 0.05)

G20 G90 G40

(BeerHole)
G0 Z0.125
T0 M6
G17
M3
G0 X0.3978 Y3.1916
G1 Z-0.015 F1
G1 X0.3978 Y2.4567 F15
G3 X0.4036 Y2.4271 I0.0789 J0
G3 X0.4255 Y2.391 I0.1228 J0.0498
G3 X0.4585 Y2.3602 I0.1497 J0.1273
G3 X0.5139 Y2.3263 I0.2218 J0.3006
G3 X0.6468 Y2.2805 I0.243 J0.4884
G3 X0.8293 Y2.2618 I0.1825 J0.8856
G1 X0.9846 Y2.2618
G1 X1.0315 Y2.2618
G3 X1.0992 Y2.3653 I-0.7244 J0.5479
G3 X1.1568 Y2.4906 I-0.7444 J0.4177
G3 X1.1977 Y2.6527 I-0.7703 J0.2808
G3 X1.2066 Y2.7745 I-0.8319 J0.1218
G3 X1.2053 Y2.8219 I-0.8407 J0
G2 X1.2052 Y2.8241 I0.0393 J0.0022
G2 X1.2053 Y2.8264 I0.0394 J0
G3 X1.2066 Y2.8738 I-0.8394 J0.0474
G3 X1.1977 Y2.9956 I-0.8408 J0
G3 X1.1568 Y3.1576 I-0.8112 J-0.1187
G3 X1.0992 Y3.283 I-0.8019 J-0.2923
G3 X1.0315 Y3.3865 I-0.7923 J-0.4446
G1 X0.9846 Y3.3865
G1 X0.8293 Y3.3865
G3 X0.6468 Y3.3678 I0 J-0.9042
G3 X0.5139 Y3.322 I0.1101 J-0.5343
G3 X0.4585 Y3.2881 I0.1664 J-0.3345
G3 X0.4255 Y3.2572 I0.1167 J-0.1582
G3 X0.4036 Y3.2212 I0.101 J-0.0859
G3 X0.3978 Y3.1916 I0.0731 J-0.0297
G1 Z-0.03 F1
G1 X0.3978 Y2.4567 F15
G3 X0.4036 Y2.4271 I0.0789 J0
G3 X0.4255 Y2.391 I0.1228 J0.0498
G3 X0.4585 Y2.3602 I0.1497 J0.1273
G3 X0.5139 Y2.3263 I0.2218 J0.3006
G3 X0.6468 Y2.2805 I0.243 J0.4884
G3 X0.8293 Y2.2618 I0.1825 J0.8856
G1 X0.9846 Y2.2618
G1 X1.0315 Y2.2618
G3 X1.0992 Y2.3653 I-0.7244 J0.5479
G3 X1.1568 Y2.4906 I-0.7444 J0.4177
G3 X1.1977 Y2.6527 I-0.7703 J0.2808
G3 X1.2066 Y2.7745 I-0.8319 J0.1218
G3 X1.2053 Y2.8219 I-0.8407 J0
G2 X1.2052 Y2.8241 I0.0393 J0.0022
G2 X1.2053 Y2.8264 I0.0394 J0
G3 X1.2066 Y2.8738 I-0.8394 J0.0474
G3 X1.1977 Y2.9956 I-0.8408 J0
G3 X1.1568 Y3.1576 I-0.8112 J-0.1187
G3 X1.0992 Y3.283 I-0.8019 J-0.2923
G3 X1.0315 Y3.3865 I-0.7923 J-0.4446
G1 X0.9846 Y3.3865
G1 X0.8293 Y3.3865
G3 X0.6468 Y3.3678 I0 J-0.9042
G3 X0.5139 Y3.322 I0.1101 J-0.5343
G3 X0.4585 Y3.2881 I0.1664 J-0.3345
G3 X0.4255 Y3.2572 I0.1167 J-0.1582
G3 X0.4036 Y3.2212 I0.101 J-0.0859
G3 X0.3978 Y3.1916 I0.0731 J-0.0297
G1 Z-0.045 F1
G1 X0.3978 Y2.4567 F15
G3 X0.4036 Y2.4271 I0.0789 J0
G3 X0.4255 Y2.391 I0.1228 J0.0498
G3 X0.4585 Y2.3602 I0.1497 J0.1273
G3 X0.5139 Y2.3263 I0.2218 J0.3006
G3 X0.6468 Y2.2805 I0.243 J0.4884
G3 X0.8293 Y2.2618 I0.1825 J0.8856
G1 X0.9846 Y2.2618
G1 X1.0315 Y2.2618
G3 X1.0992 Y2.3653 I-0.7244 J0.5479
G3 X1.1568 Y2.4906 I-0.7444 J0.4177
G3 X1.1977 Y2.6527 I-0.7703 J0.2808
G3 X1.2066 Y2.7745 I-0.8319 J0.1218
G3 X1.2053 Y2.8219 I-0.8407 J0
G2 X1.2052 Y2.8241 I0.0393 J0.0022
G2 X1.2053 Y2.8264 I0.0394 J0
G3 X1.2066 Y2.8738 I-0.8394 J0.0474
G3 X1.1977 Y2.9956 I-0.8408 J0
G3 X1.1568 Y3.1576 I-0.8112 J-0.1187
G3 X1.0992 Y3.283 I-0.8019 J-0.2923
G3 X1.0315 Y3.3865 I-0.7923 J-0.4446
G1 X0.9846 Y3.3865
G1 X0.8293 Y3.3865
G3 X0.6468 Y3.3678 I0 J-0.9042
G3 X0.5139 Y3.322 I0.1101 J-0.5343
G3 X0.4585 Y3.2881 I0.1664 J-0.3345
G3 X0.4255 Y3.2572 I0.1167 J-0.1582
G3 X0.4036 Y3.2212 I0.101 J-0.0859
G3 X0.3978 Y3.1916 I0.0731 J-0.0297
G1 Z-0.06 F1
G1 X0.3978 Y2.4567 F15
G3 X0.4036 Y2.4271 I0.0789 J0
G3 X0.4255 Y2.391 I0.1228 J0.0498
G3 X0.4585 Y2.3602 I0.1497 J0.1273
G3 X0.5139 Y2.3263 I0.2218 J0.3006
G3 X0.6468 Y2.2805 I0.243 J0.4884
G3 X0.8293 Y2.2618 I0.1825 J0.8856
G1 X0.9846 Y2.2618
G1 X1.0315 Y2.2618
G3 X1.0992 Y2.3653 I-0.7244 J0.5479
G3 X1.1568 Y2.4906 I-0.7444 J0.4177
G3 X1.1977 Y2.6527 I-0.7703 J0.2808
G3 X1.2066 Y2.7745 I-0.8319 J0.1218
G3 X1.2053 Y2.8219 I-0.8407 J0
G2 X1.2052 Y2.8241 I0.0393 J0.0022
G2 X1.2053 Y2.8264 I0.0394 J0
G3 X1.2066 Y2.8738 I-0.8394 J0.0474
G3 X1.1977 Y2.9956 I-0.8408 J0
G3 X1.1568 Y3.1576 I-0.8112 J-0.1187
G3 X1.0992 Y3.283 I-0.8019 J-0.2923
G3 X1.0315 Y3.3865 I-0.7923 J-0.4446
G1 X0.9846 Y3.3865
G1 X0.8293 Y3.3865
G3 X0.6468 Y3.3678 I0 J-0.9042
G3 X0.5139 Y3.322 I0.1101 J-0.5343
G3 X0.4585 Y3.2881 I0.1664 J-0.3345
G3 X0.4255 Y3.2572 I0.1167 J-0.1582
G3 X0.4036 Y3.2212 I0.101 J-0.0859
G3 X0.3978 Y3.1916 I0.0731 J-0.0297
G1 Z-0.075 F1
G1 X0.3978 Y2.4567 F15
G3 X0.4036 Y2.4271 I0.0789 J0
G3 X0.4255 Y2.391 I0.1228 J0.0498
G3 X0.4585 Y2.3602 I0.1497 J0.1273
G3 X0.5139 Y2.3263 I0.2218 J0.3006
G3 X0.6468 Y2.2805 I0.243 J0.4884
G3 X0.8293 Y2.2618 I0.1825 J0.8856
G1 X0.9846 Y2.2618
G1 X1.0315 Y2.2618
G3 X1.0992 Y2.3653 I-0.7244 J0.5479
G3 X1.1568 Y2.4906 I-0.7444 J0.4177
G3 X1.1977 Y2.6527 I-0.7703 J0.2808
G3 X1.2066 Y2.7745 I-0.8319 J0.1218
G3 X1.2053 Y2.8219 I-0.8407 J0
G2 X1.2052 Y2.8241 I0.0393 J0.0022
G2 X1.2053 Y2.8264 I0.0394 J0
G3 X1.2066 Y2.8738 I-0.8394 J0.0474
G3 X1.1977 Y2.9956 I-0.8408 J0
G3 X1.1568 Y3.1576 I-0.8112 J-0.1187
G3 X1.0992 Y3.283 I-0.8019 J-0.2923
G3 X1.0315 Y3.3865 I-0.7923 J-0.4446
G1 X0.9846 Y3.3865
G1 X0.8293 Y3.3865
G3 X0.6468 Y3.3678 I0 J-0.9042
G3 X0.5139 Y3.322 I0.1101 J-0.5343
G3 X0.4585 Y3.2881 I0.1664 J-0.3345
G3 X0.4255 Y3.2572 I0.1167 J-0.1582
G3 X0.4036 Y3.2212 I0.101 J-0.0859
G3 X0.3978 Y3.1916 I0.0731 J-0.0297
G1 Z-0.09 F1
G1 X0.3978 Y2.4567 F15
G3 X0.4036 Y2.4271 I0.0789 J0
G3 X0.4255 Y2.391 I0.1228 J0.0498
G3 X0.4585 Y2.3602 I0.1497 J0.1273
G3 X0.5139 Y2.3263 I0.2218 J0.3006
G3 X0.6468 Y2.2805 I0.243 J0.4884
G3 X0.8293 Y2.2618 I0.1825 J0.8856
G1 X0.9846 Y2.2618
G1 X1.0315 Y2.2618
G3 X1.0992 Y2.3653 I-0.7244 J0.5479
G3 X1.1568 Y2.4906 I-0.7444 J0.4177
G3 X1.1977 Y2.6527 I-0.7703 J0.2808
G3 X1.2066 Y2.7745 I-0.8319 J0.1218
G3 X1.2053 Y2.8219 I-0.8407 J0
G2 X1.2052 Y2.8241 I0.0393 J0.0022
G2 X1.2053 Y2.8264 I0.0394 J0
G3 X1.2066 Y2.8738 I-0.8394 J0.0474
G3 X1.1977 Y2.9956 I-0.8408 J0
G3 X1.1568 Y3.1576 I-0.8112 J-0.1187
G3 X1.0992 Y3.283 I-0.8019 J-0.2923
G3 X1.0315 Y3.3865 I-0.7923 J-0.4446
G1 X0.9846 Y3.3865
G1 X0.8293 Y3.3865
G3 X0.6468 Y3.3678 I0 J-0.9042
G3 X0.5139 Y3.322 I0.1101 J-0.5343
G3 X0.4585 Y3.2881 I0.1664 J-0.3345
G3 X0.4255 Y3.2572 I0.1167 J-0.1582
G3 X0.4036 Y3.2212 I0.101 J-0.0859
G3 X0.3978 Y3.1916 I0.0731 J-0.0297
G1 Z-0.105 F1
G1 X0.3978 Y2.4567 F15
G3 X0.4036 Y2.4271 I0.0789 J0
G3 X0.4255 Y2.391 I0.1228 J0.0498
G3 X0.4585 Y2.3602 I0.1497 J0.1273
G3 X0.5139 Y2.3263 I0.2218 J0.3006
G3 X0.6468 Y2.2805 I0.243 J0.4884
G3 X0.8293 Y2.2618 I0.1825 J0.8856
G1 X0.9846 Y2.2618
G1 X1.0315 Y2.2618
G3 X1.0992 Y2.3653 I-0.7244 J0.5479
G3 X1.1568 Y2.4906 I-0.7444 J0.4177
G3 X1.1977 Y2.6527 I-0.7703 J0.2808
G3 X1.2066 Y2.7745 I-0.8319 J0.1218
G3 X1.2053 Y2.8219 I-0.8407 J0
G2 X1.2052 Y2.8241 I0.0393 J0.0022
G2 X1.2053 Y2.8264 I0.0394 J0
G3 X1.2066 Y2.8738 I-0.8394 J0.0474
G3 X1.1977 Y2.9956 I-0.8408 J0
G3 X1.1568 Y3.1576 I-0.8112 J-0.1187
G3 X1.0992 Y3.283 I-0.8019 J-0.2923
G3 X1.0315 Y3.3865 I-0.7923 J-0.4446
G1 X0.9846 Y3.3865
G1 X0.8293 Y3.3865
G3 X0.6468 Y3.3678 I0 J-0.9042
G3 X0.5139 Y3.322 I0.1101 J-0.5343
G3 X0.4585 Y3.2881 I0.1664 J-0.3345
G3 X0.4255 Y3.2572 I0.1167 J-0.1582
G3 X0.4036 Y3.2212 I0.101 J-0.0859
G3 X0.3978 Y3.1916 I0.0731 J-0.0297
G1 Z-0.12 F1
G1 X0.3978 Y2.4567 F15
G3 X0.4036 Y2.4271 I0.0789 J0
G3 X0.4255 Y2.391 I0.1228 J0.0498
G3 X0.4585 Y2.3602 I0.1497 J0.1273
G3 X0.5139 Y2.3263 I0.2218 J0.3006
G3 X0.6468 Y2.2805 I0.243 J0.4884
G3 X0.8293 Y2.2618 I0.1825 J0.8856
G1 X0.9846 Y2.2618
G1 X1.0315 Y2.2618
G3 X1.0992 Y2.3653 I-0.7244 J0.5479
G3 X1.1568 Y2.4906 I-0.7444 J0.4177
G3 X1.1977 Y2.6527 I-0.7703 J0.2808
G3 X1.2066 Y2.7745 I-0.8319 J0.1218
G3 X1.2053 Y2.8219 I-0.8407 J0
G2 X1.2052 Y2.8241 I0.0393 J0.0022
G2 X1.2053 Y2.8264 I0.0394 J0
G3 X1.2066 Y2.8738 I-0.8394 J0.0474
G3 X1.1977 Y2.9956 I-0.8408 J0
G3 X1.1568 Y3.1576 I-0.8112 J-0.1187
G3 X1.0992 Y3.283 I-0.8019 J-0.2923
G3 X1.0315 Y3.3865 I-0.7923 J-0.4446
G1 X0.9846 Y3.3865
G1 X0.8293 Y3.3865
G3 X0.6468 Y3.3678 I0 J-0.9042
G3 X0.5139 Y3.322 I0.1101 J-0.5343
G3 X0.4585 Y3.2881 I0.1664 J-0.3345
G3 X0.4255 Y3.2572 I0.1167 J-0.1582
G3 X0.4036 Y3.2212 I0.101 J-0.0859
G3 X0.3978 Y3.1916 I0.0731 J-0.0297
G1 Z-0.13 F1
G1 X0.3978 Y2.4567 F15
G3 X0.4036 Y2.4271 I0.0789 J0
G3 X0.4255 Y2.391 I0.1228 J0.0498
G3 X0.4585 Y2.3602 I0.1497 J0.1273
G3 X0.5139 Y2.3263 I0.2218 J0.3006
G3 X0.6468 Y2.2805 I0.243 J0.4884
G3 X0.8293 Y2.2618 I0.1825 J0.8856
G1 X0.9846 Y2.2618
G1 X1.0315 Y2.2618
G3 X1.0992 Y2.3653 I-0.7244 J0.5479
G3 X1.1568 Y2.4906 I-0.7444 J0.4177
G3 X1.1977 Y2.6527 I-0.7703 J0.2808
G3 X1.2066 Y2.7745 I-0.8319 J0.1218
G3 X1.2053 Y2.8219 I-0.8407 J0
G2 X1.2052 Y2.8241 I0.0393 J0.0022
G2 X1.2053 Y2.8264 I0.0394 J0
G3 X1.2066 Y2.8738 I-0.8394 J0.0474
G3 X1.1977 Y2.9956 I-0.8408 J0
G3 X1.1568 Y3.1576 I-0.8112 J-0.1187
G3 X1.0992 Y3.283 I-0.8019 J-0.2923
G3 X1.0315 Y3.3865 I-0.7923 J-0.4446
G1 X0.9846 Y3.3865
G1 X0.8293 Y3.3865
G3 X0.6468 Y3.3678 I0 J-0.9042
G3 X0.5139 Y3.322 I0.1101 J-0.5343
G3 X0.4585 Y3.2881 I0.1664 J-0.3345
G3 X0.4255 Y3.2572 I0.1167 J-0.1582
G3 X0.4036 Y3.2212 I0.101 J-0.0859
G3 X0.3978 Y3.1916 I0.0731 J-0.0297
G0 Z0.125
M5
M30
