(Generated by PartKam Version 0.05)

G20 G90 G40

(BeerHole)
G0 Z0.25
T0 M6
G17
M3
G0 X0.4175 Y3.1916
G1 Z-0.05 F1
G1 X0.4175 Y2.4567 F30
G3 X0.4219 Y2.4345 I0.0592 J0
G3 X0.4405 Y2.4038 I0.1046 J0.0424
G3 X0.4702 Y2.376 I0.1348 J0.1146
G3 X0.5227 Y2.344 I0.2101 J0.2847
G3 X0.6508 Y2.2997 I0.2342 J0.4708
G3 X0.8293 Y2.2815 I0.1785 J0.8663
G1 X0.9846 Y2.2815
G1 X1.0217 Y2.2815
G3 X1.082 Y2.3749 I-0.7145 J0.5282
G3 X1.1383 Y2.4974 I-0.7272 J0.4081
G3 X1.1782 Y2.6556 I-0.7518 J0.2741
G3 X1.1869 Y2.7745 I-0.8124 J0.1189
G3 X1.1856 Y2.8208 I-0.821 J0
G2 X1.1855 Y2.8241 I0.059 J0.0033
G2 X1.1856 Y2.8275 I0.0591 J0
G3 X1.1869 Y2.8738 I-0.8198 J0.0463
G3 X1.1782 Y2.9927 I-0.8211 J0
G3 X1.1383 Y3.1509 I-0.7918 J-0.1159
G3 X1.0821 Y3.2734 I-0.7835 J-0.2856
G3 X1.0217 Y3.3668 I-0.7752 J-0.435
G1 X0.9846 Y3.3668
G1 X0.8293 Y3.3668
G3 X0.6508 Y3.3486 I0 J-0.8845
G3 X0.5227 Y3.3043 I0.1061 J-0.515
G3 X0.4702 Y3.2723 I0.1576 J-0.3168
G3 X0.4405 Y3.2445 I0.105 J-0.1423
G3 X0.4219 Y3.2138 I0.086 J-0.0731
G3 X0.4175 Y3.1916 I0.0548 J-0.0222
G1 Z-0.1 F1
G1 X0.4175 Y2.4567 F30
G3 X0.4219 Y2.4345 I0.0592 J0
G3 X0.4405 Y2.4038 I0.1046 J0.0424
G3 X0.4702 Y2.376 I0.1348 J0.1146
G3 X0.5227 Y2.344 I0.2101 J0.2847
G3 X0.6508 Y2.2997 I0.2342 J0.4708
G3 X0.8293 Y2.2815 I0.1785 J0.8663
G1 X0.9846 Y2.2815
G1 X1.0217 Y2.2815
G3 X1.082 Y2.3749 I-0.7145 J0.5282
G3 X1.1383 Y2.4974 I-0.7272 J0.4081
G3 X1.1782 Y2.6556 I-0.7518 J0.2741
G3 X1.1869 Y2.7745 I-0.8124 J0.1189
G3 X1.1856 Y2.8208 I-0.821 J0
G2 X1.1855 Y2.8241 I0.059 J0.0033
G2 X1.1856 Y2.8275 I0.0591 J0
G3 X1.1869 Y2.8738 I-0.8198 J0.0463
G3 X1.1782 Y2.9927 I-0.8211 J0
G3 X1.1383 Y3.1509 I-0.7918 J-0.1159
G3 X1.0821 Y3.2734 I-0.7835 J-0.2856
G3 X1.0217 Y3.3668 I-0.7752 J-0.435
G1 X0.9846 Y3.3668
G1 X0.8293 Y3.3668
G3 X0.6508 Y3.3486 I0 J-0.8845
G3 X0.5227 Y3.3043 I0.1061 J-0.515
G3 X0.4702 Y3.2723 I0.1576 J-0.3168
G3 X0.4405 Y3.2445 I0.105 J-0.1423
G3 X0.4219 Y3.2138 I0.086 J-0.0731
G3 X0.4175 Y3.1916 I0.0548 J-0.0222
G1 Z-0.13 F1
G1 X0.4175 Y2.4567 F30
G3 X0.4219 Y2.4345 I0.0592 J0
G3 X0.4405 Y2.4038 I0.1046 J0.0424
G3 X0.4702 Y2.376 I0.1348 J0.1146
G3 X0.5227 Y2.344 I0.2101 J0.2847
G3 X0.6508 Y2.2997 I0.2342 J0.4708
G3 X0.8293 Y2.2815 I0.1785 J0.8663
G1 X0.9846 Y2.2815
G1 X1.0217 Y2.2815
G3 X1.082 Y2.3749 I-0.7145 J0.5282
G3 X1.1383 Y2.4974 I-0.7272 J0.4081
G3 X1.1782 Y2.6556 I-0.7518 J0.2741
G3 X1.1869 Y2.7745 I-0.8124 J0.1189
G3 X1.1856 Y2.8208 I-0.821 J0
G2 X1.1855 Y2.8241 I0.059 J0.0033
G2 X1.1856 Y2.8275 I0.0591 J0
G3 X1.1869 Y2.8738 I-0.8198 J0.0463
G3 X1.1782 Y2.9927 I-0.8211 J0
G3 X1.1383 Y3.1509 I-0.7918 J-0.1159
G3 X1.0821 Y3.2734 I-0.7835 J-0.2856
G3 X1.0217 Y3.3668 I-0.7752 J-0.435
G1 X0.9846 Y3.3668
G1 X0.8293 Y3.3668
G3 X0.6508 Y3.3486 I0 J-0.8845
G3 X0.5227 Y3.3043 I0.1061 J-0.515
G3 X0.4702 Y3.2723 I0.1576 J-0.3168
G3 X0.4405 Y3.2445 I0.105 J-0.1423
G3 X0.4219 Y3.2138 I0.086 J-0.0731
G3 X0.4175 Y3.1916 I0.0548 J-0.0222
G0 Z0.25
M5
M30
