(Generated by PartKam Version 0.05)

G20 G90 G40

(BeerHole)
G0 Z0.25
T0 M6
G17
M3
G0 X0.4372 Y3.1916
G1 Z-0.05 F30
G1 X0.4372 Y2.4567 F60
G3 X0.4401 Y2.4419 I0.0395 J0
G3 X0.4554 Y2.4165 I0.0863 J0.035
G3 X0.4819 Y2.3919 I0.1198 J0.1018
G3 X0.5314 Y2.3616 I0.1984 J0.2689
G3 X0.6547 Y2.319 I0.2255 J0.4532
G3 X0.8293 Y2.3012 I0.1746 J0.8471
G1 X0.9846 Y2.3012
G1 X1.0117 Y2.3012
G3 X1.0649 Y2.3845 I-0.7045 J0.5085
G3 X1.1198 Y2.5041 I-0.71 J0.3984
G3 X1.1588 Y2.6584 I-0.7333 J0.2673
G3 X1.1672 Y2.7745 I-0.7929 J0.1161
G3 X1.1659 Y2.8197 I-0.8014 J0
G2 X1.1658 Y2.8241 I0.0786 J0.0044
G2 X1.1659 Y2.8286 I0.0787 J0
G3 X1.1672 Y2.8738 I-0.8001 J0.0452
G3 X1.1588 Y2.9899 I-0.8014 J0
G3 X1.1198 Y3.1442 I-0.7723 J-0.113
G3 X1.0649 Y3.2637 I-0.765 J-0.2789
G3 X1.0117 Y3.3471 I-0.758 J-0.4254
G1 X0.9846 Y3.3471
G1 X0.8293 Y3.3471
G3 X0.6547 Y3.3293 I0 J-0.8648
G3 X0.5314 Y3.2867 I0.1022 J-0.4958
G3 X0.4819 Y3.2564 I0.1489 J-0.2992
G3 X0.4555 Y3.2317 I0.0933 J-0.1265
G3 X0.4401 Y3.2064 I0.071 J-0.0604
G3 X0.4372 Y3.1916 I0.0366 J-0.0148
G1 Z-0.1 F30
G1 X0.4372 Y2.4567 F60
G3 X0.4401 Y2.4419 I0.0395 J0
G3 X0.4554 Y2.4165 I0.0863 J0.035
G3 X0.4819 Y2.3919 I0.1198 J0.1018
G3 X0.5314 Y2.3616 I0.1984 J0.2689
G3 X0.6547 Y2.319 I0.2255 J0.4532
G3 X0.8293 Y2.3012 I0.1746 J0.8471
G1 X0.9846 Y2.3012
G1 X1.0117 Y2.3012
G3 X1.0649 Y2.3845 I-0.7045 J0.5085
G3 X1.1198 Y2.5041 I-0.71 J0.3984
G3 X1.1588 Y2.6584 I-0.7333 J0.2673
G3 X1.1672 Y2.7745 I-0.7929 J0.1161
G3 X1.1659 Y2.8197 I-0.8014 J0
G2 X1.1658 Y2.8241 I0.0786 J0.0044
G2 X1.1659 Y2.8286 I0.0787 J0
G3 X1.1672 Y2.8738 I-0.8001 J0.0452
G3 X1.1588 Y2.9899 I-0.8014 J0
G3 X1.1198 Y3.1442 I-0.7723 J-0.113
G3 X1.0649 Y3.2637 I-0.765 J-0.2789
G3 X1.0117 Y3.3471 I-0.758 J-0.4254
G1 X0.9846 Y3.3471
G1 X0.8293 Y3.3471
G3 X0.6547 Y3.3293 I0 J-0.8648
G3 X0.5314 Y3.2867 I0.1022 J-0.4958
G3 X0.4819 Y3.2564 I0.1489 J-0.2992
G3 X0.4555 Y3.2317 I0.0933 J-0.1265
G3 X0.4401 Y3.2064 I0.071 J-0.0604
G3 X0.4372 Y3.1916 I0.0366 J-0.0148
G1 Z-0.13 F30
G1 X0.4372 Y2.4567 F60
G3 X0.4401 Y2.4419 I0.0395 J0
G3 X0.4554 Y2.4165 I0.0863 J0.035
G3 X0.4819 Y2.3919 I0.1198 J0.1018
G3 X0.5314 Y2.3616 I0.1984 J0.2689
G3 X0.6547 Y2.319 I0.2255 J0.4532
G3 X0.8293 Y2.3012 I0.1746 J0.8471
G1 X0.9846 Y2.3012
G1 X1.0117 Y2.3012
G3 X1.0649 Y2.3845 I-0.7045 J0.5085
G3 X1.1198 Y2.5041 I-0.71 J0.3984
G3 X1.1588 Y2.6584 I-0.7333 J0.2673
G3 X1.1672 Y2.7745 I-0.7929 J0.1161
G3 X1.1659 Y2.8197 I-0.8014 J0
G2 X1.1658 Y2.8241 I0.0786 J0.0044
G2 X1.1659 Y2.8286 I0.0787 J0
G3 X1.1672 Y2.8738 I-0.8001 J0.0452
G3 X1.1588 Y2.9899 I-0.8014 J0
G3 X1.1198 Y3.1442 I-0.7723 J-0.113
G3 X1.0649 Y3.2637 I-0.765 J-0.2789
G3 X1.0117 Y3.3471 I-0.758 J-0.4254
G1 X0.9846 Y3.3471
G1 X0.8293 Y3.3471
G3 X0.6547 Y3.3293 I0 J-0.8648
G3 X0.5314 Y3.2867 I0.1022 J-0.4958
G3 X0.4819 Y3.2564 I0.1489 J-0.2992
G3 X0.4555 Y3.2317 I0.0933 J-0.1265
G3 X0.4401 Y3.2064 I0.071 J-0.0604
G3 X0.4372 Y3.1916 I0.0366 J-0.0148
G0 Z0.25
M5
M30
