(Generated by PartKam Version 0.05)

G21 G90 G40

(Beer Hole)
G0 Z6.35
T0 M6
G17
M3
G0 X11.651522842639594 Y36.46878172588833
G1 Z-0.5081218274111675 F2
G1 X11.652284263959391 Y17.80203045685279 F1143
G3 X11.725888324873097 Y17.426395939086294 I1.00253807106599 J0
G3 X12.114213197969544 Y16.78172588832487 I2.1928934010152283 J0.8908629441624366
G3 X12.786802030456851 Y16.15736040609137 I3.0406091370558377 J2.5862944162436547
G3 X14.045685279187817 Y15.385786802030456 I5.040609137055837 J6.8299492385786795
G3 X17.17766497461929 Y14.304568527918782 I5.725888324873097 J11.51015228426396
G3 X21.611675126903553 Y13.852791878172589 I4.434010152284264 J21.51522842639594
G1 X25.55329949238579 Y13.852791878172589
G1 X26.243654822335024 Y13.852791878172589
G3 X27.593908629441625 Y15.969543147208123 I-17.893401015228427 J12.916243654822335
G3 X28.98984771573604 Y19.007614213197968 I-18.03553299492386 J10.119289340101522
G3 X29.97969543147208 Y22.92639593908629 I-18.626903553299492 J6.789340101522843
G3 X30.19289340101523 Y25.873096446700508 I-20.13959390862944 J2.946700507614213
G3 X30.162436548223347 Y27.02284263959391 I-20.35532994923858 J0
G2 X30.15736040609137 Y27.134517766497463 I1.99746192893401 J0.1116751269035533
G2 X30.162436548223347 Y27.248730964467004 I2 J0
G3 X30.19289340101523 Y28.39593908629442 I-20.3248730964467 J1.1497461928934012
G3 X29.97969543147208 Y31.345177664974617 I-20.35532994923858 J0
G3 X28.98984771573604 Y35.263959390862944 I-19.616751269035532 J-2.8705583756345177
G3 X27.593908629441625 Y38.30203045685279 I-19.428934010152282 J-7.083756345177665
G3 X26.243654822335024 Y40.41878172588832 I-19.253807106598984 J-10.80456852791878
G1 X25.55329949238579 Y40.41878172588832
G1 X21.611675126903553 Y40.41878172588832
G3 X17.17766497461929 Y39.96700507614213 I0 J-21.967005076142133
G3 X14.045685279187817 Y38.88578680203046 I2.593908629441624 J-12.591370558375633
G3 X12.786802030456851 Y38.11421319796955 I3.7817258883248734 J-7.598984771573604
G3 X12.114213197969544 Y37.48984771573604 I2.3705583756345177 J-3.213197969543147
G3 X11.725888324873097 Y36.84517766497462 I1.802030456852792 J-1.532994923857868
G3 X11.652284263959391 Y36.46954314720812 I0.9289340101522843 J-0.3781725888324873
G1 Z-1.016243654822335 F2
G1 X11.652284263959391 Y17.80203045685279 F1143
G3 X11.725888324873097 Y17.426395939086294 I1.00253807106599 J0
G3 X12.114213197969544 Y16.78172588832487 I2.1928934010152283 J0.8908629441624366
G3 X12.786802030456851 Y16.15736040609137 I3.0406091370558377 J2.5862944162436547
G3 X14.045685279187817 Y15.385786802030456 I5.040609137055837 J6.8299492385786795
G3 X17.17766497461929 Y14.304568527918782 I5.725888324873097 J11.51015228426396
G3 X21.611675126903553 Y13.852791878172589 I4.434010152284264 J21.51522842639594
G1 X25.55329949238579 Y13.852791878172589
G1 X26.243654822335024 Y13.852791878172589
G3 X27.593908629441625 Y15.969543147208123 I-17.893401015228427 J12.916243654822335
G3 X28.98984771573604 Y19.007614213197968 I-18.03553299492386 J10.119289340101522
G3 X29.97969543147208 Y22.92639593908629 I-18.626903553299492 J6.789340101522843
G3 X30.19289340101523 Y25.873096446700508 I-20.13959390862944 J2.946700507614213
G3 X30.162436548223347 Y27.02284263959391 I-20.35532994923858 J0
G2 X30.15736040609137 Y27.134517766497463 I1.99746192893401 J0.1116751269035533
G2 X30.162436548223347 Y27.248730964467004 I2 J0
G3 X30.19289340101523 Y28.39593908629442 I-20.3248730964467 J1.1497461928934012
G3 X29.97969543147208 Y31.345177664974617 I-20.35532994923858 J0
G3 X28.98984771573604 Y35.263959390862944 I-19.616751269035532 J-2.8705583756345177
G3 X27.593908629441625 Y38.30203045685279 I-19.428934010152282 J-7.083756345177665
G3 X26.243654822335024 Y40.41878172588832 I-19.253807106598984 J-10.80456852791878
G1 X25.55329949238579 Y40.41878172588832
G1 X21.611675126903553 Y40.41878172588832
G3 X17.17766497461929 Y39.96700507614213 I0 J-21.967005076142133
G3 X14.045685279187817 Y38.88578680203046 I2.593908629441624 J-12.591370558375633
G3 X12.786802030456851 Y38.11421319796955 I3.7817258883248734 J-7.598984771573604
G3 X12.114213197969544 Y37.48984771573604 I2.3705583756345177 J-3.213197969543147
G3 X11.725888324873097 Y36.84517766497462 I1.802030456852792 J-1.532994923857868
G3 X11.652284263959391 Y36.46954314720812 I0.9289340101522843 J-0.3781725888324873
G1 Z-1.5243654822335024 F2
G1 X11.652284263959391 Y17.80203045685279 F1143
G3 X11.725888324873097 Y17.426395939086294 I1.00253807106599 J0
G3 X12.114213197969544 Y16.78172588832487 I2.1928934010152283 J0.8908629441624366
G3 X12.786802030456851 Y16.15736040609137 I3.0406091370558377 J2.5862944162436547
G3 X14.045685279187817 Y15.385786802030456 I5.040609137055837 J6.8299492385786795
G3 X17.17766497461929 Y14.304568527918782 I5.725888324873097 J11.51015228426396
G3 X21.611675126903553 Y13.852791878172589 I4.434010152284264 J21.51522842639594
G1 X25.55329949238579 Y13.852791878172589
G1 X26.243654822335024 Y13.852791878172589
G3 X27.593908629441625 Y15.969543147208123 I-17.893401015228427 J12.916243654822335
G3 X28.98984771573604 Y19.007614213197968 I-18.03553299492386 J10.119289340101522
G3 X29.97969543147208 Y22.92639593908629 I-18.626903553299492 J6.789340101522843
G3 X30.19289340101523 Y25.873096446700508 I-20.13959390862944 J2.946700507614213
G3 X30.162436548223347 Y27.02284263959391 I-20.35532994923858 J0
G2 X30.15736040609137 Y27.134517766497463 I1.99746192893401 J0.1116751269035533
G2 X30.162436548223347 Y27.248730964467004 I2 J0
G3 X30.19289340101523 Y28.39593908629442 I-20.3248730964467 J1.1497461928934012
G3 X29.97969543147208 Y31.345177664974617 I-20.35532994923858 J0
G3 X28.98984771573604 Y35.263959390862944 I-19.616751269035532 J-2.8705583756345177
G3 X27.593908629441625 Y38.30203045685279 I-19.428934010152282 J-7.083756345177665
G3 X26.243654822335024 Y40.41878172588832 I-19.253807106598984 J-10.80456852791878
G1 X25.55329949238579 Y40.41878172588832
G1 X21.611675126903553 Y40.41878172588832
G3 X17.17766497461929 Y39.96700507614213 I0 J-21.967005076142133
G3 X14.045685279187817 Y38.88578680203046 I2.593908629441624 J-12.591370558375633
G3 X12.786802030456851 Y38.11421319796955 I3.7817258883248734 J-7.598984771573604
G3 X12.114213197969544 Y37.48984771573604 I2.3705583756345177 J-3.213197969543147
G3 X11.725888324873097 Y36.84517766497462 I1.802030456852792 J-1.532994923857868
G3 X11.652284263959391 Y36.46954314720812 I0.9289340101522843 J-0.3781725888324873
G1 Z-2.03248730964467 F2
G1 X11.652284263959391 Y17.80203045685279 F1143
G3 X11.725888324873097 Y17.426395939086294 I1.00253807106599 J0
G3 X12.114213197969544 Y16.78172588832487 I2.1928934010152283 J0.8908629441624366
G3 X12.786802030456851 Y16.15736040609137 I3.0406091370558377 J2.5862944162436547
G3 X14.045685279187817 Y15.385786802030456 I5.040609137055837 J6.8299492385786795
G3 X17.17766497461929 Y14.304568527918782 I5.725888324873097 J11.51015228426396
G3 X21.611675126903553 Y13.852791878172589 I4.434010152284264 J21.51522842639594
G1 X25.55329949238579 Y13.852791878172589
G1 X26.243654822335024 Y13.852791878172589
G3 X27.593908629441625 Y15.969543147208123 I-17.893401015228427 J12.916243654822335
G3 X28.98984771573604 Y19.007614213197968 I-18.03553299492386 J10.119289340101522
G3 X29.97969543147208 Y22.92639593908629 I-18.626903553299492 J6.789340101522843
G3 X30.19289340101523 Y25.873096446700508 I-20.13959390862944 J2.946700507614213
G3 X30.162436548223347 Y27.02284263959391 I-20.35532994923858 J0
G2 X30.15736040609137 Y27.134517766497463 I1.99746192893401 J0.1116751269035533
G2 X30.162436548223347 Y27.248730964467004 I2 J0
G3 X30.19289340101523 Y28.39593908629442 I-20.3248730964467 J1.1497461928934012
G3 X29.97969543147208 Y31.345177664974617 I-20.35532994923858 J0
G3 X28.98984771573604 Y35.263959390862944 I-19.616751269035532 J-2.8705583756345177
G3 X27.593908629441625 Y38.30203045685279 I-19.428934010152282 J-7.083756345177665
G3 X26.243654822335024 Y40.41878172588832 I-19.253807106598984 J-10.80456852791878
G1 X25.55329949238579 Y40.41878172588832
G1 X21.611675126903553 Y40.41878172588832
G3 X17.17766497461929 Y39.96700507614213 I0 J-21.967005076142133
G3 X14.045685279187817 Y38.88578680203046 I2.593908629441624 J-12.591370558375633
G3 X12.786802030456851 Y38.11421319796955 I3.7817258883248734 J-7.598984771573604
G3 X12.114213197969544 Y37.48984771573604 I2.3705583756345177 J-3.213197969543147
G3 X11.725888324873097 Y36.84517766497462 I1.802030456852792 J-1.532994923857868
G3 X11.652284263959391 Y36.46954314720812 I0.9289340101522843 J-0.3781725888324873
G1 Z-2.5406091370558377 F2
G1 X11.652284263959391 Y17.80203045685279 F1143
G3 X11.725888324873097 Y17.426395939086294 I1.00253807106599 J0
G3 X12.114213197969544 Y16.78172588832487 I2.1928934010152283 J0.8908629441624366
G3 X12.786802030456851 Y16.15736040609137 I3.0406091370558377 J2.5862944162436547
G3 X14.045685279187817 Y15.385786802030456 I5.040609137055837 J6.8299492385786795
G3 X17.17766497461929 Y14.304568527918782 I5.725888324873097 J11.51015228426396
G3 X21.611675126903553 Y13.852791878172589 I4.434010152284264 J21.51522842639594
G1 X25.55329949238579 Y13.852791878172589
G1 X26.243654822335024 Y13.852791878172589
G3 X27.593908629441625 Y15.969543147208123 I-17.893401015228427 J12.916243654822335
G3 X28.98984771573604 Y19.007614213197968 I-18.03553299492386 J10.119289340101522
G3 X29.97969543147208 Y22.92639593908629 I-18.626903553299492 J6.789340101522843
G3 X30.19289340101523 Y25.873096446700508 I-20.13959390862944 J2.946700507614213
G3 X30.162436548223347 Y27.02284263959391 I-20.35532994923858 J0
G2 X30.15736040609137 Y27.134517766497463 I1.99746192893401 J0.1116751269035533
G2 X30.162436548223347 Y27.248730964467004 I2 J0
G3 X30.19289340101523 Y28.39593908629442 I-20.3248730964467 J1.1497461928934012
G3 X29.97969543147208 Y31.345177664974617 I-20.35532994923858 J0
G3 X28.98984771573604 Y35.263959390862944 I-19.616751269035532 J-2.8705583756345177
G3 X27.593908629441625 Y38.30203045685279 I-19.428934010152282 J-7.083756345177665
G3 X26.243654822335024 Y40.41878172588832 I-19.253807106598984 J-10.80456852791878
G1 X25.55329949238579 Y40.41878172588832
G1 X21.611675126903553 Y40.41878172588832
G3 X17.17766497461929 Y39.96700507614213 I0 J-21.967005076142133
G3 X14.045685279187817 Y38.88578680203046 I2.593908629441624 J-12.591370558375633
G3 X12.786802030456851 Y38.11421319796955 I3.7817258883248734 J-7.598984771573604
G3 X12.114213197969544 Y37.48984771573604 I2.3705583756345177 J-3.213197969543147
G3 X11.725888324873097 Y36.84517766497462 I1.802030456852792 J-1.532994923857868
G3 X11.652284263959391 Y36.46954314720812 I0.9289340101522843 J-0.3781725888324873
G1 Z-3.048730964467005 F2
G1 X11.652284263959391 Y17.80203045685279 F1143
G3 X11.725888324873097 Y17.426395939086294 I1.00253807106599 J0
G3 X12.114213197969544 Y16.78172588832487 I2.1928934010152283 J0.8908629441624366
G3 X12.786802030456851 Y16.15736040609137 I3.0406091370558377 J2.5862944162436547
G3 X14.045685279187817 Y15.385786802030456 I5.040609137055837 J6.8299492385786795
G3 X17.17766497461929 Y14.304568527918782 I5.725888324873097 J11.51015228426396
G3 X21.611675126903553 Y13.852791878172589 I4.434010152284264 J21.51522842639594
G1 X25.55329949238579 Y13.852791878172589
G1 X26.243654822335024 Y13.852791878172589
G3 X27.593908629441625 Y15.969543147208123 I-17.893401015228427 J12.916243654822335
G3 X28.98984771573604 Y19.007614213197968 I-18.03553299492386 J10.119289340101522
G3 X29.97969543147208 Y22.92639593908629 I-18.626903553299492 J6.789340101522843
G3 X30.19289340101523 Y25.873096446700508 I-20.13959390862944 J2.946700507614213
G3 X30.162436548223347 Y27.02284263959391 I-20.35532994923858 J0
G2 X30.15736040609137 Y27.134517766497463 I1.99746192893401 J0.1116751269035533
G2 X30.162436548223347 Y27.248730964467004 I2 J0
G3 X30.19289340101523 Y28.39593908629442 I-20.3248730964467 J1.1497461928934012
G3 X29.97969543147208 Y31.345177664974617 I-20.35532994923858 J0
G3 X28.98984771573604 Y35.263959390862944 I-19.616751269035532 J-2.8705583756345177
G3 X27.593908629441625 Y38.30203045685279 I-19.428934010152282 J-7.083756345177665
G3 X26.243654822335024 Y40.41878172588832 I-19.253807106598984 J-10.80456852791878
G1 X25.55329949238579 Y40.41878172588832
G1 X21.611675126903553 Y40.41878172588832
G3 X17.17766497461929 Y39.96700507614213 I0 J-21.967005076142133
G3 X14.045685279187817 Y38.88578680203046 I2.593908629441624 J-12.591370558375633
G3 X12.786802030456851 Y38.11421319796955 I3.7817258883248734 J-7.598984771573604
G3 X12.114213197969544 Y37.48984771573604 I2.3705583756345177 J-3.213197969543147
G3 X11.725888324873097 Y36.84517766497462 I1.802030456852792 J-1.532994923857868
G3 X11.652284263959391 Y36.46954314720812 I0.9289340101522843 J-0.3781725888324873
G1 Z-3.5560913705583754 F2
G1 X11.652284263959391 Y17.80203045685279 F1143
G3 X11.725888324873097 Y17.426395939086294 I1.00253807106599 J0
G3 X12.114213197969544 Y16.78172588832487 I2.1928934010152283 J0.8908629441624366
G3 X12.786802030456851 Y16.15736040609137 I3.0406091370558377 J2.5862944162436547
G3 X14.045685279187817 Y15.385786802030456 I5.040609137055837 J6.8299492385786795
G3 X17.17766497461929 Y14.304568527918782 I5.725888324873097 J11.51015228426396
G3 X21.611675126903553 Y13.852791878172589 I4.434010152284264 J21.51522842639594
G1 X25.55329949238579 Y13.852791878172589
G1 X26.243654822335024 Y13.852791878172589
G3 X27.593908629441625 Y15.969543147208123 I-17.893401015228427 J12.916243654822335
G3 X28.98984771573604 Y19.007614213197968 I-18.03553299492386 J10.119289340101522
G3 X29.97969543147208 Y22.92639593908629 I-18.626903553299492 J6.789340101522843
G3 X30.19289340101523 Y25.873096446700508 I-20.13959390862944 J2.946700507614213
G3 X30.162436548223347 Y27.02284263959391 I-20.35532994923858 J0
G2 X30.15736040609137 Y27.134517766497463 I1.99746192893401 J0.1116751269035533
G2 X30.162436548223347 Y27.248730964467004 I2 J0
G3 X30.19289340101523 Y28.39593908629442 I-20.3248730964467 J1.1497461928934012
G3 X29.97969543147208 Y31.345177664974617 I-20.35532994923858 J0
G3 X28.98984771573604 Y35.263959390862944 I-19.616751269035532 J-2.8705583756345177
G3 X27.593908629441625 Y38.30203045685279 I-19.428934010152282 J-7.083756345177665
G3 X26.243654822335024 Y40.41878172588832 I-19.253807106598984 J-10.80456852791878
G1 X25.55329949238579 Y40.41878172588832
G1 X21.611675126903553 Y40.41878172588832
G3 X17.17766497461929 Y39.96700507614213 I0 J-21.967005076142133
G3 X14.045685279187817 Y38.88578680203046 I2.593908629441624 J-12.591370558375633
G3 X12.786802030456851 Y38.11421319796955 I3.7817258883248734 J-7.598984771573604
G3 X12.114213197969544 Y37.48984771573604 I2.3705583756345177 J-3.213197969543147
G3 X11.725888324873097 Y36.84517766497462 I1.802030456852792 J-1.532994923857868
G3 X11.652284263959391 Y36.46954314720812 I0.9289340101522843 J-0.3781725888324873
G0 Z6.35
M5
M30
