(Generated by PartKam Version 0.05)

G20 G90 G40

(Beer Hole)
G0 Z0.25
T0 M6
G17
M3
G0 X0.5087 Y3.2233
G1 Z-0.02 F2
G1 X0.5087 Y2.4884 F45
G3 X0.5116 Y2.4736 I0.0395 J0
G3 X0.527 Y2.4482 I0.0863 J0.035
G3 X0.5534 Y2.4236 I0.1198 J0.1018
G3 X0.603 Y2.3933 I0.1984 J0.2689
G3 X0.7263 Y2.3507 I0.2255 J0.4532
G3 X0.9008 Y2.3329 I0.1746 J0.8471
G1 X1.0561 Y2.3329
G1 X1.0832 Y2.3329
G3 X1.1364 Y2.4162 I-0.7045 J0.5085
G3 X1.1913 Y2.5358 I-0.71 J0.3984
G3 X1.2303 Y2.6901 I-0.7333 J0.2673
G3 X1.2387 Y2.8062 I-0.7929 J0.1161
G3 X1.2375 Y2.8514 I-0.8014 J0
G2 X1.2373 Y2.8558 I0.0786 J0.0044
G2 X1.2375 Y2.8603 I0.0787 J0
G3 X1.2387 Y2.9055 I-0.8001 J0.0452
G3 X1.2303 Y3.0216 I-0.8014 J0
G3 X1.1913 Y3.1758 I-0.7723 J-0.113
G3 X1.1364 Y3.2954 I-0.765 J-0.2789
G3 X1.0832 Y3.3788 I-0.758 J-0.4254
G1 X1.0561 Y3.3788
G1 X0.9008 Y3.3788
G3 X0.7263 Y3.361 I0 J-0.8648
G3 X0.603 Y3.3184 I0.1022 J-0.4958
G3 X0.5534 Y3.2881 I0.1489 J-0.2992
G3 X0.527 Y3.2634 I0.0933 J-0.1265
G3 X0.5116 Y3.2381 I0.071 J-0.0604
G3 X0.5087 Y3.2233 I0.0366 J-0.0148
G1 Z-0.04 F2
G1 X0.5087 Y2.4884 F45
G3 X0.5116 Y2.4736 I0.0395 J0
G3 X0.527 Y2.4482 I0.0863 J0.035
G3 X0.5534 Y2.4236 I0.1198 J0.1018
G3 X0.603 Y2.3933 I0.1984 J0.2689
G3 X0.7263 Y2.3507 I0.2255 J0.4532
G3 X0.9008 Y2.3329 I0.1746 J0.8471
G1 X1.0561 Y2.3329
G1 X1.0832 Y2.3329
G3 X1.1364 Y2.4162 I-0.7045 J0.5085
G3 X1.1913 Y2.5358 I-0.71 J0.3984
G3 X1.2303 Y2.6901 I-0.7333 J0.2673
G3 X1.2387 Y2.8062 I-0.7929 J0.1161
G3 X1.2375 Y2.8514 I-0.8014 J0
G2 X1.2373 Y2.8558 I0.0786 J0.0044
G2 X1.2375 Y2.8603 I0.0787 J0
G3 X1.2387 Y2.9055 I-0.8001 J0.0452
G3 X1.2303 Y3.0216 I-0.8014 J0
G3 X1.1913 Y3.1758 I-0.7723 J-0.113
G3 X1.1364 Y3.2954 I-0.765 J-0.2789
G3 X1.0832 Y3.3788 I-0.758 J-0.4254
G1 X1.0561 Y3.3788
G1 X0.9008 Y3.3788
G3 X0.7263 Y3.361 I0 J-0.8648
G3 X0.603 Y3.3184 I0.1022 J-0.4958
G3 X0.5534 Y3.2881 I0.1489 J-0.2992
G3 X0.527 Y3.2634 I0.0933 J-0.1265
G3 X0.5116 Y3.2381 I0.071 J-0.0604
G3 X0.5087 Y3.2233 I0.0366 J-0.0148
G1 Z-0.06 F2
G1 X0.5087 Y2.4884 F45
G3 X0.5116 Y2.4736 I0.0395 J0
G3 X0.527 Y2.4482 I0.0863 J0.035
G3 X0.5534 Y2.4236 I0.1198 J0.1018
G3 X0.603 Y2.3933 I0.1984 J0.2689
G3 X0.7263 Y2.3507 I0.2255 J0.4532
G3 X0.9008 Y2.3329 I0.1746 J0.8471
G1 X1.0561 Y2.3329
G1 X1.0832 Y2.3329
G3 X1.1364 Y2.4162 I-0.7045 J0.5085
G3 X1.1913 Y2.5358 I-0.71 J0.3984
G3 X1.2303 Y2.6901 I-0.7333 J0.2673
G3 X1.2387 Y2.8062 I-0.7929 J0.1161
G3 X1.2375 Y2.8514 I-0.8014 J0
G2 X1.2373 Y2.8558 I0.0786 J0.0044
G2 X1.2375 Y2.8603 I0.0787 J0
G3 X1.2387 Y2.9055 I-0.8001 J0.0452
G3 X1.2303 Y3.0216 I-0.8014 J0
G3 X1.1913 Y3.1758 I-0.7723 J-0.113
G3 X1.1364 Y3.2954 I-0.765 J-0.2789
G3 X1.0832 Y3.3788 I-0.758 J-0.4254
G1 X1.0561 Y3.3788
G1 X0.9008 Y3.3788
G3 X0.7263 Y3.361 I0 J-0.8648
G3 X0.603 Y3.3184 I0.1022 J-0.4958
G3 X0.5534 Y3.2881 I0.1489 J-0.2992
G3 X0.527 Y3.2634 I0.0933 J-0.1265
G3 X0.5116 Y3.2381 I0.071 J-0.0604
G3 X0.5087 Y3.2233 I0.0366 J-0.0148
G1 Z-0.08 F2
G1 X0.5087 Y2.4884 F45
G3 X0.5116 Y2.4736 I0.0395 J0
G3 X0.527 Y2.4482 I0.0863 J0.035
G3 X0.5534 Y2.4236 I0.1198 J0.1018
G3 X0.603 Y2.3933 I0.1984 J0.2689
G3 X0.7263 Y2.3507 I0.2255 J0.4532
G3 X0.9008 Y2.3329 I0.1746 J0.8471
G1 X1.0561 Y2.3329
G1 X1.0832 Y2.3329
G3 X1.1364 Y2.4162 I-0.7045 J0.5085
G3 X1.1913 Y2.5358 I-0.71 J0.3984
G3 X1.2303 Y2.6901 I-0.7333 J0.2673
G3 X1.2387 Y2.8062 I-0.7929 J0.1161
G3 X1.2375 Y2.8514 I-0.8014 J0
G2 X1.2373 Y2.8558 I0.0786 J0.0044
G2 X1.2375 Y2.8603 I0.0787 J0
G3 X1.2387 Y2.9055 I-0.8001 J0.0452
G3 X1.2303 Y3.0216 I-0.8014 J0
G3 X1.1913 Y3.1758 I-0.7723 J-0.113
G3 X1.1364 Y3.2954 I-0.765 J-0.2789
G3 X1.0832 Y3.3788 I-0.758 J-0.4254
G1 X1.0561 Y3.3788
G1 X0.9008 Y3.3788
G3 X0.7263 Y3.361 I0 J-0.8648
G3 X0.603 Y3.3184 I0.1022 J-0.4958
G3 X0.5534 Y3.2881 I0.1489 J-0.2992
G3 X0.527 Y3.2634 I0.0933 J-0.1265
G3 X0.5116 Y3.2381 I0.071 J-0.0604
G3 X0.5087 Y3.2233 I0.0366 J-0.0148
G1 Z-0.1 F2
G1 X0.5087 Y2.4884 F45
G3 X0.5116 Y2.4736 I0.0395 J0
G3 X0.527 Y2.4482 I0.0863 J0.035
G3 X0.5534 Y2.4236 I0.1198 J0.1018
G3 X0.603 Y2.3933 I0.1984 J0.2689
G3 X0.7263 Y2.3507 I0.2255 J0.4532
G3 X0.9008 Y2.3329 I0.1746 J0.8471
G1 X1.0561 Y2.3329
G1 X1.0832 Y2.3329
G3 X1.1364 Y2.4162 I-0.7045 J0.5085
G3 X1.1913 Y2.5358 I-0.71 J0.3984
G3 X1.2303 Y2.6901 I-0.7333 J0.2673
G3 X1.2387 Y2.8062 I-0.7929 J0.1161
G3 X1.2375 Y2.8514 I-0.8014 J0
G2 X1.2373 Y2.8558 I0.0786 J0.0044
G2 X1.2375 Y2.8603 I0.0787 J0
G3 X1.2387 Y2.9055 I-0.8001 J0.0452
G3 X1.2303 Y3.0216 I-0.8014 J0
G3 X1.1913 Y3.1758 I-0.7723 J-0.113
G3 X1.1364 Y3.2954 I-0.765 J-0.2789
G3 X1.0832 Y3.3788 I-0.758 J-0.4254
G1 X1.0561 Y3.3788
G1 X0.9008 Y3.3788
G3 X0.7263 Y3.361 I0 J-0.8648
G3 X0.603 Y3.3184 I0.1022 J-0.4958
G3 X0.5534 Y3.2881 I0.1489 J-0.2992
G3 X0.527 Y3.2634 I0.0933 J-0.1265
G3 X0.5116 Y3.2381 I0.071 J-0.0604
G3 X0.5087 Y3.2233 I0.0366 J-0.0148
G1 Z-0.12 F2
G1 X0.5087 Y2.4884 F45
G3 X0.5116 Y2.4736 I0.0395 J0
G3 X0.527 Y2.4482 I0.0863 J0.035
G3 X0.5534 Y2.4236 I0.1198 J0.1018
G3 X0.603 Y2.3933 I0.1984 J0.2689
G3 X0.7263 Y2.3507 I0.2255 J0.4532
G3 X0.9008 Y2.3329 I0.1746 J0.8471
G1 X1.0561 Y2.3329
G1 X1.0832 Y2.3329
G3 X1.1364 Y2.4162 I-0.7045 J0.5085
G3 X1.1913 Y2.5358 I-0.71 J0.3984
G3 X1.2303 Y2.6901 I-0.7333 J0.2673
G3 X1.2387 Y2.8062 I-0.7929 J0.1161
G3 X1.2375 Y2.8514 I-0.8014 J0
G2 X1.2373 Y2.8558 I0.0786 J0.0044
G2 X1.2375 Y2.8603 I0.0787 J0
G3 X1.2387 Y2.9055 I-0.8001 J0.0452
G3 X1.2303 Y3.0216 I-0.8014 J0
G3 X1.1913 Y3.1758 I-0.7723 J-0.113
G3 X1.1364 Y3.2954 I-0.765 J-0.2789
G3 X1.0832 Y3.3788 I-0.758 J-0.4254
G1 X1.0561 Y3.3788
G1 X0.9008 Y3.3788
G3 X0.7263 Y3.361 I0 J-0.8648
G3 X0.603 Y3.3184 I0.1022 J-0.4958
G3 X0.5534 Y3.2881 I0.1489 J-0.2992
G3 X0.527 Y3.2634 I0.0933 J-0.1265
G3 X0.5116 Y3.2381 I0.071 J-0.0604
G3 X0.5087 Y3.2233 I0.0366 J-0.0148
G1 Z-0.14 F2
G1 X0.5087 Y2.4884 F45
G3 X0.5116 Y2.4736 I0.0395 J0
G3 X0.527 Y2.4482 I0.0863 J0.035
G3 X0.5534 Y2.4236 I0.1198 J0.1018
G3 X0.603 Y2.3933 I0.1984 J0.2689
G3 X0.7263 Y2.3507 I0.2255 J0.4532
G3 X0.9008 Y2.3329 I0.1746 J0.8471
G1 X1.0561 Y2.3329
G1 X1.0832 Y2.3329
G3 X1.1364 Y2.4162 I-0.7045 J0.5085
G3 X1.1913 Y2.5358 I-0.71 J0.3984
G3 X1.2303 Y2.6901 I-0.7333 J0.2673
G3 X1.2387 Y2.8062 I-0.7929 J0.1161
G3 X1.2375 Y2.8514 I-0.8014 J0
G2 X1.2373 Y2.8558 I0.0786 J0.0044
G2 X1.2375 Y2.8603 I0.0787 J0
G3 X1.2387 Y2.9055 I-0.8001 J0.0452
G3 X1.2303 Y3.0216 I-0.8014 J0
G3 X1.1913 Y3.1758 I-0.7723 J-0.113
G3 X1.1364 Y3.2954 I-0.765 J-0.2789
G3 X1.0832 Y3.3788 I-0.758 J-0.4254
G1 X1.0561 Y3.3788
G1 X0.9008 Y3.3788
G3 X0.7263 Y3.361 I0 J-0.8648
G3 X0.603 Y3.3184 I0.1022 J-0.4958
G3 X0.5534 Y3.2881 I0.1489 J-0.2992
G3 X0.527 Y3.2634 I0.0933 J-0.1265
G3 X0.5116 Y3.2381 I0.071 J-0.0604
G3 X0.5087 Y3.2233 I0.0366 J-0.0148
G0 Z0.25
M5
M30
