(Generated by PartKam Version 0.05)

G20 G90 G40

(Cap Hole)
G0 Z0.25
T0 M6
G17
M3
G0 X0.4542 Y3.2711
G1 Z-0.05 F30
G1 X0.4542 Y2.5362 F60
G3 X0.4571 Y2.5214 I0.0395 J0
G3 X0.4725 Y2.496 I0.0863 J0.035
G3 X0.4989 Y2.4714 I0.1198 J0.1018
G3 X0.5485 Y2.4411 I0.1984 J0.2689
G3 X0.6718 Y2.3985 I0.2255 J0.4532
G3 X0.8463 Y2.3807 I0.1746 J0.8471
G1 X1.0016 Y2.3807
G1 X1.0287 Y2.3807
G3 X1.0819 Y2.464 I-0.7045 J0.5085
G3 X1.1368 Y2.5836 I-0.71 J0.3984
G3 X1.1758 Y2.7379 I-0.7333 J0.2673
G3 X1.1843 Y2.854 I-0.7929 J0.1161
G3 X1.183 Y2.8992 I-0.8014 J0
G2 X1.1829 Y2.9036 I0.0786 J0.0044
G2 X1.183 Y2.9081 I0.0787 J0
G3 X1.1843 Y2.9533 I-0.8001 J0.0452
G3 X1.1758 Y3.0694 I-0.8014 J0
G3 X1.1368 Y3.2236 I-0.7723 J-0.113
G3 X1.0819 Y3.3432 I-0.765 J-0.2789
G3 X1.0287 Y3.4266 I-0.758 J-0.4254
G1 X1.0016 Y3.4266
G1 X0.8463 Y3.4266
G3 X0.6718 Y3.4088 I0 J-0.8648
G3 X0.5485 Y3.3662 I0.1022 J-0.4958
G3 X0.4989 Y3.3359 I0.1489 J-0.2992
G3 X0.4725 Y3.3112 I0.0933 J-0.1265
G3 X0.4571 Y3.2859 I0.071 J-0.0604
G3 X0.4542 Y3.2711 I0.0366 J-0.0148
G1 Z-0.1 F30
G1 X0.4542 Y2.5362 F60
G3 X0.4571 Y2.5214 I0.0395 J0
G3 X0.4725 Y2.496 I0.0863 J0.035
G3 X0.4989 Y2.4714 I0.1198 J0.1018
G3 X0.5485 Y2.4411 I0.1984 J0.2689
G3 X0.6718 Y2.3985 I0.2255 J0.4532
G3 X0.8463 Y2.3807 I0.1746 J0.8471
G1 X1.0016 Y2.3807
G1 X1.0287 Y2.3807
G3 X1.0819 Y2.464 I-0.7045 J0.5085
G3 X1.1368 Y2.5836 I-0.71 J0.3984
G3 X1.1758 Y2.7379 I-0.7333 J0.2673
G3 X1.1843 Y2.854 I-0.7929 J0.1161
G3 X1.183 Y2.8992 I-0.8014 J0
G2 X1.1829 Y2.9036 I0.0786 J0.0044
G2 X1.183 Y2.9081 I0.0787 J0
G3 X1.1843 Y2.9533 I-0.8001 J0.0452
G3 X1.1758 Y3.0694 I-0.8014 J0
G3 X1.1368 Y3.2236 I-0.7723 J-0.113
G3 X1.0819 Y3.3432 I-0.765 J-0.2789
G3 X1.0287 Y3.4266 I-0.758 J-0.4254
G1 X1.0016 Y3.4266
G1 X0.8463 Y3.4266
G3 X0.6718 Y3.4088 I0 J-0.8648
G3 X0.5485 Y3.3662 I0.1022 J-0.4958
G3 X0.4989 Y3.3359 I0.1489 J-0.2992
G3 X0.4725 Y3.3112 I0.0933 J-0.1265
G3 X0.4571 Y3.2859 I0.071 J-0.0604
G3 X0.4542 Y3.2711 I0.0366 J-0.0148
G1 Z-0.13 F30
G1 X0.4542 Y2.5362 F60
G3 X0.4571 Y2.5214 I0.0395 J0
G3 X0.4725 Y2.496 I0.0863 J0.035
G3 X0.4989 Y2.4714 I0.1198 J0.1018
G3 X0.5485 Y2.4411 I0.1984 J0.2689
G3 X0.6718 Y2.3985 I0.2255 J0.4532
G3 X0.8463 Y2.3807 I0.1746 J0.8471
G1 X1.0016 Y2.3807
G1 X1.0287 Y2.3807
G3 X1.0819 Y2.464 I-0.7045 J0.5085
G3 X1.1368 Y2.5836 I-0.71 J0.3984
G3 X1.1758 Y2.7379 I-0.7333 J0.2673
G3 X1.1843 Y2.854 I-0.7929 J0.1161
G3 X1.183 Y2.8992 I-0.8014 J0
G2 X1.1829 Y2.9036 I0.0786 J0.0044
G2 X1.183 Y2.9081 I0.0787 J0
G3 X1.1843 Y2.9533 I-0.8001 J0.0452
G3 X1.1758 Y3.0694 I-0.8014 J0
G3 X1.1368 Y3.2236 I-0.7723 J-0.113
G3 X1.0819 Y3.3432 I-0.765 J-0.2789
G3 X1.0287 Y3.4266 I-0.758 J-0.4254
G1 X1.0016 Y3.4266
G1 X0.8463 Y3.4266
G3 X0.6718 Y3.4088 I0 J-0.8648
G3 X0.5485 Y3.3662 I0.1022 J-0.4958
G3 X0.4989 Y3.3359 I0.1489 J-0.2992
G3 X0.4725 Y3.3112 I0.0933 J-0.1265
G3 X0.4571 Y3.2859 I0.071 J-0.0604
G3 X0.4542 Y3.2711 I0.0366 J-0.0148
G0 Z0.25
G0 X0.4683 Y1.4794
G1 Z-0.05 F30
G1 X0.4683 Y0.7445 F60
G3 X0.4712 Y0.7297 I0.0395 J0
G3 X0.4865 Y0.7044 I0.0863 J0.035
G3 X0.513 Y0.6797 I0.1198 J0.1018
G3 X0.5625 Y0.6494 I0.1984 J0.2689
G3 X0.6858 Y0.6068 I0.2255 J0.4532
G3 X0.8604 Y0.589 I0.1746 J0.8471
G1 X1.0156 Y0.589
G1 X1.0428 Y0.589
G3 X1.096 Y0.6724 I-0.7045 J0.5085
G3 X1.1509 Y0.792 I-0.71 J0.3984
G3 X1.1899 Y0.9462 I-0.7333 J0.2673
G3 X1.1983 Y1.0623 I-0.7929 J0.1161
G3 X1.197 Y1.1075 I-0.8014 J0
G2 X1.1969 Y1.112 I0.0786 J0.0044
G2 X1.197 Y1.1164 I0.0787 J0
G3 X1.1983 Y1.1616 I-0.8001 J0.0452
G3 X1.1899 Y1.2777 I-0.8014 J0
G3 X1.1509 Y1.432 I-0.7723 J-0.113
G3 X1.096 Y1.5516 I-0.765 J-0.2789
G3 X1.0428 Y1.6349 I-0.758 J-0.4254
G1 X1.0156 Y1.6349
G1 X0.8604 Y1.6349
G3 X0.6858 Y1.6171 I0 J-0.8648
G3 X0.5625 Y1.5745 I0.1022 J-0.4958
G3 X0.513 Y1.5442 I0.1489 J-0.2992
G3 X0.4865 Y1.5196 I0.0933 J-0.1265
G3 X0.4712 Y1.4943 I0.071 J-0.0604
G3 X0.4683 Y1.4794 I0.0366 J-0.0148
G1 Z-0.1 F30
G1 X0.4683 Y0.7445 F60
G3 X0.4712 Y0.7297 I0.0395 J0
G3 X0.4865 Y0.7044 I0.0863 J0.035
G3 X0.513 Y0.6797 I0.1198 J0.1018
G3 X0.5625 Y0.6494 I0.1984 J0.2689
G3 X0.6858 Y0.6068 I0.2255 J0.4532
G3 X0.8604 Y0.589 I0.1746 J0.8471
G1 X1.0156 Y0.589
G1 X1.0428 Y0.589
G3 X1.096 Y0.6724 I-0.7045 J0.5085
G3 X1.1509 Y0.792 I-0.71 J0.3984
G3 X1.1899 Y0.9462 I-0.7333 J0.2673
G3 X1.1983 Y1.0623 I-0.7929 J0.1161
G3 X1.197 Y1.1075 I-0.8014 J0
G2 X1.1969 Y1.112 I0.0786 J0.0044
G2 X1.197 Y1.1164 I0.0787 J0
G3 X1.1983 Y1.1616 I-0.8001 J0.0452
G3 X1.1899 Y1.2777 I-0.8014 J0
G3 X1.1509 Y1.432 I-0.7723 J-0.113
G3 X1.096 Y1.5516 I-0.765 J-0.2789
G3 X1.0428 Y1.6349 I-0.758 J-0.4254
G1 X1.0156 Y1.6349
G1 X0.8604 Y1.6349
G3 X0.6858 Y1.6171 I0 J-0.8648
G3 X0.5625 Y1.5745 I0.1022 J-0.4958
G3 X0.513 Y1.5442 I0.1489 J-0.2992
G3 X0.4865 Y1.5196 I0.0933 J-0.1265
G3 X0.4712 Y1.4943 I0.071 J-0.0604
G3 X0.4683 Y1.4794 I0.0366 J-0.0148
G1 Z-0.13 F30
G1 X0.4683 Y0.7445 F60
G3 X0.4712 Y0.7297 I0.0395 J0
G3 X0.4865 Y0.7044 I0.0863 J0.035
G3 X0.513 Y0.6797 I0.1198 J0.1018
G3 X0.5625 Y0.6494 I0.1984 J0.2689
G3 X0.6858 Y0.6068 I0.2255 J0.4532
G3 X0.8604 Y0.589 I0.1746 J0.8471
G1 X1.0156 Y0.589
G1 X1.0428 Y0.589
G3 X1.096 Y0.6724 I-0.7045 J0.5085
G3 X1.1509 Y0.792 I-0.71 J0.3984
G3 X1.1899 Y0.9462 I-0.7333 J0.2673
G3 X1.1983 Y1.0623 I-0.7929 J0.1161
G3 X1.197 Y1.1075 I-0.8014 J0
G2 X1.1969 Y1.112 I0.0786 J0.0044
G2 X1.197 Y1.1164 I0.0787 J0
G3 X1.1983 Y1.1616 I-0.8001 J0.0452
G3 X1.1899 Y1.2777 I-0.8014 J0
G3 X1.1509 Y1.432 I-0.7723 J-0.113
G3 X1.096 Y1.5516 I-0.765 J-0.2789
G3 X1.0428 Y1.6349 I-0.758 J-0.4254
G1 X1.0156 Y1.6349
G1 X0.8604 Y1.6349
G3 X0.6858 Y1.6171 I0 J-0.8648
G3 X0.5625 Y1.5745 I0.1022 J-0.4958
G3 X0.513 Y1.5442 I0.1489 J-0.2992
G3 X0.4865 Y1.5196 I0.0933 J-0.1265
G3 X0.4712 Y1.4943 I0.071 J-0.0604
G3 X0.4683 Y1.4794 I0.0366 J-0.0148
G0 Z0.25
M5
M30
