(Generated by PartKam Version 0.05)

G21 G90 G40

(Cap Hole)
G0 Z6.35
T0 M6
G17
M3
G0 X12.038832487309644 Y36.13477157360406
G1 Z-1.27005076142132 F30
G1 X12.038071065989849 Y17.46954314720812 F1524
G3 X12.111675126903554 Y17.091370558375633 I1.00253807106599 J0
G3 X12.50253807106599 Y16.449238578680202 I2.1928934010152283 J0.8908629441624366
G3 X13.172588832487309 Y15.822335025380712 I3.0406091370558377 J2.5862944162436547
G3 X14.431472081218274 Y15.053299492385788 I5.040609137055837 J6.8299492385786795
G3 X17.563451776649746 Y13.972081218274113 I5.725888324873097 J11.51015228426396
G3 X21.99746192893401 Y13.52030456852792 I4.434010152284264 J21.51522842639594
G1 X25.941624365482234 Y13.52030456852792
G1 X26.629441624365484 Y13.52030456852792
G3 X27.98223350253807 Y15.637055837563452 I-17.893401015228427 J12.916243654822335
G3 X29.3756345177665 Y18.67258883248731 I-18.03553299492386 J10.119289340101522
G3 X30.365482233502537 Y22.591370558375633 I-18.626903553299492 J6.789340101522843
G3 X30.581218274111674 Y25.54060913705584 I-20.13959390862944 J2.946700507614213
G3 X30.54822335025381 Y26.68781725888325 I-20.35532994923858 J0
G2 X30.54568527918782 Y26.80203045685279 I1.99746192893401 J0.1116751269035533
G2 X30.54822335025381 Y26.913705583756347 I2 J0
G3 X30.581218274111674 Y28.063451776649746 I-20.3248730964467 J1.1497461928934012
G3 X30.365482233502537 Y31.01015228426396 I-20.35532994923858 J0
G3 X29.3756345177665 Y34.92893401015229 I-19.616751269035532 J-2.8705583756345177
G3 X27.98223350253807 Y37.96700507614213 I-19.428934010152282 J-7.083756345177665
G3 X26.629441624365484 Y40.08375634517766 I-19.253807106598984 J-10.80456852791878
G1 X25.941624365482234 Y40.08375634517766
G1 X21.99746192893401 Y40.08375634517766
G3 X17.563451776649746 Y39.63197969543147 I0 J-21.967005076142133
G3 X14.431472081218274 Y38.5507614213198 I2.593908629441624 J-12.591370558375633
G3 X13.172588832487309 Y37.78172588832487 I3.7817258883248734 J-7.598984771573604
G3 X12.50253807106599 Y37.15482233502538 I2.3705583756345177 J-3.213197969543147
G3 X12.111675126903554 Y36.51269035532995 I1.802030456852792 J-1.532994923857868
G3 X12.038071065989849 Y36.13451776649746 I0.9289340101522843 J-0.3781725888324873
G1 Z-2.54010152284264 F30
G1 X12.038071065989849 Y17.46954314720812 F1524
G3 X12.111675126903554 Y17.091370558375633 I1.00253807106599 J0
G3 X12.50253807106599 Y16.449238578680202 I2.1928934010152283 J0.8908629441624366
G3 X13.172588832487309 Y15.822335025380712 I3.0406091370558377 J2.5862944162436547
G3 X14.431472081218274 Y15.053299492385788 I5.040609137055837 J6.8299492385786795
G3 X17.563451776649746 Y13.972081218274113 I5.725888324873097 J11.51015228426396
G3 X21.99746192893401 Y13.52030456852792 I4.434010152284264 J21.51522842639594
G1 X25.941624365482234 Y13.52030456852792
G1 X26.629441624365484 Y13.52030456852792
G3 X27.98223350253807 Y15.637055837563452 I-17.893401015228427 J12.916243654822335
G3 X29.3756345177665 Y18.67258883248731 I-18.03553299492386 J10.119289340101522
G3 X30.365482233502537 Y22.591370558375633 I-18.626903553299492 J6.789340101522843
G3 X30.581218274111674 Y25.54060913705584 I-20.13959390862944 J2.946700507614213
G3 X30.54822335025381 Y26.68781725888325 I-20.35532994923858 J0
G2 X30.54568527918782 Y26.80203045685279 I1.99746192893401 J0.1116751269035533
G2 X30.54822335025381 Y26.913705583756347 I2 J0
G3 X30.581218274111674 Y28.063451776649746 I-20.3248730964467 J1.1497461928934012
G3 X30.365482233502537 Y31.01015228426396 I-20.35532994923858 J0
G3 X29.3756345177665 Y34.92893401015229 I-19.616751269035532 J-2.8705583756345177
G3 X27.98223350253807 Y37.96700507614213 I-19.428934010152282 J-7.083756345177665
G3 X26.629441624365484 Y40.08375634517766 I-19.253807106598984 J-10.80456852791878
G1 X25.941624365482234 Y40.08375634517766
G1 X21.99746192893401 Y40.08375634517766
G3 X17.563451776649746 Y39.63197969543147 I0 J-21.967005076142133
G3 X14.431472081218274 Y38.5507614213198 I2.593908629441624 J-12.591370558375633
G3 X13.172588832487309 Y37.78172588832487 I3.7817258883248734 J-7.598984771573604
G3 X12.50253807106599 Y37.15482233502538 I2.3705583756345177 J-3.213197969543147
G3 X12.111675126903554 Y36.51269035532995 I1.802030456852792 J-1.532994923857868
G3 X12.038071065989849 Y36.13451776649746 I0.9289340101522843 J-0.3781725888324873
G1 Z-3.302030456852792 F30
G1 X12.038071065989849 Y17.46954314720812 F1524
G3 X12.111675126903554 Y17.091370558375633 I1.00253807106599 J0
G3 X12.50253807106599 Y16.449238578680202 I2.1928934010152283 J0.8908629441624366
G3 X13.172588832487309 Y15.822335025380712 I3.0406091370558377 J2.5862944162436547
G3 X14.431472081218274 Y15.053299492385788 I5.040609137055837 J6.8299492385786795
G3 X17.563451776649746 Y13.972081218274113 I5.725888324873097 J11.51015228426396
G3 X21.99746192893401 Y13.52030456852792 I4.434010152284264 J21.51522842639594
G1 X25.941624365482234 Y13.52030456852792
G1 X26.629441624365484 Y13.52030456852792
G3 X27.98223350253807 Y15.637055837563452 I-17.893401015228427 J12.916243654822335
G3 X29.3756345177665 Y18.67258883248731 I-18.03553299492386 J10.119289340101522
G3 X30.365482233502537 Y22.591370558375633 I-18.626903553299492 J6.789340101522843
G3 X30.581218274111674 Y25.54060913705584 I-20.13959390862944 J2.946700507614213
G3 X30.54822335025381 Y26.68781725888325 I-20.35532994923858 J0
G2 X30.54568527918782 Y26.80203045685279 I1.99746192893401 J0.1116751269035533
G2 X30.54822335025381 Y26.913705583756347 I2 J0
G3 X30.581218274111674 Y28.063451776649746 I-20.3248730964467 J1.1497461928934012
G3 X30.365482233502537 Y31.01015228426396 I-20.35532994923858 J0
G3 X29.3756345177665 Y34.92893401015229 I-19.616751269035532 J-2.8705583756345177
G3 X27.98223350253807 Y37.96700507614213 I-19.428934010152282 J-7.083756345177665
G3 X26.629441624365484 Y40.08375634517766 I-19.253807106598984 J-10.80456852791878
G1 X25.941624365482234 Y40.08375634517766
G1 X21.99746192893401 Y40.08375634517766
G3 X17.563451776649746 Y39.63197969543147 I0 J-21.967005076142133
G3 X14.431472081218274 Y38.5507614213198 I2.593908629441624 J-12.591370558375633
G3 X13.172588832487309 Y37.78172588832487 I3.7817258883248734 J-7.598984771573604
G3 X12.50253807106599 Y37.15482233502538 I2.3705583756345177 J-3.213197969543147
G3 X12.111675126903554 Y36.51269035532995 I1.802030456852792 J-1.532994923857868
G3 X12.038071065989849 Y36.13451776649746 I0.9289340101522843 J-0.3781725888324873
G0 Z6.35
G0 X11.10482233502538 Y81.06624365482233
G1 Z-1.27005076142132 F30
G1 X11.104060913705585 Y62.401015228426395 F1524
G3 X11.17766497461929 Y62.02284263959391 I1.00253807106599 J0
G3 X11.568527918781726 Y61.380710659898476 I2.1928934010152283 J0.8908629441624366
G3 X12.238578680203045 Y60.753807106598984 I3.0406091370558377 J2.5862944162436547
G3 X13.497461928934008 Y59.98477157360406 I5.040609137055837 J6.8299492385786795
G3 X16.629441624365484 Y58.90355329949238 I5.725888324873097 J11.51015228426396
G3 X21.063451776649742 Y58.45177664974619 I4.434010152284264 J21.51522842639594
G1 X25.00761421319797 Y58.45177664974619
G1 X25.69543147208122 Y58.45177664974619
G3 X27.048223350253807 Y60.568527918781726 I-17.893401015228427 J12.916243654822335
G3 X28.441624365482234 Y63.60406091370558 I-18.03553299492386 J10.119289340101522
G3 X29.434010152284262 Y67.5228426395939 I-18.626903553299492 J6.789340101522843
G3 X29.64720812182741 Y70.47208121827411 I-20.13959390862944 J2.946700507614213
G3 X29.614213197969544 Y71.61928934010152 I-20.35532994923858 J0
G2 X29.611675126903553 Y71.73350253807106 I1.99746192893401 J0.1116751269035533
G2 X29.614213197969544 Y71.84517766497461 I2 J0
G3 X29.64720812182741 Y72.99492385786803 I-20.3248730964467 J1.1497461928934012
G3 X29.434010152284262 Y75.94162436548223 I-20.35532994923858 J0
G3 X28.441624365482234 Y79.86040609137055 I-19.616751269035532 J-2.8705583756345177
G3 X27.048223350253807 Y82.89847715736042 I-19.428934010152282 J-7.083756345177665
G3 X25.69543147208122 Y85.01522842639594 I-19.253807106598984 J-10.80456852791878
G1 X25.00761421319797 Y85.01522842639594
G1 X21.063451776649742 Y85.01522842639594
G3 X16.629441624365484 Y84.56345177664974 I0 J-21.967005076142133
G3 X13.497461928934008 Y83.48223350253807 I2.593908629441624 J-12.591370558375633
G3 X12.238578680203045 Y82.71319796954315 I3.7817258883248734 J-7.598984771573604
G3 X11.568527918781726 Y82.08629441624366 I2.3705583756345177 J-3.213197969543147
G3 X11.17766497461929 Y81.44416243654823 I1.802030456852792 J-1.532994923857868
G3 X11.104060913705585 Y81.06598984771574 I0.9289340101522843 J-0.3781725888324873
G1 Z-2.54010152284264 F30
G1 X11.104060913705585 Y62.401015228426395 F1524
G3 X11.17766497461929 Y62.02284263959391 I1.00253807106599 J0
G3 X11.568527918781726 Y61.380710659898476 I2.1928934010152283 J0.8908629441624366
G3 X12.238578680203045 Y60.753807106598984 I3.0406091370558377 J2.5862944162436547
G3 X13.497461928934008 Y59.98477157360406 I5.040609137055837 J6.8299492385786795
G3 X16.629441624365484 Y58.90355329949238 I5.725888324873097 J11.51015228426396
G3 X21.063451776649742 Y58.45177664974619 I4.434010152284264 J21.51522842639594
G1 X25.00761421319797 Y58.45177664974619
G1 X25.69543147208122 Y58.45177664974619
G3 X27.048223350253807 Y60.568527918781726 I-17.893401015228427 J12.916243654822335
G3 X28.441624365482234 Y63.60406091370558 I-18.03553299492386 J10.119289340101522
G3 X29.434010152284262 Y67.5228426395939 I-18.626903553299492 J6.789340101522843
G3 X29.64720812182741 Y70.47208121827411 I-20.13959390862944 J2.946700507614213
G3 X29.614213197969544 Y71.61928934010152 I-20.35532994923858 J0
G2 X29.611675126903553 Y71.73350253807106 I1.99746192893401 J0.1116751269035533
G2 X29.614213197969544 Y71.84517766497461 I2 J0
G3 X29.64720812182741 Y72.99492385786803 I-20.3248730964467 J1.1497461928934012
G3 X29.434010152284262 Y75.94162436548223 I-20.35532994923858 J0
G3 X28.441624365482234 Y79.86040609137055 I-19.616751269035532 J-2.8705583756345177
G3 X27.048223350253807 Y82.89847715736042 I-19.428934010152282 J-7.083756345177665
G3 X25.69543147208122 Y85.01522842639594 I-19.253807106598984 J-10.80456852791878
G1 X25.00761421319797 Y85.01522842639594
G1 X21.063451776649742 Y85.01522842639594
G3 X16.629441624365484 Y84.56345177664974 I0 J-21.967005076142133
G3 X13.497461928934008 Y83.48223350253807 I2.593908629441624 J-12.591370558375633
G3 X12.238578680203045 Y82.71319796954315 I3.7817258883248734 J-7.598984771573604
G3 X11.568527918781726 Y82.08629441624366 I2.3705583756345177 J-3.213197969543147
G3 X11.17766497461929 Y81.44416243654823 I1.802030456852792 J-1.532994923857868
G3 X11.104060913705585 Y81.06598984771574 I0.9289340101522843 J-0.3781725888324873
G1 Z-3.302030456852792 F30
G1 X11.104060913705585 Y62.401015228426395 F1524
G3 X11.17766497461929 Y62.02284263959391 I1.00253807106599 J0
G3 X11.568527918781726 Y61.380710659898476 I2.1928934010152283 J0.8908629441624366
G3 X12.238578680203045 Y60.753807106598984 I3.0406091370558377 J2.5862944162436547
G3 X13.497461928934008 Y59.98477157360406 I5.040609137055837 J6.8299492385786795
G3 X16.629441624365484 Y58.90355329949238 I5.725888324873097 J11.51015228426396
G3 X21.063451776649742 Y58.45177664974619 I4.434010152284264 J21.51522842639594
G1 X25.00761421319797 Y58.45177664974619
G1 X25.69543147208122 Y58.45177664974619
G3 X27.048223350253807 Y60.568527918781726 I-17.893401015228427 J12.916243654822335
G3 X28.441624365482234 Y63.60406091370558 I-18.03553299492386 J10.119289340101522
G3 X29.434010152284262 Y67.5228426395939 I-18.626903553299492 J6.789340101522843
G3 X29.64720812182741 Y70.47208121827411 I-20.13959390862944 J2.946700507614213
G3 X29.614213197969544 Y71.61928934010152 I-20.35532994923858 J0
G2 X29.611675126903553 Y71.73350253807106 I1.99746192893401 J0.1116751269035533
G2 X29.614213197969544 Y71.84517766497461 I2 J0
G3 X29.64720812182741 Y72.99492385786803 I-20.3248730964467 J1.1497461928934012
G3 X29.434010152284262 Y75.94162436548223 I-20.35532994923858 J0
G3 X28.441624365482234 Y79.86040609137055 I-19.616751269035532 J-2.8705583756345177
G3 X27.048223350253807 Y82.89847715736042 I-19.428934010152282 J-7.083756345177665
G3 X25.69543147208122 Y85.01522842639594 I-19.253807106598984 J-10.80456852791878
G1 X25.00761421319797 Y85.01522842639594
G1 X21.063451776649742 Y85.01522842639594
G3 X16.629441624365484 Y84.56345177664974 I0 J-21.967005076142133
G3 X13.497461928934008 Y83.48223350253807 I2.593908629441624 J-12.591370558375633
G3 X12.238578680203045 Y82.71319796954315 I3.7817258883248734 J-7.598984771573604
G3 X11.568527918781726 Y82.08629441624366 I2.3705583756345177 J-3.213197969543147
G3 X11.17766497461929 Y81.44416243654823 I1.802030456852792 J-1.532994923857868
G3 X11.104060913705585 Y81.06598984771574 I0.9289340101522843 J-0.3781725888324873
G0 Z6.35
M5
M30
