(Generated by PartKam Version 0.05)

G20 G90 G40

(Cut it Out)
G0 Z0.25
T0 M6
G17
M3
G0 X4.8962 Y3.7364
G1 Z-0.02 F2
G1 X0.5698 Y3.7364 F45
G3 X0.4169 Y3.7194 I0 J-0.6964
G3 X0.2941 Y3.6732 I0.1046 J-0.4645
G3 X0.2388 Y3.6363 I0.176 J-0.3239
G3 X0.1974 Y3.5942 I0.1608 J-0.1995
G3 X0.1655 Y3.5371 I0.1695 J-0.1319
G3 X0.1543 Y3.4746 I0.1682 J-0.0625
G1 X0.1543 Y2.2387
G3 X0.1655 Y2.1762 I0.1795 J0
G3 X0.1974 Y2.1191 I0.2013 J0.0748
G3 X0.2388 Y2.0769 I0.2022 J0.1574
G3 X0.2941 Y2.04 I0.2313 J0.287
G3 X0.4169 Y1.9939 I0.2274 J0.4183
G3 X0.5698 Y1.9769 I0.153 J0.6795
G1 X4.8962 Y1.9769
G3 X5.0492 Y1.9939 I0 J0.6965
G3 X5.172 Y2.0401 I-0.1046 J0.4645
G3 X5.2273 Y2.0769 I-0.176 J0.3239
G3 X5.2687 Y2.1191 I-0.1608 J0.1995
G3 X5.3005 Y2.1762 I-0.1695 J0.1319
G3 X5.3118 Y2.2387 I-0.1682 J0.0625
G1 X5.3118 Y3.4746
G3 X5.3005 Y3.5371 I-0.1795 J0
G3 X5.2687 Y3.5942 I-0.2013 J-0.0748
G3 X5.2273 Y3.6363 I-0.2022 J-0.1574
G3 X5.172 Y3.6732 I-0.2313 J-0.287
G3 X5.0492 Y3.7193 I-0.2274 J-0.4184
G3 X4.8962 Y3.7364 I-0.153 J-0.6797
G1 Z-0.04 F2
G1 X0.5698 Y3.7364 F45
G3 X0.4169 Y3.7194 I0 J-0.6964
G3 X0.2941 Y3.6732 I0.1046 J-0.4645
G3 X0.2388 Y3.6363 I0.176 J-0.3239
G3 X0.1974 Y3.5942 I0.1608 J-0.1995
G3 X0.1655 Y3.5371 I0.1695 J-0.1319
G3 X0.1543 Y3.4746 I0.1682 J-0.0625
G1 X0.1543 Y2.2387
G3 X0.1655 Y2.1762 I0.1795 J0
G3 X0.1974 Y2.1191 I0.2013 J0.0748
G3 X0.2388 Y2.0769 I0.2022 J0.1574
G3 X0.2941 Y2.04 I0.2313 J0.287
G3 X0.4169 Y1.9939 I0.2274 J0.4183
G3 X0.5698 Y1.9769 I0.153 J0.6795
G1 X4.8962 Y1.9769
G3 X5.0492 Y1.9939 I0 J0.6965
G3 X5.172 Y2.0401 I-0.1046 J0.4645
G3 X5.2273 Y2.0769 I-0.176 J0.3239
G3 X5.2687 Y2.1191 I-0.1608 J0.1995
G3 X5.3005 Y2.1762 I-0.1695 J0.1319
G3 X5.3118 Y2.2387 I-0.1682 J0.0625
G1 X5.3118 Y3.4746
G3 X5.3005 Y3.5371 I-0.1795 J0
G3 X5.2687 Y3.5942 I-0.2013 J-0.0748
G3 X5.2273 Y3.6363 I-0.2022 J-0.1574
G3 X5.172 Y3.6732 I-0.2313 J-0.287
G3 X5.0492 Y3.7193 I-0.2274 J-0.4184
G3 X4.8962 Y3.7364 I-0.153 J-0.6797
G1 Z-0.06 F2
G1 X0.5698 Y3.7364 F45
G3 X0.4169 Y3.7194 I0 J-0.6964
G3 X0.2941 Y3.6732 I0.1046 J-0.4645
G3 X0.2388 Y3.6363 I0.176 J-0.3239
G3 X0.1974 Y3.5942 I0.1608 J-0.1995
G3 X0.1655 Y3.5371 I0.1695 J-0.1319
G3 X0.1543 Y3.4746 I0.1682 J-0.0625
G1 X0.1543 Y2.2387
G3 X0.1655 Y2.1762 I0.1795 J0
G3 X0.1974 Y2.1191 I0.2013 J0.0748
G3 X0.2388 Y2.0769 I0.2022 J0.1574
G3 X0.2941 Y2.04 I0.2313 J0.287
G3 X0.4169 Y1.9939 I0.2274 J0.4183
G3 X0.5698 Y1.9769 I0.153 J0.6795
G1 X4.8962 Y1.9769
G3 X5.0492 Y1.9939 I0 J0.6965
G3 X5.172 Y2.0401 I-0.1046 J0.4645
G3 X5.2273 Y2.0769 I-0.176 J0.3239
G3 X5.2687 Y2.1191 I-0.1608 J0.1995
G3 X5.3005 Y2.1762 I-0.1695 J0.1319
G3 X5.3118 Y2.2387 I-0.1682 J0.0625
G1 X5.3118 Y3.4746
G3 X5.3005 Y3.5371 I-0.1795 J0
G3 X5.2687 Y3.5942 I-0.2013 J-0.0748
G3 X5.2273 Y3.6363 I-0.2022 J-0.1574
G3 X5.172 Y3.6732 I-0.2313 J-0.287
G3 X5.0492 Y3.7193 I-0.2274 J-0.4184
G3 X4.8962 Y3.7364 I-0.153 J-0.6797
G1 Z-0.08 F2
G1 X0.5698 Y3.7364 F45
G3 X0.4169 Y3.7194 I0 J-0.6964
G3 X0.2941 Y3.6732 I0.1046 J-0.4645
G3 X0.2388 Y3.6363 I0.176 J-0.3239
G3 X0.1974 Y3.5942 I0.1608 J-0.1995
G3 X0.1655 Y3.5371 I0.1695 J-0.1319
G3 X0.1543 Y3.4746 I0.1682 J-0.0625
G1 X0.1543 Y2.2387
G3 X0.1655 Y2.1762 I0.1795 J0
G3 X0.1974 Y2.1191 I0.2013 J0.0748
G3 X0.2388 Y2.0769 I0.2022 J0.1574
G3 X0.2941 Y2.04 I0.2313 J0.287
G3 X0.4169 Y1.9939 I0.2274 J0.4183
G3 X0.5698 Y1.9769 I0.153 J0.6795
G1 X4.8962 Y1.9769
G3 X5.0492 Y1.9939 I0 J0.6965
G3 X5.172 Y2.0401 I-0.1046 J0.4645
G3 X5.2273 Y2.0769 I-0.176 J0.3239
G3 X5.2687 Y2.1191 I-0.1608 J0.1995
G3 X5.3005 Y2.1762 I-0.1695 J0.1319
G3 X5.3118 Y2.2387 I-0.1682 J0.0625
G1 X5.3118 Y3.4746
G3 X5.3005 Y3.5371 I-0.1795 J0
G3 X5.2687 Y3.5942 I-0.2013 J-0.0748
G3 X5.2273 Y3.6363 I-0.2022 J-0.1574
G3 X5.172 Y3.6732 I-0.2313 J-0.287
G3 X5.0492 Y3.7193 I-0.2274 J-0.4184
G3 X4.8962 Y3.7364 I-0.153 J-0.6797
G1 Z-0.1 F2
G1 X0.5698 Y3.7364 F45
G3 X0.4169 Y3.7194 I0 J-0.6964
G3 X0.2941 Y3.6732 I0.1046 J-0.4645
G3 X0.2388 Y3.6363 I0.176 J-0.3239
G3 X0.1974 Y3.5942 I0.1608 J-0.1995
G3 X0.1655 Y3.5371 I0.1695 J-0.1319
G3 X0.1543 Y3.4746 I0.1682 J-0.0625
G1 X0.1543 Y2.2387
G3 X0.1655 Y2.1762 I0.1795 J0
G3 X0.1974 Y2.1191 I0.2013 J0.0748
G3 X0.2388 Y2.0769 I0.2022 J0.1574
G3 X0.2941 Y2.04 I0.2313 J0.287
G3 X0.4169 Y1.9939 I0.2274 J0.4183
G3 X0.5698 Y1.9769 I0.153 J0.6795
G1 X4.8962 Y1.9769
G3 X5.0492 Y1.9939 I0 J0.6965
G3 X5.172 Y2.0401 I-0.1046 J0.4645
G3 X5.2273 Y2.0769 I-0.176 J0.3239
G3 X5.2687 Y2.1191 I-0.1608 J0.1995
G3 X5.3005 Y2.1762 I-0.1695 J0.1319
G3 X5.3118 Y2.2387 I-0.1682 J0.0625
G1 X5.3118 Y3.4746
G3 X5.3005 Y3.5371 I-0.1795 J0
G3 X5.2687 Y3.5942 I-0.2013 J-0.0748
G3 X5.2273 Y3.6363 I-0.2022 J-0.1574
G3 X5.172 Y3.6732 I-0.2313 J-0.287
G3 X5.0492 Y3.7193 I-0.2274 J-0.4184
G3 X4.8962 Y3.7364 I-0.153 J-0.6797
G1 Z-0.12 F2
G1 X0.5698 Y3.7364 F45
G3 X0.4169 Y3.7194 I0 J-0.6964
G3 X0.2941 Y3.6732 I0.1046 J-0.4645
G3 X0.2388 Y3.6363 I0.176 J-0.3239
G3 X0.1974 Y3.5942 I0.1608 J-0.1995
G3 X0.1655 Y3.5371 I0.1695 J-0.1319
G3 X0.1543 Y3.4746 I0.1682 J-0.0625
G1 X0.1543 Y2.2387
G3 X0.1655 Y2.1762 I0.1795 J0
G3 X0.1974 Y2.1191 I0.2013 J0.0748
G3 X0.2388 Y2.0769 I0.2022 J0.1574
G3 X0.2941 Y2.04 I0.2313 J0.287
G3 X0.4169 Y1.9939 I0.2274 J0.4183
G3 X0.5698 Y1.9769 I0.153 J0.6795
G1 X4.8962 Y1.9769
G3 X5.0492 Y1.9939 I0 J0.6965
G3 X5.172 Y2.0401 I-0.1046 J0.4645
G3 X5.2273 Y2.0769 I-0.176 J0.3239
G3 X5.2687 Y2.1191 I-0.1608 J0.1995
G3 X5.3005 Y2.1762 I-0.1695 J0.1319
G3 X5.3118 Y2.2387 I-0.1682 J0.0625
G1 X5.3118 Y3.4746
G3 X5.3005 Y3.5371 I-0.1795 J0
G3 X5.2687 Y3.5942 I-0.2013 J-0.0748
G3 X5.2273 Y3.6363 I-0.2022 J-0.1574
G3 X5.172 Y3.6732 I-0.2313 J-0.287
G3 X5.0492 Y3.7193 I-0.2274 J-0.4184
G3 X4.8962 Y3.7364 I-0.153 J-0.6797
G1 Z-0.14 F2
G1 X0.5698 Y3.7364 F45
G3 X0.4169 Y3.7194 I0 J-0.6964
G3 X0.2941 Y3.6732 I0.1046 J-0.4645
G3 X0.2388 Y3.6363 I0.176 J-0.3239
G3 X0.1974 Y3.5942 I0.1608 J-0.1995
G3 X0.1655 Y3.5371 I0.1695 J-0.1319
G3 X0.1543 Y3.4746 I0.1682 J-0.0625
G1 X0.1543 Y2.2387
G3 X0.1655 Y2.1762 I0.1795 J0
G3 X0.1974 Y2.1191 I0.2013 J0.0748
G3 X0.2388 Y2.0769 I0.2022 J0.1574
G3 X0.2941 Y2.04 I0.2313 J0.287
G3 X0.4169 Y1.9939 I0.2274 J0.4183
G3 X0.5698 Y1.9769 I0.153 J0.6795
G1 X4.8962 Y1.9769
G3 X5.0492 Y1.9939 I0 J0.6965
G3 X5.172 Y2.0401 I-0.1046 J0.4645
G3 X5.2273 Y2.0769 I-0.176 J0.3239
G3 X5.2687 Y2.1191 I-0.1608 J0.1995
G3 X5.3005 Y2.1762 I-0.1695 J0.1319
G3 X5.3118 Y2.2387 I-0.1682 J0.0625
G1 X5.3118 Y3.4746
G3 X5.3005 Y3.5371 I-0.1795 J0
G3 X5.2687 Y3.5942 I-0.2013 J-0.0748
G3 X5.2273 Y3.6363 I-0.2022 J-0.1574
G3 X5.172 Y3.6732 I-0.2313 J-0.287
G3 X5.0492 Y3.7193 I-0.2274 J-0.4184
G3 X4.8962 Y3.7364 I-0.153 J-0.6797
G0 Z0.25
M5
M30
