(Generated by PartKam Version 0.05)

G21 G90 G40

(Cut it Out)
G0 Z6.35
T0 M6
G17
M3
G0 X123.09365482233503 Y49.50126903553299
G1 Z-0.5081218274111675 F2
G1 X13.20304568527919 Y49.5 F1143
G3 X9.319796954314722 Y49.068527918781726 I0 J-17.690355329949238
G3 X6.200507614213198 Y47.89593908629442 I2.657360406091371 J-11.799492385786802
G3 X4.7944162436548226 Y46.95939086294416 I4.472081218274112 J-8.228426395939085
G3 X3.7436548223350252 Y45.890862944162436 I4.083756345177665 J-5.068527918781726
G3 X2.9340101522842637 Y44.43908629441624 I4.304568527918782 J-3.350253807106599
G3 X2.6497461928934007 Y42.85279187817259 I4.271573604060913 J-1.5862944162436547
G1 X2.6497461928934007 Y11.459390862944163
G3 X2.9340101522842637 Y9.873096446700508 I4.558375634517767 J0
G3 X3.7436548223350252 Y8.421319796954315 I5.114213197969542 J1.8984771573604062
G3 X4.7944162436548226 Y7.352791878172589 I5.1370558375634525 J3.99746192893401
G3 X6.200507614213198 Y6.413705583756345 I5.875634517766497 J7.289340101522843
G3 X9.319796954314722 Y5.241116751269036 I5.774111675126904 J10.624365482233502
G3 X13.20304568527919 Y4.809644670050762 I3.885786802030457 J17.258883248730964
G1 X123.09390862944163 Y4.809644670050762
G3 X126.97969543147208 Y5.241116751269036 I0 J17.69289340101523
G3 X130.0989847715736 Y6.413705583756345 I-2.657360406091371 J11.799492385786802
G3 X131.502538071066 Y7.352791878172589 I-4.472081218274112 J8.225888324873097
G3 X132.55583756345177 Y8.421319796954315 I-4.086294416243655 J5.068527918781726
G3 X133.36294416243655 Y9.873096446700508 I-4.304568527918782 J3.350253807106599
G3 X133.6497461928934 Y11.459390862944163 I-4.274111675126903 J1.5862944162436547
G1 X133.6497461928934 Y42.8502538071066
G3 X133.36294416243655 Y44.43908629441624 I-4.558375634517767 J0
G3 X132.55583756345177 Y45.88832487309645 I-5.114213197969542 J-1.8984771573604062
G3 X131.502538071066 Y46.95939086294416 I-5.1370558375634525 J-3.99746192893401
G3 X130.0989847715736 Y47.89593908629442 I-5.875634517766497 J-7.289340101522843
G3 X126.97969543147208 Y49.068527918781726 I-5.776649746192893 J-10.626903553299492
G3 X123.09390862944163 Y49.5 I-3.8883248730964466 J-17.263959390862944
G1 Z-1.016243654822335 F2
G1 X13.20304568527919 Y49.5 F1143
G3 X9.319796954314722 Y49.068527918781726 I0 J-17.690355329949238
G3 X6.200507614213198 Y47.89593908629442 I2.657360406091371 J-11.799492385786802
G3 X4.7944162436548226 Y46.95939086294416 I4.472081218274112 J-8.228426395939085
G3 X3.7436548223350252 Y45.890862944162436 I4.083756345177665 J-5.068527918781726
G3 X2.9340101522842637 Y44.43908629441624 I4.304568527918782 J-3.350253807106599
G3 X2.6497461928934007 Y42.85279187817259 I4.271573604060913 J-1.5862944162436547
G1 X2.6497461928934007 Y11.459390862944163
G3 X2.9340101522842637 Y9.873096446700508 I4.558375634517767 J0
G3 X3.7436548223350252 Y8.421319796954315 I5.114213197969542 J1.8984771573604062
G3 X4.7944162436548226 Y7.352791878172589 I5.1370558375634525 J3.99746192893401
G3 X6.200507614213198 Y6.413705583756345 I5.875634517766497 J7.289340101522843
G3 X9.319796954314722 Y5.241116751269036 I5.774111675126904 J10.624365482233502
G3 X13.20304568527919 Y4.809644670050762 I3.885786802030457 J17.258883248730964
G1 X123.09390862944163 Y4.809644670050762
G3 X126.97969543147208 Y5.241116751269036 I0 J17.69289340101523
G3 X130.0989847715736 Y6.413705583756345 I-2.657360406091371 J11.799492385786802
G3 X131.502538071066 Y7.352791878172589 I-4.472081218274112 J8.225888324873097
G3 X132.55583756345177 Y8.421319796954315 I-4.086294416243655 J5.068527918781726
G3 X133.36294416243655 Y9.873096446700508 I-4.304568527918782 J3.350253807106599
G3 X133.6497461928934 Y11.459390862944163 I-4.274111675126903 J1.5862944162436547
G1 X133.6497461928934 Y42.8502538071066
G3 X133.36294416243655 Y44.43908629441624 I-4.558375634517767 J0
G3 X132.55583756345177 Y45.88832487309645 I-5.114213197969542 J-1.8984771573604062
G3 X131.502538071066 Y46.95939086294416 I-5.1370558375634525 J-3.99746192893401
G3 X130.0989847715736 Y47.89593908629442 I-5.875634517766497 J-7.289340101522843
G3 X126.97969543147208 Y49.068527918781726 I-5.776649746192893 J-10.626903553299492
G3 X123.09390862944163 Y49.5 I-3.8883248730964466 J-17.263959390862944
G1 Z-1.5243654822335024 F2
G1 X13.20304568527919 Y49.5 F1143
G3 X9.319796954314722 Y49.068527918781726 I0 J-17.690355329949238
G3 X6.200507614213198 Y47.89593908629442 I2.657360406091371 J-11.799492385786802
G3 X4.7944162436548226 Y46.95939086294416 I4.472081218274112 J-8.228426395939085
G3 X3.7436548223350252 Y45.890862944162436 I4.083756345177665 J-5.068527918781726
G3 X2.9340101522842637 Y44.43908629441624 I4.304568527918782 J-3.350253807106599
G3 X2.6497461928934007 Y42.85279187817259 I4.271573604060913 J-1.5862944162436547
G1 X2.6497461928934007 Y11.459390862944163
G3 X2.9340101522842637 Y9.873096446700508 I4.558375634517767 J0
G3 X3.7436548223350252 Y8.421319796954315 I5.114213197969542 J1.8984771573604062
G3 X4.7944162436548226 Y7.352791878172589 I5.1370558375634525 J3.99746192893401
G3 X6.200507614213198 Y6.413705583756345 I5.875634517766497 J7.289340101522843
G3 X9.319796954314722 Y5.241116751269036 I5.774111675126904 J10.624365482233502
G3 X13.20304568527919 Y4.809644670050762 I3.885786802030457 J17.258883248730964
G1 X123.09390862944163 Y4.809644670050762
G3 X126.97969543147208 Y5.241116751269036 I0 J17.69289340101523
G3 X130.0989847715736 Y6.413705583756345 I-2.657360406091371 J11.799492385786802
G3 X131.502538071066 Y7.352791878172589 I-4.472081218274112 J8.225888324873097
G3 X132.55583756345177 Y8.421319796954315 I-4.086294416243655 J5.068527918781726
G3 X133.36294416243655 Y9.873096446700508 I-4.304568527918782 J3.350253807106599
G3 X133.6497461928934 Y11.459390862944163 I-4.274111675126903 J1.5862944162436547
G1 X133.6497461928934 Y42.8502538071066
G3 X133.36294416243655 Y44.43908629441624 I-4.558375634517767 J0
G3 X132.55583756345177 Y45.88832487309645 I-5.114213197969542 J-1.8984771573604062
G3 X131.502538071066 Y46.95939086294416 I-5.1370558375634525 J-3.99746192893401
G3 X130.0989847715736 Y47.89593908629442 I-5.875634517766497 J-7.289340101522843
G3 X126.97969543147208 Y49.068527918781726 I-5.776649746192893 J-10.626903553299492
G3 X123.09390862944163 Y49.5 I-3.8883248730964466 J-17.263959390862944
G1 Z-2.03248730964467 F2
G1 X13.20304568527919 Y49.5 F1143
G3 X9.319796954314722 Y49.068527918781726 I0 J-17.690355329949238
G3 X6.200507614213198 Y47.89593908629442 I2.657360406091371 J-11.799492385786802
G3 X4.7944162436548226 Y46.95939086294416 I4.472081218274112 J-8.228426395939085
G3 X3.7436548223350252 Y45.890862944162436 I4.083756345177665 J-5.068527918781726
G3 X2.9340101522842637 Y44.43908629441624 I4.304568527918782 J-3.350253807106599
G3 X2.6497461928934007 Y42.85279187817259 I4.271573604060913 J-1.5862944162436547
G1 X2.6497461928934007 Y11.459390862944163
G3 X2.9340101522842637 Y9.873096446700508 I4.558375634517767 J0
G3 X3.7436548223350252 Y8.421319796954315 I5.114213197969542 J1.8984771573604062
G3 X4.7944162436548226 Y7.352791878172589 I5.1370558375634525 J3.99746192893401
G3 X6.200507614213198 Y6.413705583756345 I5.875634517766497 J7.289340101522843
G3 X9.319796954314722 Y5.241116751269036 I5.774111675126904 J10.624365482233502
G3 X13.20304568527919 Y4.809644670050762 I3.885786802030457 J17.258883248730964
G1 X123.09390862944163 Y4.809644670050762
G3 X126.97969543147208 Y5.241116751269036 I0 J17.69289340101523
G3 X130.0989847715736 Y6.413705583756345 I-2.657360406091371 J11.799492385786802
G3 X131.502538071066 Y7.352791878172589 I-4.472081218274112 J8.225888324873097
G3 X132.55583756345177 Y8.421319796954315 I-4.086294416243655 J5.068527918781726
G3 X133.36294416243655 Y9.873096446700508 I-4.304568527918782 J3.350253807106599
G3 X133.6497461928934 Y11.459390862944163 I-4.274111675126903 J1.5862944162436547
G1 X133.6497461928934 Y42.8502538071066
G3 X133.36294416243655 Y44.43908629441624 I-4.558375634517767 J0
G3 X132.55583756345177 Y45.88832487309645 I-5.114213197969542 J-1.8984771573604062
G3 X131.502538071066 Y46.95939086294416 I-5.1370558375634525 J-3.99746192893401
G3 X130.0989847715736 Y47.89593908629442 I-5.875634517766497 J-7.289340101522843
G3 X126.97969543147208 Y49.068527918781726 I-5.776649746192893 J-10.626903553299492
G3 X123.09390862944163 Y49.5 I-3.8883248730964466 J-17.263959390862944
G1 Z-2.5406091370558377 F2
G1 X13.20304568527919 Y49.5 F1143
G3 X9.319796954314722 Y49.068527918781726 I0 J-17.690355329949238
G3 X6.200507614213198 Y47.89593908629442 I2.657360406091371 J-11.799492385786802
G3 X4.7944162436548226 Y46.95939086294416 I4.472081218274112 J-8.228426395939085
G3 X3.7436548223350252 Y45.890862944162436 I4.083756345177665 J-5.068527918781726
G3 X2.9340101522842637 Y44.43908629441624 I4.304568527918782 J-3.350253807106599
G3 X2.6497461928934007 Y42.85279187817259 I4.271573604060913 J-1.5862944162436547
G1 X2.6497461928934007 Y11.459390862944163
G3 X2.9340101522842637 Y9.873096446700508 I4.558375634517767 J0
G3 X3.7436548223350252 Y8.421319796954315 I5.114213197969542 J1.8984771573604062
G3 X4.7944162436548226 Y7.352791878172589 I5.1370558375634525 J3.99746192893401
G3 X6.200507614213198 Y6.413705583756345 I5.875634517766497 J7.289340101522843
G3 X9.319796954314722 Y5.241116751269036 I5.774111675126904 J10.624365482233502
G3 X13.20304568527919 Y4.809644670050762 I3.885786802030457 J17.258883248730964
G1 X123.09390862944163 Y4.809644670050762
G3 X126.97969543147208 Y5.241116751269036 I0 J17.69289340101523
G3 X130.0989847715736 Y6.413705583756345 I-2.657360406091371 J11.799492385786802
G3 X131.502538071066 Y7.352791878172589 I-4.472081218274112 J8.225888324873097
G3 X132.55583756345177 Y8.421319796954315 I-4.086294416243655 J5.068527918781726
G3 X133.36294416243655 Y9.873096446700508 I-4.304568527918782 J3.350253807106599
G3 X133.6497461928934 Y11.459390862944163 I-4.274111675126903 J1.5862944162436547
G1 X133.6497461928934 Y42.8502538071066
G3 X133.36294416243655 Y44.43908629441624 I-4.558375634517767 J0
G3 X132.55583756345177 Y45.88832487309645 I-5.114213197969542 J-1.8984771573604062
G3 X131.502538071066 Y46.95939086294416 I-5.1370558375634525 J-3.99746192893401
G3 X130.0989847715736 Y47.89593908629442 I-5.875634517766497 J-7.289340101522843
G3 X126.97969543147208 Y49.068527918781726 I-5.776649746192893 J-10.626903553299492
G3 X123.09390862944163 Y49.5 I-3.8883248730964466 J-17.263959390862944
G1 Z-3.048730964467005 F2
G1 X13.20304568527919 Y49.5 F1143
G3 X9.319796954314722 Y49.068527918781726 I0 J-17.690355329949238
G3 X6.200507614213198 Y47.89593908629442 I2.657360406091371 J-11.799492385786802
G3 X4.7944162436548226 Y46.95939086294416 I4.472081218274112 J-8.228426395939085
G3 X3.7436548223350252 Y45.890862944162436 I4.083756345177665 J-5.068527918781726
G3 X2.9340101522842637 Y44.43908629441624 I4.304568527918782 J-3.350253807106599
G3 X2.6497461928934007 Y42.85279187817259 I4.271573604060913 J-1.5862944162436547
G1 X2.6497461928934007 Y11.459390862944163
G3 X2.9340101522842637 Y9.873096446700508 I4.558375634517767 J0
G3 X3.7436548223350252 Y8.421319796954315 I5.114213197969542 J1.8984771573604062
G3 X4.7944162436548226 Y7.352791878172589 I5.1370558375634525 J3.99746192893401
G3 X6.200507614213198 Y6.413705583756345 I5.875634517766497 J7.289340101522843
G3 X9.319796954314722 Y5.241116751269036 I5.774111675126904 J10.624365482233502
G3 X13.20304568527919 Y4.809644670050762 I3.885786802030457 J17.258883248730964
G1 X123.09390862944163 Y4.809644670050762
G3 X126.97969543147208 Y5.241116751269036 I0 J17.69289340101523
G3 X130.0989847715736 Y6.413705583756345 I-2.657360406091371 J11.799492385786802
G3 X131.502538071066 Y7.352791878172589 I-4.472081218274112 J8.225888324873097
G3 X132.55583756345177 Y8.421319796954315 I-4.086294416243655 J5.068527918781726
G3 X133.36294416243655 Y9.873096446700508 I-4.304568527918782 J3.350253807106599
G3 X133.6497461928934 Y11.459390862944163 I-4.274111675126903 J1.5862944162436547
G1 X133.6497461928934 Y42.8502538071066
G3 X133.36294416243655 Y44.43908629441624 I-4.558375634517767 J0
G3 X132.55583756345177 Y45.88832487309645 I-5.114213197969542 J-1.8984771573604062
G3 X131.502538071066 Y46.95939086294416 I-5.1370558375634525 J-3.99746192893401
G3 X130.0989847715736 Y47.89593908629442 I-5.875634517766497 J-7.289340101522843
G3 X126.97969543147208 Y49.068527918781726 I-5.776649746192893 J-10.626903553299492
G3 X123.09390862944163 Y49.5 I-3.8883248730964466 J-17.263959390862944
G1 Z-3.5560913705583754 F2
G1 X13.20304568527919 Y49.5 F1143
G3 X9.319796954314722 Y49.068527918781726 I0 J-17.690355329949238
G3 X6.200507614213198 Y47.89593908629442 I2.657360406091371 J-11.799492385786802
G3 X4.7944162436548226 Y46.95939086294416 I4.472081218274112 J-8.228426395939085
G3 X3.7436548223350252 Y45.890862944162436 I4.083756345177665 J-5.068527918781726
G3 X2.9340101522842637 Y44.43908629441624 I4.304568527918782 J-3.350253807106599
G3 X2.6497461928934007 Y42.85279187817259 I4.271573604060913 J-1.5862944162436547
G1 X2.6497461928934007 Y11.459390862944163
G3 X2.9340101522842637 Y9.873096446700508 I4.558375634517767 J0
G3 X3.7436548223350252 Y8.421319796954315 I5.114213197969542 J1.8984771573604062
G3 X4.7944162436548226 Y7.352791878172589 I5.1370558375634525 J3.99746192893401
G3 X6.200507614213198 Y6.413705583756345 I5.875634517766497 J7.289340101522843
G3 X9.319796954314722 Y5.241116751269036 I5.774111675126904 J10.624365482233502
G3 X13.20304568527919 Y4.809644670050762 I3.885786802030457 J17.258883248730964
G1 X123.09390862944163 Y4.809644670050762
G3 X126.97969543147208 Y5.241116751269036 I0 J17.69289340101523
G3 X130.0989847715736 Y6.413705583756345 I-2.657360406091371 J11.799492385786802
G3 X131.502538071066 Y7.352791878172589 I-4.472081218274112 J8.225888324873097
G3 X132.55583756345177 Y8.421319796954315 I-4.086294416243655 J5.068527918781726
G3 X133.36294416243655 Y9.873096446700508 I-4.304568527918782 J3.350253807106599
G3 X133.6497461928934 Y11.459390862944163 I-4.274111675126903 J1.5862944162436547
G1 X133.6497461928934 Y42.8502538071066
G3 X133.36294416243655 Y44.43908629441624 I-4.558375634517767 J0
G3 X132.55583756345177 Y45.88832487309645 I-5.114213197969542 J-1.8984771573604062
G3 X131.502538071066 Y46.95939086294416 I-5.1370558375634525 J-3.99746192893401
G3 X130.0989847715736 Y47.89593908629442 I-5.875634517766497 J-7.289340101522843
G3 X126.97969543147208 Y49.068527918781726 I-5.776649746192893 J-10.626903553299492
G3 X123.09390862944163 Y49.5 I-3.8883248730964466 J-17.263959390862944
G0 Z6.35
M5
M30
