(Generated by PartKam Version 0.05)

G20 G90 G40

(CutItOut)
G0 Z0.125
T0 M6
G17
M3
G0 X0.4983 Y1.9845
G1 Z-0.015 F1
G1 X4.8247 Y1.9845 F15
G3 X4.969 Y2.0006 I0 J0.6572
G3 X5.0817 Y2.0429 I-0.0959 J0.4261
G3 X5.1311 Y2.0759 I-0.1572 J0.2893
G3 X5.1661 Y2.1116 I-0.1361 J0.1689
G3 X5.1921 Y2.1582 I-0.1384 J0.1077
G3 X5.2009 Y2.207 I-0.1313 J0.0488
G1 X5.2009 Y3.4429
G3 X5.1921 Y3.4916 I-0.1401 J0
G3 X5.1661 Y3.5383 I-0.1644 J-0.0611
G3 X5.1311 Y3.5739 I-0.1712 J-0.1332
G3 X5.0817 Y3.6069 I-0.2066 J-0.2563
G3 X4.969 Y3.6492 I-0.2086 J-0.3838
G3 X4.8247 Y3.6653 I-0.1444 J-0.6413
G1 X0.4983 Y3.6653
G3 X0.354 Y3.6493 I0 J-0.6571
G3 X0.2414 Y3.6069 I0.0959 J-0.4261
G3 X0.1919 Y3.574 I0.1572 J-0.2893
G3 X0.1569 Y3.5383 I0.1361 J-0.1689
G3 X0.1309 Y3.4917 I0.1384 J-0.1077
G3 X0.1221 Y3.4429 I0.1313 J-0.0488
G1 X0.1221 Y2.207
G3 X0.1309 Y2.1582 I0.1401 J0
G3 X0.1569 Y2.1115 I0.1644 J0.0611
G3 X0.1919 Y2.0759 I0.1712 J0.1332
G3 X0.2414 Y2.0429 I0.2066 J0.2563
G3 X0.354 Y2.0006 I0.2086 J0.3837
G3 X0.4983 Y1.9845 I0.1443 J0.6411
G1 Z-0.03 F1
G1 X4.8247 Y1.9845 F15
G3 X4.969 Y2.0006 I0 J0.6572
G3 X5.0817 Y2.0429 I-0.0959 J0.4261
G3 X5.1311 Y2.0759 I-0.1572 J0.2893
G3 X5.1661 Y2.1116 I-0.1361 J0.1689
G3 X5.1921 Y2.1582 I-0.1384 J0.1077
G3 X5.2009 Y2.207 I-0.1313 J0.0488
G1 X5.2009 Y3.4429
G3 X5.1921 Y3.4916 I-0.1401 J0
G3 X5.1661 Y3.5383 I-0.1644 J-0.0611
G3 X5.1311 Y3.5739 I-0.1712 J-0.1332
G3 X5.0817 Y3.6069 I-0.2066 J-0.2563
G3 X4.969 Y3.6492 I-0.2086 J-0.3838
G3 X4.8247 Y3.6653 I-0.1444 J-0.6413
G1 X0.4983 Y3.6653
G3 X0.354 Y3.6493 I0 J-0.6571
G3 X0.2414 Y3.6069 I0.0959 J-0.4261
G3 X0.1919 Y3.574 I0.1572 J-0.2893
G3 X0.1569 Y3.5383 I0.1361 J-0.1689
G3 X0.1309 Y3.4917 I0.1384 J-0.1077
G3 X0.1221 Y3.4429 I0.1313 J-0.0488
G1 X0.1221 Y2.207
G3 X0.1309 Y2.1582 I0.1401 J0
G3 X0.1569 Y2.1115 I0.1644 J0.0611
G3 X0.1919 Y2.0759 I0.1712 J0.1332
G3 X0.2414 Y2.0429 I0.2066 J0.2563
G3 X0.354 Y2.0006 I0.2086 J0.3837
G3 X0.4983 Y1.9845 I0.1443 J0.6411
G1 Z-0.045 F1
G1 X4.8247 Y1.9845 F15
G3 X4.969 Y2.0006 I0 J0.6572
G3 X5.0817 Y2.0429 I-0.0959 J0.4261
G3 X5.1311 Y2.0759 I-0.1572 J0.2893
G3 X5.1661 Y2.1116 I-0.1361 J0.1689
G3 X5.1921 Y2.1582 I-0.1384 J0.1077
G3 X5.2009 Y2.207 I-0.1313 J0.0488
G1 X5.2009 Y3.4429
G3 X5.1921 Y3.4916 I-0.1401 J0
G3 X5.1661 Y3.5383 I-0.1644 J-0.0611
G3 X5.1311 Y3.5739 I-0.1712 J-0.1332
G3 X5.0817 Y3.6069 I-0.2066 J-0.2563
G3 X4.969 Y3.6492 I-0.2086 J-0.3838
G3 X4.8247 Y3.6653 I-0.1444 J-0.6413
G1 X0.4983 Y3.6653
G3 X0.354 Y3.6493 I0 J-0.6571
G3 X0.2414 Y3.6069 I0.0959 J-0.4261
G3 X0.1919 Y3.574 I0.1572 J-0.2893
G3 X0.1569 Y3.5383 I0.1361 J-0.1689
G3 X0.1309 Y3.4917 I0.1384 J-0.1077
G3 X0.1221 Y3.4429 I0.1313 J-0.0488
G1 X0.1221 Y2.207
G3 X0.1309 Y2.1582 I0.1401 J0
G3 X0.1569 Y2.1115 I0.1644 J0.0611
G3 X0.1919 Y2.0759 I0.1712 J0.1332
G3 X0.2414 Y2.0429 I0.2066 J0.2563
G3 X0.354 Y2.0006 I0.2086 J0.3837
G3 X0.4983 Y1.9845 I0.1443 J0.6411
G1 Z-0.06 F1
G1 X4.8247 Y1.9845 F15
G3 X4.969 Y2.0006 I0 J0.6572
G3 X5.0817 Y2.0429 I-0.0959 J0.4261
G3 X5.1311 Y2.0759 I-0.1572 J0.2893
G3 X5.1661 Y2.1116 I-0.1361 J0.1689
G3 X5.1921 Y2.1582 I-0.1384 J0.1077
G3 X5.2009 Y2.207 I-0.1313 J0.0488
G1 X5.2009 Y3.4429
G3 X5.1921 Y3.4916 I-0.1401 J0
G3 X5.1661 Y3.5383 I-0.1644 J-0.0611
G3 X5.1311 Y3.5739 I-0.1712 J-0.1332
G3 X5.0817 Y3.6069 I-0.2066 J-0.2563
G3 X4.969 Y3.6492 I-0.2086 J-0.3838
G3 X4.8247 Y3.6653 I-0.1444 J-0.6413
G1 X0.4983 Y3.6653
G3 X0.354 Y3.6493 I0 J-0.6571
G3 X0.2414 Y3.6069 I0.0959 J-0.4261
G3 X0.1919 Y3.574 I0.1572 J-0.2893
G3 X0.1569 Y3.5383 I0.1361 J-0.1689
G3 X0.1309 Y3.4917 I0.1384 J-0.1077
G3 X0.1221 Y3.4429 I0.1313 J-0.0488
G1 X0.1221 Y2.207
G3 X0.1309 Y2.1582 I0.1401 J0
G3 X0.1569 Y2.1115 I0.1644 J0.0611
G3 X0.1919 Y2.0759 I0.1712 J0.1332
G3 X0.2414 Y2.0429 I0.2066 J0.2563
G3 X0.354 Y2.0006 I0.2086 J0.3837
G3 X0.4983 Y1.9845 I0.1443 J0.6411
G1 Z-0.075 F1
G1 X4.8247 Y1.9845 F15
G3 X4.969 Y2.0006 I0 J0.6572
G3 X5.0817 Y2.0429 I-0.0959 J0.4261
G3 X5.1311 Y2.0759 I-0.1572 J0.2893
G3 X5.1661 Y2.1116 I-0.1361 J0.1689
G3 X5.1921 Y2.1582 I-0.1384 J0.1077
G3 X5.2009 Y2.207 I-0.1313 J0.0488
G1 X5.2009 Y3.4429
G3 X5.1921 Y3.4916 I-0.1401 J0
G3 X5.1661 Y3.5383 I-0.1644 J-0.0611
G3 X5.1311 Y3.5739 I-0.1712 J-0.1332
G3 X5.0817 Y3.6069 I-0.2066 J-0.2563
G3 X4.969 Y3.6492 I-0.2086 J-0.3838
G3 X4.8247 Y3.6653 I-0.1444 J-0.6413
G1 X0.4983 Y3.6653
G3 X0.354 Y3.6493 I0 J-0.6571
G3 X0.2414 Y3.6069 I0.0959 J-0.4261
G3 X0.1919 Y3.574 I0.1572 J-0.2893
G3 X0.1569 Y3.5383 I0.1361 J-0.1689
G3 X0.1309 Y3.4917 I0.1384 J-0.1077
G3 X0.1221 Y3.4429 I0.1313 J-0.0488
G1 X0.1221 Y2.207
G3 X0.1309 Y2.1582 I0.1401 J0
G3 X0.1569 Y2.1115 I0.1644 J0.0611
G3 X0.1919 Y2.0759 I0.1712 J0.1332
G3 X0.2414 Y2.0429 I0.2066 J0.2563
G3 X0.354 Y2.0006 I0.2086 J0.3837
G3 X0.4983 Y1.9845 I0.1443 J0.6411
G1 Z-0.09 F1
G1 X4.8247 Y1.9845 F15
G3 X4.969 Y2.0006 I0 J0.6572
G3 X5.0817 Y2.0429 I-0.0959 J0.4261
G3 X5.1311 Y2.0759 I-0.1572 J0.2893
G3 X5.1661 Y2.1116 I-0.1361 J0.1689
G3 X5.1921 Y2.1582 I-0.1384 J0.1077
G3 X5.2009 Y2.207 I-0.1313 J0.0488
G1 X5.2009 Y3.4429
G3 X5.1921 Y3.4916 I-0.1401 J0
G3 X5.1661 Y3.5383 I-0.1644 J-0.0611
G3 X5.1311 Y3.5739 I-0.1712 J-0.1332
G3 X5.0817 Y3.6069 I-0.2066 J-0.2563
G3 X4.969 Y3.6492 I-0.2086 J-0.3838
G3 X4.8247 Y3.6653 I-0.1444 J-0.6413
G1 X0.4983 Y3.6653
G3 X0.354 Y3.6493 I0 J-0.6571
G3 X0.2414 Y3.6069 I0.0959 J-0.4261
G3 X0.1919 Y3.574 I0.1572 J-0.2893
G3 X0.1569 Y3.5383 I0.1361 J-0.1689
G3 X0.1309 Y3.4917 I0.1384 J-0.1077
G3 X0.1221 Y3.4429 I0.1313 J-0.0488
G1 X0.1221 Y2.207
G3 X0.1309 Y2.1582 I0.1401 J0
G3 X0.1569 Y2.1115 I0.1644 J0.0611
G3 X0.1919 Y2.0759 I0.1712 J0.1332
G3 X0.2414 Y2.0429 I0.2066 J0.2563
G3 X0.354 Y2.0006 I0.2086 J0.3837
G3 X0.4983 Y1.9845 I0.1443 J0.6411
G1 Z-0.105 F1
G1 X4.8247 Y1.9845 F15
G3 X4.969 Y2.0006 I0 J0.6572
G3 X5.0817 Y2.0429 I-0.0959 J0.4261
G3 X5.1311 Y2.0759 I-0.1572 J0.2893
G3 X5.1661 Y2.1116 I-0.1361 J0.1689
G3 X5.1921 Y2.1582 I-0.1384 J0.1077
G3 X5.2009 Y2.207 I-0.1313 J0.0488
G1 X5.2009 Y3.4429
G3 X5.1921 Y3.4916 I-0.1401 J0
G3 X5.1661 Y3.5383 I-0.1644 J-0.0611
G3 X5.1311 Y3.5739 I-0.1712 J-0.1332
G3 X5.0817 Y3.6069 I-0.2066 J-0.2563
G3 X4.969 Y3.6492 I-0.2086 J-0.3838
G3 X4.8247 Y3.6653 I-0.1444 J-0.6413
G1 X0.4983 Y3.6653
G3 X0.354 Y3.6493 I0 J-0.6571
G3 X0.2414 Y3.6069 I0.0959 J-0.4261
G3 X0.1919 Y3.574 I0.1572 J-0.2893
G3 X0.1569 Y3.5383 I0.1361 J-0.1689
G3 X0.1309 Y3.4917 I0.1384 J-0.1077
G3 X0.1221 Y3.4429 I0.1313 J-0.0488
G1 X0.1221 Y2.207
G3 X0.1309 Y2.1582 I0.1401 J0
G3 X0.1569 Y2.1115 I0.1644 J0.0611
G3 X0.1919 Y2.0759 I0.1712 J0.1332
G3 X0.2414 Y2.0429 I0.2066 J0.2563
G3 X0.354 Y2.0006 I0.2086 J0.3837
G3 X0.4983 Y1.9845 I0.1443 J0.6411
G1 Z-0.12 F1
G1 X4.8247 Y1.9845 F15
G3 X4.969 Y2.0006 I0 J0.6572
G3 X5.0817 Y2.0429 I-0.0959 J0.4261
G3 X5.1311 Y2.0759 I-0.1572 J0.2893
G3 X5.1661 Y2.1116 I-0.1361 J0.1689
G3 X5.1921 Y2.1582 I-0.1384 J0.1077
G3 X5.2009 Y2.207 I-0.1313 J0.0488
G1 X5.2009 Y3.4429
G3 X5.1921 Y3.4916 I-0.1401 J0
G3 X5.1661 Y3.5383 I-0.1644 J-0.0611
G3 X5.1311 Y3.5739 I-0.1712 J-0.1332
G3 X5.0817 Y3.6069 I-0.2066 J-0.2563
G3 X4.969 Y3.6492 I-0.2086 J-0.3838
G3 X4.8247 Y3.6653 I-0.1444 J-0.6413
G1 X0.4983 Y3.6653
G3 X0.354 Y3.6493 I0 J-0.6571
G3 X0.2414 Y3.6069 I0.0959 J-0.4261
G3 X0.1919 Y3.574 I0.1572 J-0.2893
G3 X0.1569 Y3.5383 I0.1361 J-0.1689
G3 X0.1309 Y3.4917 I0.1384 J-0.1077
G3 X0.1221 Y3.4429 I0.1313 J-0.0488
G1 X0.1221 Y2.207
G3 X0.1309 Y2.1582 I0.1401 J0
G3 X0.1569 Y2.1115 I0.1644 J0.0611
G3 X0.1919 Y2.0759 I0.1712 J0.1332
G3 X0.2414 Y2.0429 I0.2066 J0.2563
G3 X0.354 Y2.0006 I0.2086 J0.3837
G3 X0.4983 Y1.9845 I0.1443 J0.6411
G1 Z-0.13 F1
G1 X4.8247 Y1.9845 F15
G3 X4.969 Y2.0006 I0 J0.6572
G3 X5.0817 Y2.0429 I-0.0959 J0.4261
G3 X5.1311 Y2.0759 I-0.1572 J0.2893
G3 X5.1661 Y2.1116 I-0.1361 J0.1689
G3 X5.1921 Y2.1582 I-0.1384 J0.1077
G3 X5.2009 Y2.207 I-0.1313 J0.0488
G1 X5.2009 Y3.4429
G3 X5.1921 Y3.4916 I-0.1401 J0
G3 X5.1661 Y3.5383 I-0.1644 J-0.0611
G3 X5.1311 Y3.5739 I-0.1712 J-0.1332
G3 X5.0817 Y3.6069 I-0.2066 J-0.2563
G3 X4.969 Y3.6492 I-0.2086 J-0.3838
G3 X4.8247 Y3.6653 I-0.1444 J-0.6413
G1 X0.4983 Y3.6653
G3 X0.354 Y3.6493 I0 J-0.6571
G3 X0.2414 Y3.6069 I0.0959 J-0.4261
G3 X0.1919 Y3.574 I0.1572 J-0.2893
G3 X0.1569 Y3.5383 I0.1361 J-0.1689
G3 X0.1309 Y3.4917 I0.1384 J-0.1077
G3 X0.1221 Y3.4429 I0.1313 J-0.0488
G1 X0.1221 Y2.207
G3 X0.1309 Y2.1582 I0.1401 J0
G3 X0.1569 Y2.1115 I0.1644 J0.0611
G3 X0.1919 Y2.0759 I0.1712 J0.1332
G3 X0.2414 Y2.0429 I0.2066 J0.2563
G3 X0.354 Y2.0006 I0.2086 J0.3837
G3 X0.4983 Y1.9845 I0.1443 J0.6411
G0 Z0.125
M5
M30
