(Generated by PartKam Version 0.05)

G20 G90 G40

(CutItOut)
G0 Z0.25
T0 M6
G17
M3
G0 X0.4983 Y1.9452
G1 Z-0.05 F30
G1 X4.8247 Y1.9452 F60
G3 X4.9777 Y1.9622 I0 J0.6965
G3 X5.1005 Y2.0084 I-0.1046 J0.4645
G3 X5.1558 Y2.0453 I-0.176 J0.3239
G3 X5.1972 Y2.0874 I-0.1608 J0.1995
G3 X5.229 Y2.1445 I-0.1695 J0.1319
G3 X5.2403 Y2.207 I-0.1682 J0.0625
G1 X5.2403 Y3.4429
G3 X5.229 Y3.5054 I-0.1795 J0
G3 X5.1972 Y3.5625 I-0.2013 J-0.0748
G3 X5.1558 Y3.6046 I-0.2022 J-0.1574
G3 X5.1005 Y3.6415 I-0.2313 J-0.287
G3 X4.9777 Y3.6877 I-0.2274 J-0.4184
G3 X4.8247 Y3.7047 I-0.153 J-0.6797
G1 X0.4983 Y3.7047
G3 X0.3454 Y3.6877 I0 J-0.6964
G3 X0.2226 Y3.6415 I0.1046 J-0.4645
G3 X0.1672 Y3.6046 I0.176 J-0.3239
G3 X0.1258 Y3.5625 I0.1608 J-0.1995
G3 X0.094 Y3.5054 I0.1695 J-0.1319
G3 X0.0828 Y3.4429 I0.1682 J-0.0625
G1 X0.0828 Y2.207
G3 X0.094 Y2.1445 I0.1795 J0
G3 X0.1258 Y2.0874 I0.2013 J0.0748
G3 X0.1672 Y2.0452 I0.2022 J0.1574
G3 X0.2226 Y2.0084 I0.2313 J0.287
G3 X0.3453 Y1.9622 I0.2274 J0.4183
G3 X0.4983 Y1.9452 I0.153 J0.6795
G1 Z-0.1 F30
G1 X4.8247 Y1.9452 F60
G3 X4.9777 Y1.9622 I0 J0.6965
G3 X5.1005 Y2.0084 I-0.1046 J0.4645
G3 X5.1558 Y2.0453 I-0.176 J0.3239
G3 X5.1972 Y2.0874 I-0.1608 J0.1995
G3 X5.229 Y2.1445 I-0.1695 J0.1319
G3 X5.2403 Y2.207 I-0.1682 J0.0625
G1 X5.2403 Y3.4429
G3 X5.229 Y3.5054 I-0.1795 J0
G3 X5.1972 Y3.5625 I-0.2013 J-0.0748
G3 X5.1558 Y3.6046 I-0.2022 J-0.1574
G3 X5.1005 Y3.6415 I-0.2313 J-0.287
G3 X4.9777 Y3.6877 I-0.2274 J-0.4184
G3 X4.8247 Y3.7047 I-0.153 J-0.6797
G1 X0.4983 Y3.7047
G3 X0.3454 Y3.6877 I0 J-0.6964
G3 X0.2226 Y3.6415 I0.1046 J-0.4645
G3 X0.1672 Y3.6046 I0.176 J-0.3239
G3 X0.1258 Y3.5625 I0.1608 J-0.1995
G3 X0.094 Y3.5054 I0.1695 J-0.1319
G3 X0.0828 Y3.4429 I0.1682 J-0.0625
G1 X0.0828 Y2.207
G3 X0.094 Y2.1445 I0.1795 J0
G3 X0.1258 Y2.0874 I0.2013 J0.0748
G3 X0.1672 Y2.0452 I0.2022 J0.1574
G3 X0.2226 Y2.0084 I0.2313 J0.287
G3 X0.3453 Y1.9622 I0.2274 J0.4183
G3 X0.4983 Y1.9452 I0.153 J0.6795
G1 Z-0.13 F30
G1 X4.8247 Y1.9452 F60
G3 X4.9777 Y1.9622 I0 J0.6965
G3 X5.1005 Y2.0084 I-0.1046 J0.4645
G3 X5.1558 Y2.0453 I-0.176 J0.3239
G3 X5.1972 Y2.0874 I-0.1608 J0.1995
G3 X5.229 Y2.1445 I-0.1695 J0.1319
G3 X5.2403 Y2.207 I-0.1682 J0.0625
G1 X5.2403 Y3.4429
G3 X5.229 Y3.5054 I-0.1795 J0
G3 X5.1972 Y3.5625 I-0.2013 J-0.0748
G3 X5.1558 Y3.6046 I-0.2022 J-0.1574
G3 X5.1005 Y3.6415 I-0.2313 J-0.287
G3 X4.9777 Y3.6877 I-0.2274 J-0.4184
G3 X4.8247 Y3.7047 I-0.153 J-0.6797
G1 X0.4983 Y3.7047
G3 X0.3454 Y3.6877 I0 J-0.6964
G3 X0.2226 Y3.6415 I0.1046 J-0.4645
G3 X0.1672 Y3.6046 I0.176 J-0.3239
G3 X0.1258 Y3.5625 I0.1608 J-0.1995
G3 X0.094 Y3.5054 I0.1695 J-0.1319
G3 X0.0828 Y3.4429 I0.1682 J-0.0625
G1 X0.0828 Y2.207
G3 X0.094 Y2.1445 I0.1795 J0
G3 X0.1258 Y2.0874 I0.2013 J0.0748
G3 X0.1672 Y2.0452 I0.2022 J0.1574
G3 X0.2226 Y2.0084 I0.2313 J0.287
G3 X0.3453 Y1.9622 I0.2274 J0.4183
G3 X0.4983 Y1.9452 I0.153 J0.6795
G0 Z0.25
M5
M30
