(Generated by PartKam Version 0.05)

G20 G90 G40

(cut it out)
G0 Z0.25
T0 M6
G17
M3
G0 X0.5154 Y2.0247
G1 Z-0.05 F30
G1 X4.8417 Y2.0247 F60
G3 X4.9947 Y2.0417 I0 J0.6965
G3 X5.1175 Y2.0879 I-0.1046 J0.4645
G3 X5.1728 Y2.1247 I-0.176 J0.3239
G3 X5.2142 Y2.1669 I-0.1608 J0.1995
G3 X5.2461 Y2.224 I-0.1695 J0.1319
G3 X5.2573 Y2.2865 I-0.1682 J0.0625
G1 X5.2573 Y3.5224
G3 X5.2461 Y3.5848 I-0.1795 J0
G3 X5.2142 Y3.642 I-0.2013 J-0.0748
G3 X5.1728 Y3.6841 I-0.2022 J-0.1574
G3 X5.1175 Y3.721 I-0.2313 J-0.287
G3 X4.9947 Y3.7671 I-0.2274 J-0.4184
G3 X4.8417 Y3.7842 I-0.153 J-0.6797
G1 X0.5154 Y3.7842
G3 X0.3624 Y3.7672 I0 J-0.6964
G3 X0.2396 Y3.721 I0.1046 J-0.4645
G3 X0.1843 Y3.6841 I0.176 J-0.3239
G3 X0.1429 Y3.642 I0.1608 J-0.1995
G3 X0.111 Y3.5849 I0.1695 J-0.1319
G3 X0.0998 Y3.5224 I0.1682 J-0.0625
G1 X0.0998 Y2.2865
G3 X0.111 Y2.224 I0.1795 J0
G3 X0.1429 Y2.1669 I0.2013 J0.0748
G3 X0.1843 Y2.1247 I0.2022 J0.1574
G3 X0.2396 Y2.0878 I0.2313 J0.287
G3 X0.3624 Y2.0417 I0.2274 J0.4183
G3 X0.5154 Y2.0247 I0.153 J0.6795
G1 Z-0.1 F30
G1 X4.8417 Y2.0247 F60
G3 X4.9947 Y2.0417 I0 J0.6965
G3 X5.1175 Y2.0879 I-0.1046 J0.4645
G3 X5.1728 Y2.1247 I-0.176 J0.3239
G3 X5.2142 Y2.1669 I-0.1608 J0.1995
G3 X5.2461 Y2.224 I-0.1695 J0.1319
G3 X5.2573 Y2.2865 I-0.1682 J0.0625
G1 X5.2573 Y3.5224
G3 X5.2461 Y3.5848 I-0.1795 J0
G3 X5.2142 Y3.642 I-0.2013 J-0.0748
G3 X5.1728 Y3.6841 I-0.2022 J-0.1574
G3 X5.1175 Y3.721 I-0.2313 J-0.287
G3 X4.9947 Y3.7671 I-0.2274 J-0.4184
G3 X4.8417 Y3.7842 I-0.153 J-0.6797
G1 X0.5154 Y3.7842
G3 X0.3624 Y3.7672 I0 J-0.6964
G3 X0.2396 Y3.721 I0.1046 J-0.4645
G3 X0.1843 Y3.6841 I0.176 J-0.3239
G3 X0.1429 Y3.642 I0.1608 J-0.1995
G3 X0.111 Y3.5849 I0.1695 J-0.1319
G3 X0.0998 Y3.5224 I0.1682 J-0.0625
G1 X0.0998 Y2.2865
G3 X0.111 Y2.224 I0.1795 J0
G3 X0.1429 Y2.1669 I0.2013 J0.0748
G3 X0.1843 Y2.1247 I0.2022 J0.1574
G3 X0.2396 Y2.0878 I0.2313 J0.287
G3 X0.3624 Y2.0417 I0.2274 J0.4183
G3 X0.5154 Y2.0247 I0.153 J0.6795
G1 Z-0.13 F30
G1 X4.8417 Y2.0247 F60
G3 X4.9947 Y2.0417 I0 J0.6965
G3 X5.1175 Y2.0879 I-0.1046 J0.4645
G3 X5.1728 Y2.1247 I-0.176 J0.3239
G3 X5.2142 Y2.1669 I-0.1608 J0.1995
G3 X5.2461 Y2.224 I-0.1695 J0.1319
G3 X5.2573 Y2.2865 I-0.1682 J0.0625
G1 X5.2573 Y3.5224
G3 X5.2461 Y3.5848 I-0.1795 J0
G3 X5.2142 Y3.642 I-0.2013 J-0.0748
G3 X5.1728 Y3.6841 I-0.2022 J-0.1574
G3 X5.1175 Y3.721 I-0.2313 J-0.287
G3 X4.9947 Y3.7671 I-0.2274 J-0.4184
G3 X4.8417 Y3.7842 I-0.153 J-0.6797
G1 X0.5154 Y3.7842
G3 X0.3624 Y3.7672 I0 J-0.6964
G3 X0.2396 Y3.721 I0.1046 J-0.4645
G3 X0.1843 Y3.6841 I0.176 J-0.3239
G3 X0.1429 Y3.642 I0.1608 J-0.1995
G3 X0.111 Y3.5849 I0.1695 J-0.1319
G3 X0.0998 Y3.5224 I0.1682 J-0.0625
G1 X0.0998 Y2.2865
G3 X0.111 Y2.224 I0.1795 J0
G3 X0.1429 Y2.1669 I0.2013 J0.0748
G3 X0.1843 Y2.1247 I0.2022 J0.1574
G3 X0.2396 Y2.0878 I0.2313 J0.287
G3 X0.3624 Y2.0417 I0.2274 J0.4183
G3 X0.5154 Y2.0247 I0.153 J0.6795
G0 Z0.25
G0 X0.5294 Y0.233
G1 Z-0.05 F30
G1 X4.8558 Y0.233 F60
G3 X5.0087 Y0.25 I0 J0.6965
G3 X5.1315 Y0.2962 I-0.1046 J0.4645
G3 X5.1869 Y0.3331 I-0.176 J0.3239
G3 X5.2283 Y0.3752 I-0.1608 J0.1995
G3 X5.2601 Y0.4323 I-0.1695 J0.1319
G3 X5.2713 Y0.4948 I-0.1682 J0.0625
G1 X5.2713 Y1.7307
G3 X5.2601 Y1.7932 I-0.1795 J0
G3 X5.2283 Y1.8503 I-0.2013 J-0.0748
G3 X5.1869 Y1.8924 I-0.2022 J-0.1574
G3 X5.1315 Y1.9293 I-0.2313 J-0.287
G3 X5.0087 Y1.9755 I-0.2274 J-0.4183
G3 X4.8558 Y1.9925 I-0.153 J-0.6796
G1 X0.5294 Y1.9925
G3 X0.3764 Y1.9755 I0 J-0.6964
G3 X0.2536 Y1.9293 I0.1046 J-0.4645
G3 X0.1983 Y1.8924 I0.176 J-0.3239
G3 X0.1569 Y1.8503 I0.1608 J-0.1995
G3 X0.1251 Y1.7932 I0.1695 J-0.1319
G3 X0.1139 Y1.7307 I0.1682 J-0.0625
G1 X0.1139 Y0.4948
G3 X0.1251 Y0.4323 I0.1795 J0
G3 X0.1569 Y0.3752 I0.2013 J0.0748
G3 X0.1983 Y0.3331 I0.2022 J0.1574
G3 X0.2536 Y0.2962 I0.2313 J0.287
G3 X0.3764 Y0.25 I0.2274 J0.4183
G3 X0.5294 Y0.233 I0.153 J0.6795
G1 Z-0.1 F30
G1 X4.8558 Y0.233 F60
G3 X5.0087 Y0.25 I0 J0.6965
G3 X5.1315 Y0.2962 I-0.1046 J0.4645
G3 X5.1869 Y0.3331 I-0.176 J0.3239
G3 X5.2283 Y0.3752 I-0.1608 J0.1995
G3 X5.2601 Y0.4323 I-0.1695 J0.1319
G3 X5.2713 Y0.4948 I-0.1682 J0.0625
G1 X5.2713 Y1.7307
G3 X5.2601 Y1.7932 I-0.1795 J0
G3 X5.2283 Y1.8503 I-0.2013 J-0.0748
G3 X5.1869 Y1.8924 I-0.2022 J-0.1574
G3 X5.1315 Y1.9293 I-0.2313 J-0.287
G3 X5.0087 Y1.9755 I-0.2274 J-0.4183
G3 X4.8558 Y1.9925 I-0.153 J-0.6796
G1 X0.5294 Y1.9925
G3 X0.3764 Y1.9755 I0 J-0.6964
G3 X0.2536 Y1.9293 I0.1046 J-0.4645
G3 X0.1983 Y1.8924 I0.176 J-0.3239
G3 X0.1569 Y1.8503 I0.1608 J-0.1995
G3 X0.1251 Y1.7932 I0.1695 J-0.1319
G3 X0.1139 Y1.7307 I0.1682 J-0.0625
G1 X0.1139 Y0.4948
G3 X0.1251 Y0.4323 I0.1795 J0
G3 X0.1569 Y0.3752 I0.2013 J0.0748
G3 X0.1983 Y0.3331 I0.2022 J0.1574
G3 X0.2536 Y0.2962 I0.2313 J0.287
G3 X0.3764 Y0.25 I0.2274 J0.4183
G3 X0.5294 Y0.233 I0.153 J0.6795
G1 Z-0.13 F30
G1 X4.8558 Y0.233 F60
G3 X5.0087 Y0.25 I0 J0.6965
G3 X5.1315 Y0.2962 I-0.1046 J0.4645
G3 X5.1869 Y0.3331 I-0.176 J0.3239
G3 X5.2283 Y0.3752 I-0.1608 J0.1995
G3 X5.2601 Y0.4323 I-0.1695 J0.1319
G3 X5.2713 Y0.4948 I-0.1682 J0.0625
G1 X5.2713 Y1.7307
G3 X5.2601 Y1.7932 I-0.1795 J0
G3 X5.2283 Y1.8503 I-0.2013 J-0.0748
G3 X5.1869 Y1.8924 I-0.2022 J-0.1574
G3 X5.1315 Y1.9293 I-0.2313 J-0.287
G3 X5.0087 Y1.9755 I-0.2274 J-0.4183
G3 X4.8558 Y1.9925 I-0.153 J-0.6796
G1 X0.5294 Y1.9925
G3 X0.3764 Y1.9755 I0 J-0.6964
G3 X0.2536 Y1.9293 I0.1046 J-0.4645
G3 X0.1983 Y1.8924 I0.176 J-0.3239
G3 X0.1569 Y1.8503 I0.1608 J-0.1995
G3 X0.1251 Y1.7932 I0.1695 J-0.1319
G3 X0.1139 Y1.7307 I0.1682 J-0.0625
G1 X0.1139 Y0.4948
G3 X0.1251 Y0.4323 I0.1795 J0
G3 X0.1569 Y0.3752 I0.2013 J0.0748
G3 X0.1983 Y0.3331 I0.2022 J0.1574
G3 X0.2536 Y0.2962 I0.2313 J0.287
G3 X0.3764 Y0.25 I0.2274 J0.4183
G3 X0.5294 Y0.233 I0.153 J0.6795
G0 Z0.25
M5
M30
