(Generated by PartKam Version 0.05)

G21 G90 G40

(cut it out)
G0 Z6.35
T0 M6
G17
M3
G0 X122.54695431472081 Y94.09873096446701
G1 Z-1.27005076142132 F30
G1 X12.657360406091371 Y94.09898477157361 F1524
G3 X8.771573604060913 Y93.66751269035532 I0 J-17.690355329949238
G3 X5.652284263959391 Y92.49492385786802 I2.657360406091371 J-11.799492385786802
G3 X4.248730964467005 Y91.55583756345179 I4.472081218274112 J-8.228426395939085
G3 X3.1954314720812182 Y90.48730964467005 I4.083756345177665 J-5.068527918781726
G3 X2.3883248730964466 Y89.03553299492386 I4.304568527918782 J-3.350253807106599
G3 X2.101522842639594 Y87.4492385786802 I4.271573604060913 J-1.5862944162436547
G1 X2.101522842639594 Y56.05837563451777
G3 X2.3883248730964466 Y54.46954314720812 I4.558375634517767 J0
G3 X3.1954314720812182 Y53.02030456852792 I5.114213197969542 J1.8984771573604062
G3 X4.248730964467005 Y51.9492385786802 I5.1370558375634525 J3.99746192893401
G3 X5.652284263959391 Y51.012690355329944 I5.875634517766497 J7.289340101522843
G3 X8.771573604060913 Y49.84010152284264 I5.774111675126904 J10.624365482233502
G3 X12.657360406091371 Y49.40862944162436 I3.885786802030457 J17.258883248730964
G1 X122.5482233502538 Y49.40862944162436
G3 X126.43401015228426 Y49.84010152284264 I0 J17.69289340101523
G3 X129.5507614213198 Y51.012690355329944 I-2.657360406091371 J11.799492385786802
G3 X130.95685279187816 Y51.9492385786802 I-4.472081218274112 J8.225888324873097
G3 X132.00761421319797 Y53.02030456852792 I-4.086294416243655 J5.068527918781726
G3 X132.81725888324874 Y54.46954314720812 I-4.304568527918782 J3.350253807106599
G3 X133.10152284263958 Y56.05837563451777 I-4.274111675126903 J1.5862944162436547
G1 X133.10152284263958 Y87.4492385786802
G3 X132.81725888324874 Y89.03553299492386 I-4.558375634517767 J0
G3 X132.00761421319797 Y90.48730964467005 I-5.114213197969542 J-1.8984771573604062
G3 X130.95685279187816 Y91.55583756345179 I-5.1370558375634525 J-3.99746192893401
G3 X129.5507614213198 Y92.49492385786802 I-5.875634517766497 J-7.289340101522843
G3 X126.43401015228426 Y93.66751269035532 I-5.776649746192893 J-10.626903553299492
G3 X122.5482233502538 Y94.09898477157361 I-3.8883248730964466 J-17.263959390862944
G1 Z-2.54010152284264 F30
G1 X12.657360406091371 Y94.09898477157361 F1524
G3 X8.771573604060913 Y93.66751269035532 I0 J-17.690355329949238
G3 X5.652284263959391 Y92.49492385786802 I2.657360406091371 J-11.799492385786802
G3 X4.248730964467005 Y91.55583756345179 I4.472081218274112 J-8.228426395939085
G3 X3.1954314720812182 Y90.48730964467005 I4.083756345177665 J-5.068527918781726
G3 X2.3883248730964466 Y89.03553299492386 I4.304568527918782 J-3.350253807106599
G3 X2.101522842639594 Y87.4492385786802 I4.271573604060913 J-1.5862944162436547
G1 X2.101522842639594 Y56.05837563451777
G3 X2.3883248730964466 Y54.46954314720812 I4.558375634517767 J0
G3 X3.1954314720812182 Y53.02030456852792 I5.114213197969542 J1.8984771573604062
G3 X4.248730964467005 Y51.9492385786802 I5.1370558375634525 J3.99746192893401
G3 X5.652284263959391 Y51.012690355329944 I5.875634517766497 J7.289340101522843
G3 X8.771573604060913 Y49.84010152284264 I5.774111675126904 J10.624365482233502
G3 X12.657360406091371 Y49.40862944162436 I3.885786802030457 J17.258883248730964
G1 X122.5482233502538 Y49.40862944162436
G3 X126.43401015228426 Y49.84010152284264 I0 J17.69289340101523
G3 X129.5507614213198 Y51.012690355329944 I-2.657360406091371 J11.799492385786802
G3 X130.95685279187816 Y51.9492385786802 I-4.472081218274112 J8.225888324873097
G3 X132.00761421319797 Y53.02030456852792 I-4.086294416243655 J5.068527918781726
G3 X132.81725888324874 Y54.46954314720812 I-4.304568527918782 J3.350253807106599
G3 X133.10152284263958 Y56.05837563451777 I-4.274111675126903 J1.5862944162436547
G1 X133.10152284263958 Y87.4492385786802
G3 X132.81725888324874 Y89.03553299492386 I-4.558375634517767 J0
G3 X132.00761421319797 Y90.48730964467005 I-5.114213197969542 J-1.8984771573604062
G3 X130.95685279187816 Y91.55583756345179 I-5.1370558375634525 J-3.99746192893401
G3 X129.5507614213198 Y92.49492385786802 I-5.875634517766497 J-7.289340101522843
G3 X126.43401015228426 Y93.66751269035532 I-5.776649746192893 J-10.626903553299492
G3 X122.5482233502538 Y94.09898477157361 I-3.8883248730964466 J-17.263959390862944
G1 Z-3.302030456852792 F30
G1 X12.657360406091371 Y94.09898477157361 F1524
G3 X8.771573604060913 Y93.66751269035532 I0 J-17.690355329949238
G3 X5.652284263959391 Y92.49492385786802 I2.657360406091371 J-11.799492385786802
G3 X4.248730964467005 Y91.55583756345179 I4.472081218274112 J-8.228426395939085
G3 X3.1954314720812182 Y90.48730964467005 I4.083756345177665 J-5.068527918781726
G3 X2.3883248730964466 Y89.03553299492386 I4.304568527918782 J-3.350253807106599
G3 X2.101522842639594 Y87.4492385786802 I4.271573604060913 J-1.5862944162436547
G1 X2.101522842639594 Y56.05837563451777
G3 X2.3883248730964466 Y54.46954314720812 I4.558375634517767 J0
G3 X3.1954314720812182 Y53.02030456852792 I5.114213197969542 J1.8984771573604062
G3 X4.248730964467005 Y51.9492385786802 I5.1370558375634525 J3.99746192893401
G3 X5.652284263959391 Y51.012690355329944 I5.875634517766497 J7.289340101522843
G3 X8.771573604060913 Y49.84010152284264 I5.774111675126904 J10.624365482233502
G3 X12.657360406091371 Y49.40862944162436 I3.885786802030457 J17.258883248730964
G1 X122.5482233502538 Y49.40862944162436
G3 X126.43401015228426 Y49.84010152284264 I0 J17.69289340101523
G3 X129.5507614213198 Y51.012690355329944 I-2.657360406091371 J11.799492385786802
G3 X130.95685279187816 Y51.9492385786802 I-4.472081218274112 J8.225888324873097
G3 X132.00761421319797 Y53.02030456852792 I-4.086294416243655 J5.068527918781726
G3 X132.81725888324874 Y54.46954314720812 I-4.304568527918782 J3.350253807106599
G3 X133.10152284263958 Y56.05837563451777 I-4.274111675126903 J1.5862944162436547
G1 X133.10152284263958 Y87.4492385786802
G3 X132.81725888324874 Y89.03553299492386 I-4.558375634517767 J0
G3 X132.00761421319797 Y90.48730964467005 I-5.114213197969542 J-1.8984771573604062
G3 X130.95685279187816 Y91.55583756345179 I-5.1370558375634525 J-3.99746192893401
G3 X129.5507614213198 Y92.49492385786802 I-5.875634517766497 J-7.289340101522843
G3 X126.43401015228426 Y93.66751269035532 I-5.776649746192893 J-10.626903553299492
G3 X122.5482233502538 Y94.09898477157361 I-3.8883248730964466 J-17.263959390862944
G0 Z6.35
G0 X13.591370558375635 Y4.476142131979695
G1 Z-1.27005076142132 F30
G1 X123.47969543147208 Y4.477157360406092 F1524
G3 X127.36548223350253 Y4.908629441624365 I0 J17.69289340101523
G3 X130.48477157360406 Y6.081218274111675 I-2.657360406091371 J11.799492385786802
G3 X131.89086294416245 Y7.017766497461929 I-4.472081218274112 J8.225888324873097
G3 X132.94162436548223 Y8.088832487309645 I-4.086294416243655 J5.068527918781726
G3 X133.751269035533 Y9.538071065989849 I-4.304568527918782 J3.350253807106599
G3 X134.03553299492384 Y11.126903553299492 I-4.274111675126903 J1.5862944162436547
G1 X134.03553299492384 Y42.517766497461935
G3 X133.751269035533 Y44.10406091370558 I-4.558375634517767 J0
G3 X132.94162436548223 Y45.55583756345178 I-5.114213197969542 J-1.8984771573604062
G3 X131.89086294416245 Y46.6243654822335 I-5.1370558375634525 J-3.99746192893401
G3 X130.48477157360406 Y47.56345177664975 I-5.875634517766497 J-7.289340101522843
G3 X127.36548223350253 Y48.736040609137056 I-5.774111675126904 J-10.626903553299492
G3 X123.47969543147208 Y49.16751269035533 I-3.885786802030457 J-17.261421319796955
G1 X13.591370558375635 Y49.16751269035533
G3 X9.705583756345177 Y48.736040609137056 I0 J-17.690355329949238
G3 X6.586294416243654 Y47.56091370558376 I2.657360406091371 J-11.799492385786802
G3 X5.182741116751269 Y46.6243654822335 I4.472081218274112 J-8.228426395939085
G3 X4.129441624365483 Y45.55583756345178 I4.083756345177665 J-5.068527918781726
G3 X3.3223350253807107 Y44.10406091370558 I4.304568527918782 J-3.350253807106599
G3 X3.035532994923858 Y42.517766497461935 I4.271573604060913 J-1.5862944162436547
G1 X3.035532994923858 Y11.126903553299492
G3 X3.3223350253807107 Y9.538071065989849 I4.558375634517767 J0
G3 X4.129441624365483 Y8.088832487309645 I5.114213197969542 J1.8984771573604062
G3 X5.182741116751269 Y7.017766497461929 I5.1370558375634525 J3.99746192893401
G3 X6.586294416243654 Y6.081218274111675 I5.875634517766497 J7.289340101522843
G3 X9.705583756345177 Y4.908629441624365 I5.774111675126904 J10.624365482233502
G3 X13.591370558375635 Y4.477157360406092 I3.885786802030457 J17.258883248730964
G1 Z-2.54010152284264 F30
G1 X123.47969543147208 Y4.477157360406092 F1524
G3 X127.36548223350253 Y4.908629441624365 I0 J17.69289340101523
G3 X130.48477157360406 Y6.081218274111675 I-2.657360406091371 J11.799492385786802
G3 X131.89086294416245 Y7.017766497461929 I-4.472081218274112 J8.225888324873097
G3 X132.94162436548223 Y8.088832487309645 I-4.086294416243655 J5.068527918781726
G3 X133.751269035533 Y9.538071065989849 I-4.304568527918782 J3.350253807106599
G3 X134.03553299492384 Y11.126903553299492 I-4.274111675126903 J1.5862944162436547
G1 X134.03553299492384 Y42.517766497461935
G3 X133.751269035533 Y44.10406091370558 I-4.558375634517767 J0
G3 X132.94162436548223 Y45.55583756345178 I-5.114213197969542 J-1.8984771573604062
G3 X131.89086294416245 Y46.6243654822335 I-5.1370558375634525 J-3.99746192893401
G3 X130.48477157360406 Y47.56345177664975 I-5.875634517766497 J-7.289340101522843
G3 X127.36548223350253 Y48.736040609137056 I-5.774111675126904 J-10.626903553299492
G3 X123.47969543147208 Y49.16751269035533 I-3.885786802030457 J-17.261421319796955
G1 X13.591370558375635 Y49.16751269035533
G3 X9.705583756345177 Y48.736040609137056 I0 J-17.690355329949238
G3 X6.586294416243654 Y47.56091370558376 I2.657360406091371 J-11.799492385786802
G3 X5.182741116751269 Y46.6243654822335 I4.472081218274112 J-8.228426395939085
G3 X4.129441624365483 Y45.55583756345178 I4.083756345177665 J-5.068527918781726
G3 X3.3223350253807107 Y44.10406091370558 I4.304568527918782 J-3.350253807106599
G3 X3.035532994923858 Y42.517766497461935 I4.271573604060913 J-1.5862944162436547
G1 X3.035532994923858 Y11.126903553299492
G3 X3.3223350253807107 Y9.538071065989849 I4.558375634517767 J0
G3 X4.129441624365483 Y8.088832487309645 I5.114213197969542 J1.8984771573604062
G3 X5.182741116751269 Y7.017766497461929 I5.1370558375634525 J3.99746192893401
G3 X6.586294416243654 Y6.081218274111675 I5.875634517766497 J7.289340101522843
G3 X9.705583756345177 Y4.908629441624365 I5.774111675126904 J10.624365482233502
G3 X13.591370558375635 Y4.477157360406092 I3.885786802030457 J17.258883248730964
G1 Z-3.302030456852792 F30
G1 X123.47969543147208 Y4.477157360406092 F1524
G3 X127.36548223350253 Y4.908629441624365 I0 J17.69289340101523
G3 X130.48477157360406 Y6.081218274111675 I-2.657360406091371 J11.799492385786802
G3 X131.89086294416245 Y7.017766497461929 I-4.472081218274112 J8.225888324873097
G3 X132.94162436548223 Y8.088832487309645 I-4.086294416243655 J5.068527918781726
G3 X133.751269035533 Y9.538071065989849 I-4.304568527918782 J3.350253807106599
G3 X134.03553299492384 Y11.126903553299492 I-4.274111675126903 J1.5862944162436547
G1 X134.03553299492384 Y42.517766497461935
G3 X133.751269035533 Y44.10406091370558 I-4.558375634517767 J0
G3 X132.94162436548223 Y45.55583756345178 I-5.114213197969542 J-1.8984771573604062
G3 X131.89086294416245 Y46.6243654822335 I-5.1370558375634525 J-3.99746192893401
G3 X130.48477157360406 Y47.56345177664975 I-5.875634517766497 J-7.289340101522843
G3 X127.36548223350253 Y48.736040609137056 I-5.774111675126904 J-10.626903553299492
G3 X123.47969543147208 Y49.16751269035533 I-3.885786802030457 J-17.261421319796955
G1 X13.591370558375635 Y49.16751269035533
G3 X9.705583756345177 Y48.736040609137056 I0 J-17.690355329949238
G3 X6.586294416243654 Y47.56091370558376 I2.657360406091371 J-11.799492385786802
G3 X5.182741116751269 Y46.6243654822335 I4.472081218274112 J-8.228426395939085
G3 X4.129441624365483 Y45.55583756345178 I4.083756345177665 J-5.068527918781726
G3 X3.3223350253807107 Y44.10406091370558 I4.304568527918782 J-3.350253807106599
G3 X3.035532994923858 Y42.517766497461935 I4.271573604060913 J-1.5862944162436547
G1 X3.035532994923858 Y11.126903553299492
G3 X3.3223350253807107 Y9.538071065989849 I4.558375634517767 J0
G3 X4.129441624365483 Y8.088832487309645 I5.114213197969542 J1.8984771573604062
G3 X5.182741116751269 Y7.017766497461929 I5.1370558375634525 J3.99746192893401
G3 X6.586294416243654 Y6.081218274111675 I5.875634517766497 J7.289340101522843
G3 X9.705583756345177 Y4.908629441624365 I5.774111675126904 J10.624365482233502
G3 X13.591370558375635 Y4.477157360406092 I3.885786802030457 J17.258883248730964
G0 Z6.35
M5
M30
