(Generated by PartKam Version 0.05)

G20 G90 G40

(CutItOut)
G0 Z0.25
T0 M6
G17
M3
G0 X0.4983 Y1.9649
G1 Z-0.05 F1
G1 X4.8247 Y1.9649 F30
G3 X4.9733 Y1.9814 I0 J0.6768
G3 X5.0911 Y2.0257 I-0.1003 J0.4453
G3 X5.1434 Y2.0606 I-0.1666 J0.3066
G3 X5.1817 Y2.0995 I-0.1485 J0.1842
G3 X5.2106 Y2.1513 I-0.154 J0.1198
G3 X5.2206 Y2.207 I-0.1498 J0.0556
G1 X5.2206 Y3.4429
G3 X5.2106 Y3.4985 I-0.1598 J0
G3 X5.1817 Y3.5504 I-0.1829 J-0.0679
G3 X5.1434 Y3.5893 I-0.1867 J-0.1453
G3 X5.0911 Y3.6242 I-0.219 J-0.2717
G3 X4.9734 Y3.6685 I-0.218 J-0.4011
G3 X4.8247 Y3.685 I-0.1487 J-0.6605
G1 X0.4983 Y3.685
G3 X0.3497 Y3.6685 I0 J-0.6767
G3 X0.232 Y3.6242 I0.1003 J-0.4453
G3 X0.1796 Y3.5893 I0.1666 J-0.3066
G3 X0.1414 Y3.5504 I0.1485 J-0.1842
G3 X0.1124 Y3.4985 I0.154 J-0.1198
G3 X0.1024 Y3.4429 I0.1498 J-0.0556
G1 X0.1024 Y2.207
G3 X0.1124 Y2.1513 I0.1598 J0
G3 X0.1414 Y2.0995 I0.1829 J0.0679
G3 X0.1796 Y2.0606 I0.1867 J0.1453
G3 X0.232 Y2.0256 I0.219 J0.2717
G3 X0.3497 Y1.9814 I0.218 J0.401
G3 X0.4983 Y1.9649 I0.1486 J0.6603
G1 Z-0.1 F1
G1 X4.8247 Y1.9649 F30
G3 X4.9733 Y1.9814 I0 J0.6768
G3 X5.0911 Y2.0257 I-0.1003 J0.4453
G3 X5.1434 Y2.0606 I-0.1666 J0.3066
G3 X5.1817 Y2.0995 I-0.1485 J0.1842
G3 X5.2106 Y2.1513 I-0.154 J0.1198
G3 X5.2206 Y2.207 I-0.1498 J0.0556
G1 X5.2206 Y3.4429
G3 X5.2106 Y3.4985 I-0.1598 J0
G3 X5.1817 Y3.5504 I-0.1829 J-0.0679
G3 X5.1434 Y3.5893 I-0.1867 J-0.1453
G3 X5.0911 Y3.6242 I-0.219 J-0.2717
G3 X4.9734 Y3.6685 I-0.218 J-0.4011
G3 X4.8247 Y3.685 I-0.1487 J-0.6605
G1 X0.4983 Y3.685
G3 X0.3497 Y3.6685 I0 J-0.6767
G3 X0.232 Y3.6242 I0.1003 J-0.4453
G3 X0.1796 Y3.5893 I0.1666 J-0.3066
G3 X0.1414 Y3.5504 I0.1485 J-0.1842
G3 X0.1124 Y3.4985 I0.154 J-0.1198
G3 X0.1024 Y3.4429 I0.1498 J-0.0556
G1 X0.1024 Y2.207
G3 X0.1124 Y2.1513 I0.1598 J0
G3 X0.1414 Y2.0995 I0.1829 J0.0679
G3 X0.1796 Y2.0606 I0.1867 J0.1453
G3 X0.232 Y2.0256 I0.219 J0.2717
G3 X0.3497 Y1.9814 I0.218 J0.401
G3 X0.4983 Y1.9649 I0.1486 J0.6603
G1 Z-0.13 F1
G1 X4.8247 Y1.9649 F30
G3 X4.9733 Y1.9814 I0 J0.6768
G3 X5.0911 Y2.0257 I-0.1003 J0.4453
G3 X5.1434 Y2.0606 I-0.1666 J0.3066
G3 X5.1817 Y2.0995 I-0.1485 J0.1842
G3 X5.2106 Y2.1513 I-0.154 J0.1198
G3 X5.2206 Y2.207 I-0.1498 J0.0556
G1 X5.2206 Y3.4429
G3 X5.2106 Y3.4985 I-0.1598 J0
G3 X5.1817 Y3.5504 I-0.1829 J-0.0679
G3 X5.1434 Y3.5893 I-0.1867 J-0.1453
G3 X5.0911 Y3.6242 I-0.219 J-0.2717
G3 X4.9734 Y3.6685 I-0.218 J-0.4011
G3 X4.8247 Y3.685 I-0.1487 J-0.6605
G1 X0.4983 Y3.685
G3 X0.3497 Y3.6685 I0 J-0.6767
G3 X0.232 Y3.6242 I0.1003 J-0.4453
G3 X0.1796 Y3.5893 I0.1666 J-0.3066
G3 X0.1414 Y3.5504 I0.1485 J-0.1842
G3 X0.1124 Y3.4985 I0.154 J-0.1198
G3 X0.1024 Y3.4429 I0.1498 J-0.0556
G1 X0.1024 Y2.207
G3 X0.1124 Y2.1513 I0.1598 J0
G3 X0.1414 Y2.0995 I0.1829 J0.0679
G3 X0.1796 Y2.0606 I0.1867 J0.1453
G3 X0.232 Y2.0256 I0.219 J0.2717
G3 X0.3497 Y1.9814 I0.218 J0.401
G3 X0.4983 Y1.9649 I0.1486 J0.6603
G0 Z0.25
M5
M30
