(Generated by PartKam Version 0.05)

G20 G90 G40

(Holes)
G0 Z0.25
T0 M6
G17
M3
G0 X4.6745 Y2.8583
G1 Z-0.02 F2
G3 X4.6764 Y2.8485 I0.0256 J0 F45
G3 X4.682 Y2.8402 I0.0236 J0.0098
G3 X4.6903 Y2.8347 I0.0181 J0.0181
G3 X4.7001 Y2.8327 I0.0098 J0.0236
G3 X4.7099 Y2.8347 I0 J0.0256
G3 X4.7182 Y2.8402 I-0.0098 J0.0236
G3 X4.7237 Y2.8485 I-0.0181 J0.0181
G3 X4.7257 Y2.8583 I-0.0236 J0.0098
G3 X4.7237 Y2.8681 I-0.0256 J0
G3 X4.7182 Y2.8764 I-0.0236 J-0.0098
G3 X4.7099 Y2.882 I-0.0181 J-0.0181
G3 X4.7001 Y2.8839 I-0.0098 J-0.0236
G3 X4.6903 Y2.882 I0 J-0.0256
G3 X4.682 Y2.8764 I0.0098 J-0.0236
G3 X4.6764 Y2.8681 I0.0181 J-0.0181
G3 X4.6745 Y2.8583 I0.0236 J-0.0098
G1 Z-0.04 F2
G3 X4.6764 Y2.8485 I0.0256 J0 F45
G3 X4.682 Y2.8402 I0.0236 J0.0098
G3 X4.6903 Y2.8347 I0.0181 J0.0181
G3 X4.7001 Y2.8327 I0.0098 J0.0236
G3 X4.7099 Y2.8347 I0 J0.0256
G3 X4.7182 Y2.8402 I-0.0098 J0.0236
G3 X4.7237 Y2.8485 I-0.0181 J0.0181
G3 X4.7257 Y2.8583 I-0.0236 J0.0098
G3 X4.7237 Y2.8681 I-0.0256 J0
G3 X4.7182 Y2.8764 I-0.0236 J-0.0098
G3 X4.7099 Y2.882 I-0.0181 J-0.0181
G3 X4.7001 Y2.8839 I-0.0098 J-0.0236
G3 X4.6903 Y2.882 I0 J-0.0256
G3 X4.682 Y2.8764 I0.0098 J-0.0236
G3 X4.6764 Y2.8681 I0.0181 J-0.0181
G3 X4.6745 Y2.8583 I0.0236 J-0.0098
G1 Z-0.06 F2
G3 X4.6764 Y2.8485 I0.0256 J0 F45
G3 X4.682 Y2.8402 I0.0236 J0.0098
G3 X4.6903 Y2.8347 I0.0181 J0.0181
G3 X4.7001 Y2.8327 I0.0098 J0.0236
G3 X4.7099 Y2.8347 I0 J0.0256
G3 X4.7182 Y2.8402 I-0.0098 J0.0236
G3 X4.7237 Y2.8485 I-0.0181 J0.0181
G3 X4.7257 Y2.8583 I-0.0236 J0.0098
G3 X4.7237 Y2.8681 I-0.0256 J0
G3 X4.7182 Y2.8764 I-0.0236 J-0.0098
G3 X4.7099 Y2.882 I-0.0181 J-0.0181
G3 X4.7001 Y2.8839 I-0.0098 J-0.0236
G3 X4.6903 Y2.882 I0 J-0.0256
G3 X4.682 Y2.8764 I0.0098 J-0.0236
G3 X4.6764 Y2.8681 I0.0181 J-0.0181
G3 X4.6745 Y2.8583 I0.0236 J-0.0098
G1 Z-0.08 F2
G3 X4.6764 Y2.8485 I0.0256 J0 F45
G3 X4.682 Y2.8402 I0.0236 J0.0098
G3 X4.6903 Y2.8347 I0.0181 J0.0181
G3 X4.7001 Y2.8327 I0.0098 J0.0236
G3 X4.7099 Y2.8347 I0 J0.0256
G3 X4.7182 Y2.8402 I-0.0098 J0.0236
G3 X4.7237 Y2.8485 I-0.0181 J0.0181
G3 X4.7257 Y2.8583 I-0.0236 J0.0098
G3 X4.7237 Y2.8681 I-0.0256 J0
G3 X4.7182 Y2.8764 I-0.0236 J-0.0098
G3 X4.7099 Y2.882 I-0.0181 J-0.0181
G3 X4.7001 Y2.8839 I-0.0098 J-0.0236
G3 X4.6903 Y2.882 I0 J-0.0256
G3 X4.682 Y2.8764 I0.0098 J-0.0236
G3 X4.6764 Y2.8681 I0.0181 J-0.0181
G3 X4.6745 Y2.8583 I0.0236 J-0.0098
G1 Z-0.1 F2
G3 X4.6764 Y2.8485 I0.0256 J0 F45
G3 X4.682 Y2.8402 I0.0236 J0.0098
G3 X4.6903 Y2.8347 I0.0181 J0.0181
G3 X4.7001 Y2.8327 I0.0098 J0.0236
G3 X4.7099 Y2.8347 I0 J0.0256
G3 X4.7182 Y2.8402 I-0.0098 J0.0236
G3 X4.7237 Y2.8485 I-0.0181 J0.0181
G3 X4.7257 Y2.8583 I-0.0236 J0.0098
G3 X4.7237 Y2.8681 I-0.0256 J0
G3 X4.7182 Y2.8764 I-0.0236 J-0.0098
G3 X4.7099 Y2.882 I-0.0181 J-0.0181
G3 X4.7001 Y2.8839 I-0.0098 J-0.0236
G3 X4.6903 Y2.882 I0 J-0.0256
G3 X4.682 Y2.8764 I0.0098 J-0.0236
G3 X4.6764 Y2.8681 I0.0181 J-0.0181
G3 X4.6745 Y2.8583 I0.0236 J-0.0098
G1 Z-0.12 F2
G3 X4.6764 Y2.8485 I0.0256 J0 F45
G3 X4.682 Y2.8402 I0.0236 J0.0098
G3 X4.6903 Y2.8347 I0.0181 J0.0181
G3 X4.7001 Y2.8327 I0.0098 J0.0236
G3 X4.7099 Y2.8347 I0 J0.0256
G3 X4.7182 Y2.8402 I-0.0098 J0.0236
G3 X4.7237 Y2.8485 I-0.0181 J0.0181
G3 X4.7257 Y2.8583 I-0.0236 J0.0098
G3 X4.7237 Y2.8681 I-0.0256 J0
G3 X4.7182 Y2.8764 I-0.0236 J-0.0098
G3 X4.7099 Y2.882 I-0.0181 J-0.0181
G3 X4.7001 Y2.8839 I-0.0098 J-0.0236
G3 X4.6903 Y2.882 I0 J-0.0256
G3 X4.682 Y2.8764 I0.0098 J-0.0236
G3 X4.6764 Y2.8681 I0.0181 J-0.0181
G3 X4.6745 Y2.8583 I0.0236 J-0.0098
G1 Z-0.14 F2
G3 X4.6764 Y2.8485 I0.0256 J0 F45
G3 X4.682 Y2.8402 I0.0236 J0.0098
G3 X4.6903 Y2.8347 I0.0181 J0.0181
G3 X4.7001 Y2.8327 I0.0098 J0.0236
G3 X4.7099 Y2.8347 I0 J0.0256
G3 X4.7182 Y2.8402 I-0.0098 J0.0236
G3 X4.7237 Y2.8485 I-0.0181 J0.0181
G3 X4.7257 Y2.8583 I-0.0236 J0.0098
G3 X4.7237 Y2.8681 I-0.0256 J0
G3 X4.7182 Y2.8764 I-0.0236 J-0.0098
G3 X4.7099 Y2.882 I-0.0181 J-0.0181
G3 X4.7001 Y2.8839 I-0.0098 J-0.0236
G3 X4.6903 Y2.882 I0 J-0.0256
G3 X4.682 Y2.8764 I0.0098 J-0.0236
G3 X4.6764 Y2.8681 I0.0181 J-0.0181
G3 X4.6745 Y2.8583 I0.0236 J-0.0098
G0 Z0.25
G0 X2.0241 Y2.8307
G1 Z-0.02 F2
G3 X2.0324 Y2.8362 I-0.0098 J0.0236 F45
G3 X2.0379 Y2.8445 I-0.0181 J0.0181
G3 X2.0399 Y2.8543 I-0.0236 J0.0098
G3 X2.0379 Y2.8641 I-0.0256 J0
G3 X2.0324 Y2.8724 I-0.0236 J-0.0098
G3 X2.0241 Y2.878 I-0.0181 J-0.0181
G3 X2.0143 Y2.8799 I-0.0098 J-0.0236
G3 X2.0045 Y2.878 I0 J-0.0256
G3 X1.9962 Y2.8724 I0.0098 J-0.0236
G3 X1.9906 Y2.8641 I0.0181 J-0.0181
G3 X1.9887 Y2.8543 I0.0236 J-0.0098
G3 X1.9906 Y2.8445 I0.0256 J0
G3 X1.9962 Y2.8362 I0.0236 J0.0098
G3 X2.0045 Y2.8307 I0.0181 J0.0181
G3 X2.0143 Y2.8287 I0.0098 J0.0236
G3 X2.0241 Y2.8307 I0 J0.0256
G1 Z-0.04 F2
G3 X2.0324 Y2.8362 I-0.0098 J0.0236 F45
G3 X2.0379 Y2.8445 I-0.0181 J0.0181
G3 X2.0399 Y2.8543 I-0.0236 J0.0098
G3 X2.0379 Y2.8641 I-0.0256 J0
G3 X2.0324 Y2.8724 I-0.0236 J-0.0098
G3 X2.0241 Y2.878 I-0.0181 J-0.0181
G3 X2.0143 Y2.8799 I-0.0098 J-0.0236
G3 X2.0045 Y2.878 I0 J-0.0256
G3 X1.9962 Y2.8724 I0.0098 J-0.0236
G3 X1.9906 Y2.8641 I0.0181 J-0.0181
G3 X1.9887 Y2.8543 I0.0236 J-0.0098
G3 X1.9906 Y2.8445 I0.0256 J0
G3 X1.9962 Y2.8362 I0.0236 J0.0098
G3 X2.0045 Y2.8307 I0.0181 J0.0181
G3 X2.0143 Y2.8287 I0.0098 J0.0236
G3 X2.0241 Y2.8307 I0 J0.0256
G1 Z-0.06 F2
G3 X2.0324 Y2.8362 I-0.0098 J0.0236 F45
G3 X2.0379 Y2.8445 I-0.0181 J0.0181
G3 X2.0399 Y2.8543 I-0.0236 J0.0098
G3 X2.0379 Y2.8641 I-0.0256 J0
G3 X2.0324 Y2.8724 I-0.0236 J-0.0098
G3 X2.0241 Y2.878 I-0.0181 J-0.0181
G3 X2.0143 Y2.8799 I-0.0098 J-0.0236
G3 X2.0045 Y2.878 I0 J-0.0256
G3 X1.9962 Y2.8724 I0.0098 J-0.0236
G3 X1.9906 Y2.8641 I0.0181 J-0.0181
G3 X1.9887 Y2.8543 I0.0236 J-0.0098
G3 X1.9906 Y2.8445 I0.0256 J0
G3 X1.9962 Y2.8362 I0.0236 J0.0098
G3 X2.0045 Y2.8307 I0.0181 J0.0181
G3 X2.0143 Y2.8287 I0.0098 J0.0236
G3 X2.0241 Y2.8307 I0 J0.0256
G1 Z-0.08 F2
G3 X2.0324 Y2.8362 I-0.0098 J0.0236 F45
G3 X2.0379 Y2.8445 I-0.0181 J0.0181
G3 X2.0399 Y2.8543 I-0.0236 J0.0098
G3 X2.0379 Y2.8641 I-0.0256 J0
G3 X2.0324 Y2.8724 I-0.0236 J-0.0098
G3 X2.0241 Y2.878 I-0.0181 J-0.0181
G3 X2.0143 Y2.8799 I-0.0098 J-0.0236
G3 X2.0045 Y2.878 I0 J-0.0256
G3 X1.9962 Y2.8724 I0.0098 J-0.0236
G3 X1.9906 Y2.8641 I0.0181 J-0.0181
G3 X1.9887 Y2.8543 I0.0236 J-0.0098
G3 X1.9906 Y2.8445 I0.0256 J0
G3 X1.9962 Y2.8362 I0.0236 J0.0098
G3 X2.0045 Y2.8307 I0.0181 J0.0181
G3 X2.0143 Y2.8287 I0.0098 J0.0236
G3 X2.0241 Y2.8307 I0 J0.0256
G1 Z-0.1 F2
G3 X2.0324 Y2.8362 I-0.0098 J0.0236 F45
G3 X2.0379 Y2.8445 I-0.0181 J0.0181
G3 X2.0399 Y2.8543 I-0.0236 J0.0098
G3 X2.0379 Y2.8641 I-0.0256 J0
G3 X2.0324 Y2.8724 I-0.0236 J-0.0098
G3 X2.0241 Y2.878 I-0.0181 J-0.0181
G3 X2.0143 Y2.8799 I-0.0098 J-0.0236
G3 X2.0045 Y2.878 I0 J-0.0256
G3 X1.9962 Y2.8724 I0.0098 J-0.0236
G3 X1.9906 Y2.8641 I0.0181 J-0.0181
G3 X1.9887 Y2.8543 I0.0236 J-0.0098
G3 X1.9906 Y2.8445 I0.0256 J0
G3 X1.9962 Y2.8362 I0.0236 J0.0098
G3 X2.0045 Y2.8307 I0.0181 J0.0181
G3 X2.0143 Y2.8287 I0.0098 J0.0236
G3 X2.0241 Y2.8307 I0 J0.0256
G1 Z-0.12 F2
G3 X2.0324 Y2.8362 I-0.0098 J0.0236 F45
G3 X2.0379 Y2.8445 I-0.0181 J0.0181
G3 X2.0399 Y2.8543 I-0.0236 J0.0098
G3 X2.0379 Y2.8641 I-0.0256 J0
G3 X2.0324 Y2.8724 I-0.0236 J-0.0098
G3 X2.0241 Y2.878 I-0.0181 J-0.0181
G3 X2.0143 Y2.8799 I-0.0098 J-0.0236
G3 X2.0045 Y2.878 I0 J-0.0256
G3 X1.9962 Y2.8724 I0.0098 J-0.0236
G3 X1.9906 Y2.8641 I0.0181 J-0.0181
G3 X1.9887 Y2.8543 I0.0236 J-0.0098
G3 X1.9906 Y2.8445 I0.0256 J0
G3 X1.9962 Y2.8362 I0.0236 J0.0098
G3 X2.0045 Y2.8307 I0.0181 J0.0181
G3 X2.0143 Y2.8287 I0.0098 J0.0236
G3 X2.0241 Y2.8307 I0 J0.0256
G1 Z-0.14 F2
G3 X2.0324 Y2.8362 I-0.0098 J0.0236 F45
G3 X2.0379 Y2.8445 I-0.0181 J0.0181
G3 X2.0399 Y2.8543 I-0.0236 J0.0098
G3 X2.0379 Y2.8641 I-0.0256 J0
G3 X2.0324 Y2.8724 I-0.0236 J-0.0098
G3 X2.0241 Y2.878 I-0.0181 J-0.0181
G3 X2.0143 Y2.8799 I-0.0098 J-0.0236
G3 X2.0045 Y2.878 I0 J-0.0256
G3 X1.9962 Y2.8724 I0.0098 J-0.0236
G3 X1.9906 Y2.8641 I0.0181 J-0.0181
G3 X1.9887 Y2.8543 I0.0236 J-0.0098
G3 X1.9906 Y2.8445 I0.0256 J0
G3 X1.9962 Y2.8362 I0.0236 J0.0098
G3 X2.0045 Y2.8307 I0.0181 J0.0181
G3 X2.0143 Y2.8287 I0.0098 J0.0236
G3 X2.0241 Y2.8307 I0 J0.0256
G0 Z0.25
M5
M30
