(Generated by PartKam Version 0.05)

G21 G90 G40

(Holes)
G0 Z6.35
T0 M6
G17
M3
G0 X117.46192893401015 Y27.198477157360408
G1 Z-0.5081218274111675 F2
G3 X117.51269035532994 Y26.949238578680202 I0.6497461928934011 J0 F1143
G3 X117.65228426395939 Y26.738578680203045 I0.6015228426395939 J0.24873096446700507
G3 X117.86294416243655 Y26.598984771573605 I0.4593908629441624 J0.4593908629441624
G3 X118.11167512690355 Y26.548223350253807 I0.24873096446700507 J0.6015228426395939
G3 X118.36040609137056 Y26.598984771573605 I0 J0.6497461928934011
G3 X118.57106598984771 Y26.738578680203045 I-0.24873096446700507 J0.6015228426395939
G3 X118.71319796954316 Y26.949238578680202 I-0.4593908629441624 J0.4593908629441624
G3 X118.76142131979697 Y27.197969543147206 I-0.6015228426395939 J0.24873096446700507
G3 X118.71319796954316 Y27.446700507614214 I-0.6497461928934011 J0
G3 X118.57106598984771 Y27.65736040609137 I-0.6015228426395939 J-0.24873096446700507
G3 X118.36040609137056 Y27.799492385786802 I-0.4593908629441624 J-0.4593908629441624
G3 X118.11167512690355 Y27.84771573604061 I-0.24873096446700507 J-0.6015228426395939
G3 X117.86294416243655 Y27.799492385786802 I0 J-0.6497461928934011
G3 X117.65228426395939 Y27.65736040609137 I0.24873096446700507 J-0.6015228426395939
G3 X117.51269035532994 Y27.446700507614214 I0.4593908629441624 J-0.4593908629441624
G3 X117.46192893401016 Y27.197969543147206 I0.6015228426395939 J-0.24873096446700507
G1 Z-1.016243654822335 F2
G3 X117.51269035532994 Y26.949238578680202 I0.6497461928934011 J0 F1143
G3 X117.65228426395939 Y26.738578680203045 I0.6015228426395939 J0.24873096446700507
G3 X117.86294416243655 Y26.598984771573605 I0.4593908629441624 J0.4593908629441624
G3 X118.11167512690355 Y26.548223350253807 I0.24873096446700507 J0.6015228426395939
G3 X118.36040609137056 Y26.598984771573605 I0 J0.6497461928934011
G3 X118.57106598984771 Y26.738578680203045 I-0.24873096446700507 J0.6015228426395939
G3 X118.71319796954316 Y26.949238578680202 I-0.4593908629441624 J0.4593908629441624
G3 X118.76142131979697 Y27.197969543147206 I-0.6015228426395939 J0.24873096446700507
G3 X118.71319796954316 Y27.446700507614214 I-0.6497461928934011 J0
G3 X118.57106598984771 Y27.65736040609137 I-0.6015228426395939 J-0.24873096446700507
G3 X118.36040609137056 Y27.799492385786802 I-0.4593908629441624 J-0.4593908629441624
G3 X118.11167512690355 Y27.84771573604061 I-0.24873096446700507 J-0.6015228426395939
G3 X117.86294416243655 Y27.799492385786802 I0 J-0.6497461928934011
G3 X117.65228426395939 Y27.65736040609137 I0.24873096446700507 J-0.6015228426395939
G3 X117.51269035532994 Y27.446700507614214 I0.4593908629441624 J-0.4593908629441624
G3 X117.46192893401016 Y27.197969543147206 I0.6015228426395939 J-0.24873096446700507
G1 Z-1.5243654822335024 F2
G3 X117.51269035532994 Y26.949238578680202 I0.6497461928934011 J0 F1143
G3 X117.65228426395939 Y26.738578680203045 I0.6015228426395939 J0.24873096446700507
G3 X117.86294416243655 Y26.598984771573605 I0.4593908629441624 J0.4593908629441624
G3 X118.11167512690355 Y26.548223350253807 I0.24873096446700507 J0.6015228426395939
G3 X118.36040609137056 Y26.598984771573605 I0 J0.6497461928934011
G3 X118.57106598984771 Y26.738578680203045 I-0.24873096446700507 J0.6015228426395939
G3 X118.71319796954316 Y26.949238578680202 I-0.4593908629441624 J0.4593908629441624
G3 X118.76142131979697 Y27.197969543147206 I-0.6015228426395939 J0.24873096446700507
G3 X118.71319796954316 Y27.446700507614214 I-0.6497461928934011 J0
G3 X118.57106598984771 Y27.65736040609137 I-0.6015228426395939 J-0.24873096446700507
G3 X118.36040609137056 Y27.799492385786802 I-0.4593908629441624 J-0.4593908629441624
G3 X118.11167512690355 Y27.84771573604061 I-0.24873096446700507 J-0.6015228426395939
G3 X117.86294416243655 Y27.799492385786802 I0 J-0.6497461928934011
G3 X117.65228426395939 Y27.65736040609137 I0.24873096446700507 J-0.6015228426395939
G3 X117.51269035532994 Y27.446700507614214 I0.4593908629441624 J-0.4593908629441624
G3 X117.46192893401016 Y27.197969543147206 I0.6015228426395939 J-0.24873096446700507
G1 Z-2.03248730964467 F2
G3 X117.51269035532994 Y26.949238578680202 I0.6497461928934011 J0 F1143
G3 X117.65228426395939 Y26.738578680203045 I0.6015228426395939 J0.24873096446700507
G3 X117.86294416243655 Y26.598984771573605 I0.4593908629441624 J0.4593908629441624
G3 X118.11167512690355 Y26.548223350253807 I0.24873096446700507 J0.6015228426395939
G3 X118.36040609137056 Y26.598984771573605 I0 J0.6497461928934011
G3 X118.57106598984771 Y26.738578680203045 I-0.24873096446700507 J0.6015228426395939
G3 X118.71319796954316 Y26.949238578680202 I-0.4593908629441624 J0.4593908629441624
G3 X118.76142131979697 Y27.197969543147206 I-0.6015228426395939 J0.24873096446700507
G3 X118.71319796954316 Y27.446700507614214 I-0.6497461928934011 J0
G3 X118.57106598984771 Y27.65736040609137 I-0.6015228426395939 J-0.24873096446700507
G3 X118.36040609137056 Y27.799492385786802 I-0.4593908629441624 J-0.4593908629441624
G3 X118.11167512690355 Y27.84771573604061 I-0.24873096446700507 J-0.6015228426395939
G3 X117.86294416243655 Y27.799492385786802 I0 J-0.6497461928934011
G3 X117.65228426395939 Y27.65736040609137 I0.24873096446700507 J-0.6015228426395939
G3 X117.51269035532994 Y27.446700507614214 I0.4593908629441624 J-0.4593908629441624
G3 X117.46192893401016 Y27.197969543147206 I0.6015228426395939 J-0.24873096446700507
G1 Z-2.5406091370558377 F2
G3 X117.51269035532994 Y26.949238578680202 I0.6497461928934011 J0 F1143
G3 X117.65228426395939 Y26.738578680203045 I0.6015228426395939 J0.24873096446700507
G3 X117.86294416243655 Y26.598984771573605 I0.4593908629441624 J0.4593908629441624
G3 X118.11167512690355 Y26.548223350253807 I0.24873096446700507 J0.6015228426395939
G3 X118.36040609137056 Y26.598984771573605 I0 J0.6497461928934011
G3 X118.57106598984771 Y26.738578680203045 I-0.24873096446700507 J0.6015228426395939
G3 X118.71319796954316 Y26.949238578680202 I-0.4593908629441624 J0.4593908629441624
G3 X118.76142131979697 Y27.197969543147206 I-0.6015228426395939 J0.24873096446700507
G3 X118.71319796954316 Y27.446700507614214 I-0.6497461928934011 J0
G3 X118.57106598984771 Y27.65736040609137 I-0.6015228426395939 J-0.24873096446700507
G3 X118.36040609137056 Y27.799492385786802 I-0.4593908629441624 J-0.4593908629441624
G3 X118.11167512690355 Y27.84771573604061 I-0.24873096446700507 J-0.6015228426395939
G3 X117.86294416243655 Y27.799492385786802 I0 J-0.6497461928934011
G3 X117.65228426395939 Y27.65736040609137 I0.24873096446700507 J-0.6015228426395939
G3 X117.51269035532994 Y27.446700507614214 I0.4593908629441624 J-0.4593908629441624
G3 X117.46192893401016 Y27.197969543147206 I0.6015228426395939 J-0.24873096446700507
G1 Z-3.048730964467005 F2
G3 X117.51269035532994 Y26.949238578680202 I0.6497461928934011 J0 F1143
G3 X117.65228426395939 Y26.738578680203045 I0.6015228426395939 J0.24873096446700507
G3 X117.86294416243655 Y26.598984771573605 I0.4593908629441624 J0.4593908629441624
G3 X118.11167512690355 Y26.548223350253807 I0.24873096446700507 J0.6015228426395939
G3 X118.36040609137056 Y26.598984771573605 I0 J0.6497461928934011
G3 X118.57106598984771 Y26.738578680203045 I-0.24873096446700507 J0.6015228426395939
G3 X118.71319796954316 Y26.949238578680202 I-0.4593908629441624 J0.4593908629441624
G3 X118.76142131979697 Y27.197969543147206 I-0.6015228426395939 J0.24873096446700507
G3 X118.71319796954316 Y27.446700507614214 I-0.6497461928934011 J0
G3 X118.57106598984771 Y27.65736040609137 I-0.6015228426395939 J-0.24873096446700507
G3 X118.36040609137056 Y27.799492385786802 I-0.4593908629441624 J-0.4593908629441624
G3 X118.11167512690355 Y27.84771573604061 I-0.24873096446700507 J-0.6015228426395939
G3 X117.86294416243655 Y27.799492385786802 I0 J-0.6497461928934011
G3 X117.65228426395939 Y27.65736040609137 I0.24873096446700507 J-0.6015228426395939
G3 X117.51269035532994 Y27.446700507614214 I0.4593908629441624 J-0.4593908629441624
G3 X117.46192893401016 Y27.197969543147206 I0.6015228426395939 J-0.24873096446700507
G1 Z-3.5560913705583754 F2
G3 X117.51269035532994 Y26.949238578680202 I0.6497461928934011 J0 F1143
G3 X117.65228426395939 Y26.738578680203045 I0.6015228426395939 J0.24873096446700507
G3 X117.86294416243655 Y26.598984771573605 I0.4593908629441624 J0.4593908629441624
G3 X118.11167512690355 Y26.548223350253807 I0.24873096446700507 J0.6015228426395939
G3 X118.36040609137056 Y26.598984771573605 I0 J0.6497461928934011
G3 X118.57106598984771 Y26.738578680203045 I-0.24873096446700507 J0.6015228426395939
G3 X118.71319796954316 Y26.949238578680202 I-0.4593908629441624 J0.4593908629441624
G3 X118.76142131979697 Y27.197969543147206 I-0.6015228426395939 J0.24873096446700507
G3 X118.71319796954316 Y27.446700507614214 I-0.6497461928934011 J0
G3 X118.57106598984771 Y27.65736040609137 I-0.6015228426395939 J-0.24873096446700507
G3 X118.36040609137056 Y27.799492385786802 I-0.4593908629441624 J-0.4593908629441624
G3 X118.11167512690355 Y27.84771573604061 I-0.24873096446700507 J-0.6015228426395939
G3 X117.86294416243655 Y27.799492385786802 I0 J-0.6497461928934011
G3 X117.65228426395939 Y27.65736040609137 I0.24873096446700507 J-0.6015228426395939
G3 X117.51269035532994 Y27.446700507614214 I0.4593908629441624 J-0.4593908629441624
G3 X117.46192893401016 Y27.197969543147206 I0.6015228426395939 J-0.24873096446700507
G0 Z6.35
G0 X50.14111675126904 Y26.496700507614214
G1 Z-0.5081218274111675 F2
G3 X50.35279187817259 Y26.63705583756345 I-0.24873096446700507 J0.6015228426395939 F1143
G3 X50.49238578680203 Y26.847715736040605 I-0.4593908629441624 J0.4593908629441624
G3 X50.54314720812183 Y27.096446700507613 I-0.6015228426395939 J0.24873096446700507
G3 X50.49238578680203 Y27.345177664974617 I-0.6497461928934011 J0
G3 X50.35279187817259 Y27.555837563451778 I-0.6015228426395939 J-0.24873096446700507
G3 X50.14213197969543 Y27.69796954314721 I-0.4593908629441624 J-0.4593908629441624
G3 X49.89340101522843 Y27.746192893401016 I-0.24873096446700507 J-0.6015228426395939
G3 X49.64467005076142 Y27.69796954314721 I0 J-0.6497461928934011
G3 X49.431472081218274 Y27.555837563451778 I0.24873096446700507 J-0.6015228426395939
G3 X49.29187817258884 Y27.345177664974617 I0.4593908629441624 J-0.4593908629441624
G3 X49.24111675126903 Y27.096446700507613 I0.6015228426395939 J-0.24873096446700507
G3 X49.29187817258884 Y26.847715736040605 I0.6497461928934011 J0
G3 X49.431472081218274 Y26.63705583756345 I0.6015228426395939 J0.24873096446700507
G3 X49.64467005076142 Y26.497461928934012 I0.4593908629441624 J0.4593908629441624
G3 X49.89340101522843 Y26.446700507614214 I0.24873096446700507 J0.6015228426395939
G3 X50.14213197969543 Y26.497461928934012 I0 J0.6497461928934011
G1 Z-1.016243654822335 F2
G3 X50.35279187817259 Y26.63705583756345 I-0.24873096446700507 J0.6015228426395939 F1143
G3 X50.49238578680203 Y26.847715736040605 I-0.4593908629441624 J0.4593908629441624
G3 X50.54314720812183 Y27.096446700507613 I-0.6015228426395939 J0.24873096446700507
G3 X50.49238578680203 Y27.345177664974617 I-0.6497461928934011 J0
G3 X50.35279187817259 Y27.555837563451778 I-0.6015228426395939 J-0.24873096446700507
G3 X50.14213197969543 Y27.69796954314721 I-0.4593908629441624 J-0.4593908629441624
G3 X49.89340101522843 Y27.746192893401016 I-0.24873096446700507 J-0.6015228426395939
G3 X49.64467005076142 Y27.69796954314721 I0 J-0.6497461928934011
G3 X49.431472081218274 Y27.555837563451778 I0.24873096446700507 J-0.6015228426395939
G3 X49.29187817258884 Y27.345177664974617 I0.4593908629441624 J-0.4593908629441624
G3 X49.24111675126903 Y27.096446700507613 I0.6015228426395939 J-0.24873096446700507
G3 X49.29187817258884 Y26.847715736040605 I0.6497461928934011 J0
G3 X49.431472081218274 Y26.63705583756345 I0.6015228426395939 J0.24873096446700507
G3 X49.64467005076142 Y26.497461928934012 I0.4593908629441624 J0.4593908629441624
G3 X49.89340101522843 Y26.446700507614214 I0.24873096446700507 J0.6015228426395939
G3 X50.14213197969543 Y26.497461928934012 I0 J0.6497461928934011
G1 Z-1.5243654822335024 F2
G3 X50.35279187817259 Y26.63705583756345 I-0.24873096446700507 J0.6015228426395939 F1143
G3 X50.49238578680203 Y26.847715736040605 I-0.4593908629441624 J0.4593908629441624
G3 X50.54314720812183 Y27.096446700507613 I-0.6015228426395939 J0.24873096446700507
G3 X50.49238578680203 Y27.345177664974617 I-0.6497461928934011 J0
G3 X50.35279187817259 Y27.555837563451778 I-0.6015228426395939 J-0.24873096446700507
G3 X50.14213197969543 Y27.69796954314721 I-0.4593908629441624 J-0.4593908629441624
G3 X49.89340101522843 Y27.746192893401016 I-0.24873096446700507 J-0.6015228426395939
G3 X49.64467005076142 Y27.69796954314721 I0 J-0.6497461928934011
G3 X49.431472081218274 Y27.555837563451778 I0.24873096446700507 J-0.6015228426395939
G3 X49.29187817258884 Y27.345177664974617 I0.4593908629441624 J-0.4593908629441624
G3 X49.24111675126903 Y27.096446700507613 I0.6015228426395939 J-0.24873096446700507
G3 X49.29187817258884 Y26.847715736040605 I0.6497461928934011 J0
G3 X49.431472081218274 Y26.63705583756345 I0.6015228426395939 J0.24873096446700507
G3 X49.64467005076142 Y26.497461928934012 I0.4593908629441624 J0.4593908629441624
G3 X49.89340101522843 Y26.446700507614214 I0.24873096446700507 J0.6015228426395939
G3 X50.14213197969543 Y26.497461928934012 I0 J0.6497461928934011
G1 Z-2.03248730964467 F2
G3 X50.35279187817259 Y26.63705583756345 I-0.24873096446700507 J0.6015228426395939 F1143
G3 X50.49238578680203 Y26.847715736040605 I-0.4593908629441624 J0.4593908629441624
G3 X50.54314720812183 Y27.096446700507613 I-0.6015228426395939 J0.24873096446700507
G3 X50.49238578680203 Y27.345177664974617 I-0.6497461928934011 J0
G3 X50.35279187817259 Y27.555837563451778 I-0.6015228426395939 J-0.24873096446700507
G3 X50.14213197969543 Y27.69796954314721 I-0.4593908629441624 J-0.4593908629441624
G3 X49.89340101522843 Y27.746192893401016 I-0.24873096446700507 J-0.6015228426395939
G3 X49.64467005076142 Y27.69796954314721 I0 J-0.6497461928934011
G3 X49.431472081218274 Y27.555837563451778 I0.24873096446700507 J-0.6015228426395939
G3 X49.29187817258884 Y27.345177664974617 I0.4593908629441624 J-0.4593908629441624
G3 X49.24111675126903 Y27.096446700507613 I0.6015228426395939 J-0.24873096446700507
G3 X49.29187817258884 Y26.847715736040605 I0.6497461928934011 J0
G3 X49.431472081218274 Y26.63705583756345 I0.6015228426395939 J0.24873096446700507
G3 X49.64467005076142 Y26.497461928934012 I0.4593908629441624 J0.4593908629441624
G3 X49.89340101522843 Y26.446700507614214 I0.24873096446700507 J0.6015228426395939
G3 X50.14213197969543 Y26.497461928934012 I0 J0.6497461928934011
G1 Z-2.5406091370558377 F2
G3 X50.35279187817259 Y26.63705583756345 I-0.24873096446700507 J0.6015228426395939 F1143
G3 X50.49238578680203 Y26.847715736040605 I-0.4593908629441624 J0.4593908629441624
G3 X50.54314720812183 Y27.096446700507613 I-0.6015228426395939 J0.24873096446700507
G3 X50.49238578680203 Y27.345177664974617 I-0.6497461928934011 J0
G3 X50.35279187817259 Y27.555837563451778 I-0.6015228426395939 J-0.24873096446700507
G3 X50.14213197969543 Y27.69796954314721 I-0.4593908629441624 J-0.4593908629441624
G3 X49.89340101522843 Y27.746192893401016 I-0.24873096446700507 J-0.6015228426395939
G3 X49.64467005076142 Y27.69796954314721 I0 J-0.6497461928934011
G3 X49.431472081218274 Y27.555837563451778 I0.24873096446700507 J-0.6015228426395939
G3 X49.29187817258884 Y27.345177664974617 I0.4593908629441624 J-0.4593908629441624
G3 X49.24111675126903 Y27.096446700507613 I0.6015228426395939 J-0.24873096446700507
G3 X49.29187817258884 Y26.847715736040605 I0.6497461928934011 J0
G3 X49.431472081218274 Y26.63705583756345 I0.6015228426395939 J0.24873096446700507
G3 X49.64467005076142 Y26.497461928934012 I0.4593908629441624 J0.4593908629441624
G3 X49.89340101522843 Y26.446700507614214 I0.24873096446700507 J0.6015228426395939
G3 X50.14213197969543 Y26.497461928934012 I0 J0.6497461928934011
G1 Z-3.048730964467005 F2
G3 X50.35279187817259 Y26.63705583756345 I-0.24873096446700507 J0.6015228426395939 F1143
G3 X50.49238578680203 Y26.847715736040605 I-0.4593908629441624 J0.4593908629441624
G3 X50.54314720812183 Y27.096446700507613 I-0.6015228426395939 J0.24873096446700507
G3 X50.49238578680203 Y27.345177664974617 I-0.6497461928934011 J0
G3 X50.35279187817259 Y27.555837563451778 I-0.6015228426395939 J-0.24873096446700507
G3 X50.14213197969543 Y27.69796954314721 I-0.4593908629441624 J-0.4593908629441624
G3 X49.89340101522843 Y27.746192893401016 I-0.24873096446700507 J-0.6015228426395939
G3 X49.64467005076142 Y27.69796954314721 I0 J-0.6497461928934011
G3 X49.431472081218274 Y27.555837563451778 I0.24873096446700507 J-0.6015228426395939
G3 X49.29187817258884 Y27.345177664974617 I0.4593908629441624 J-0.4593908629441624
G3 X49.24111675126903 Y27.096446700507613 I0.6015228426395939 J-0.24873096446700507
G3 X49.29187817258884 Y26.847715736040605 I0.6497461928934011 J0
G3 X49.431472081218274 Y26.63705583756345 I0.6015228426395939 J0.24873096446700507
G3 X49.64467005076142 Y26.497461928934012 I0.4593908629441624 J0.4593908629441624
G3 X49.89340101522843 Y26.446700507614214 I0.24873096446700507 J0.6015228426395939
G3 X50.14213197969543 Y26.497461928934012 I0 J0.6497461928934011
G1 Z-3.5560913705583754 F2
G3 X50.35279187817259 Y26.63705583756345 I-0.24873096446700507 J0.6015228426395939 F1143
G3 X50.49238578680203 Y26.847715736040605 I-0.4593908629441624 J0.4593908629441624
G3 X50.54314720812183 Y27.096446700507613 I-0.6015228426395939 J0.24873096446700507
G3 X50.49238578680203 Y27.345177664974617 I-0.6497461928934011 J0
G3 X50.35279187817259 Y27.555837563451778 I-0.6015228426395939 J-0.24873096446700507
G3 X50.14213197969543 Y27.69796954314721 I-0.4593908629441624 J-0.4593908629441624
G3 X49.89340101522843 Y27.746192893401016 I-0.24873096446700507 J-0.6015228426395939
G3 X49.64467005076142 Y27.69796954314721 I0 J-0.6497461928934011
G3 X49.431472081218274 Y27.555837563451778 I0.24873096446700507 J-0.6015228426395939
G3 X49.29187817258884 Y27.345177664974617 I0.4593908629441624 J-0.4593908629441624
G3 X49.24111675126903 Y27.096446700507613 I0.6015228426395939 J-0.24873096446700507
G3 X49.29187817258884 Y26.847715736040605 I0.6497461928934011 J0
G3 X49.431472081218274 Y26.63705583756345 I0.6015228426395939 J0.24873096446700507
G3 X49.64467005076142 Y26.497461928934012 I0.4593908629441624 J0.4593908629441624
G3 X49.89340101522843 Y26.446700507614214 I0.24873096446700507 J0.6015228426395939
G3 X50.14213197969543 Y26.497461928934012 I0 J0.6497461928934011
G0 Z6.35
M5
M30
