(Generated by PartKam Version 0.05)

G20 G90 G40

(Holes)
G0 Z0.25
T0 M6
G17
M3
G0 X4.6105 Y2.8085
G1 Z-0.05 F30
G3 X4.6188 Y2.803 I0.0181 J0.0181 F60
G3 X4.6286 Y2.801 I0.0098 J0.0236
G3 X4.6384 Y2.803 I0 J0.0256
G3 X4.6467 Y2.8085 I-0.0098 J0.0236
G3 X4.6522 Y2.8168 I-0.0181 J0.0181
G3 X4.6542 Y2.8266 I-0.0236 J0.0098
G3 X4.6522 Y2.8364 I-0.0256 J0
G3 X4.6467 Y2.8447 I-0.0236 J-0.0098
G3 X4.6384 Y2.8503 I-0.0181 J-0.0181
G3 X4.6286 Y2.8522 I-0.0098 J-0.0236
G3 X4.6188 Y2.8503 I0 J-0.0256
G3 X4.6105 Y2.8447 I0.0098 J-0.0236
G3 X4.6049 Y2.8364 I0.0181 J-0.0181
G3 X4.603 Y2.8266 I0.0236 J-0.0098
G3 X4.6049 Y2.8168 I0.0256 J0
G3 X4.6105 Y2.8085 I0.0236 J0.0098
G1 Z-0.1 F30
G3 X4.6188 Y2.803 I0.0181 J0.0181 F60
G3 X4.6286 Y2.801 I0.0098 J0.0236
G3 X4.6384 Y2.803 I0 J0.0256
G3 X4.6467 Y2.8085 I-0.0098 J0.0236
G3 X4.6522 Y2.8168 I-0.0181 J0.0181
G3 X4.6542 Y2.8266 I-0.0236 J0.0098
G3 X4.6522 Y2.8364 I-0.0256 J0
G3 X4.6467 Y2.8447 I-0.0236 J-0.0098
G3 X4.6384 Y2.8503 I-0.0181 J-0.0181
G3 X4.6286 Y2.8522 I-0.0098 J-0.0236
G3 X4.6188 Y2.8503 I0 J-0.0256
G3 X4.6105 Y2.8447 I0.0098 J-0.0236
G3 X4.6049 Y2.8364 I0.0181 J-0.0181
G3 X4.603 Y2.8266 I0.0236 J-0.0098
G3 X4.6049 Y2.8168 I0.0256 J0
G3 X4.6105 Y2.8085 I0.0236 J0.0098
G1 Z-0.13 F30
G3 X4.6188 Y2.803 I0.0181 J0.0181 F60
G3 X4.6286 Y2.801 I0.0098 J0.0236
G3 X4.6384 Y2.803 I0 J0.0256
G3 X4.6467 Y2.8085 I-0.0098 J0.0236
G3 X4.6522 Y2.8168 I-0.0181 J0.0181
G3 X4.6542 Y2.8266 I-0.0236 J0.0098
G3 X4.6522 Y2.8364 I-0.0256 J0
G3 X4.6467 Y2.8447 I-0.0236 J-0.0098
G3 X4.6384 Y2.8503 I-0.0181 J-0.0181
G3 X4.6286 Y2.8522 I-0.0098 J-0.0236
G3 X4.6188 Y2.8503 I0 J-0.0256
G3 X4.6105 Y2.8447 I0.0098 J-0.0236
G3 X4.6049 Y2.8364 I0.0181 J-0.0181
G3 X4.603 Y2.8266 I0.0236 J-0.0098
G3 X4.6049 Y2.8168 I0.0256 J0
G3 X4.6105 Y2.8085 I0.0236 J0.0098
G0 Z0.25
G0 X1.9608 Y2.8045
G1 Z-0.05 F30
G3 X1.9664 Y2.8128 I-0.0181 J0.0181 F60
G3 X1.9683 Y2.8226 I-0.0236 J0.0098
G3 X1.9664 Y2.8324 I-0.0256 J0
G3 X1.9608 Y2.8407 I-0.0236 J-0.0098
G3 X1.9525 Y2.8463 I-0.0181 J-0.0181
G3 X1.9427 Y2.8482 I-0.0098 J-0.0236
G3 X1.9329 Y2.8463 I0 J-0.0256
G3 X1.9246 Y2.8407 I0.0098 J-0.0236
G3 X1.9191 Y2.8324 I0.0181 J-0.0181
G3 X1.9171 Y2.8226 I0.0236 J-0.0098
G3 X1.9191 Y2.8128 I0.0256 J0
G3 X1.9246 Y2.8045 I0.0236 J0.0098
G3 X1.9329 Y2.799 I0.0181 J0.0181
G3 X1.9427 Y2.797 I0.0098 J0.0236
G3 X1.9525 Y2.799 I0 J0.0256
G3 X1.9608 Y2.8045 I-0.0098 J0.0236
G1 Z-0.1 F30
G3 X1.9664 Y2.8128 I-0.0181 J0.0181 F60
G3 X1.9683 Y2.8226 I-0.0236 J0.0098
G3 X1.9664 Y2.8324 I-0.0256 J0
G3 X1.9608 Y2.8407 I-0.0236 J-0.0098
G3 X1.9525 Y2.8463 I-0.0181 J-0.0181
G3 X1.9427 Y2.8482 I-0.0098 J-0.0236
G3 X1.9329 Y2.8463 I0 J-0.0256
G3 X1.9246 Y2.8407 I0.0098 J-0.0236
G3 X1.9191 Y2.8324 I0.0181 J-0.0181
G3 X1.9171 Y2.8226 I0.0236 J-0.0098
G3 X1.9191 Y2.8128 I0.0256 J0
G3 X1.9246 Y2.8045 I0.0236 J0.0098
G3 X1.9329 Y2.799 I0.0181 J0.0181
G3 X1.9427 Y2.797 I0.0098 J0.0236
G3 X1.9525 Y2.799 I0 J0.0256
G3 X1.9608 Y2.8045 I-0.0098 J0.0236
G1 Z-0.13 F30
G3 X1.9664 Y2.8128 I-0.0181 J0.0181 F60
G3 X1.9683 Y2.8226 I-0.0236 J0.0098
G3 X1.9664 Y2.8324 I-0.0256 J0
G3 X1.9608 Y2.8407 I-0.0236 J-0.0098
G3 X1.9525 Y2.8463 I-0.0181 J-0.0181
G3 X1.9427 Y2.8482 I-0.0098 J-0.0236
G3 X1.9329 Y2.8463 I0 J-0.0256
G3 X1.9246 Y2.8407 I0.0098 J-0.0236
G3 X1.9191 Y2.8324 I0.0181 J-0.0181
G3 X1.9171 Y2.8226 I0.0236 J-0.0098
G3 X1.9191 Y2.8128 I0.0256 J0
G3 X1.9246 Y2.8045 I0.0236 J0.0098
G3 X1.9329 Y2.799 I0.0181 J0.0181
G3 X1.9427 Y2.797 I0.0098 J0.0236
G3 X1.9525 Y2.799 I0 J0.0256
G3 X1.9608 Y2.8045 I-0.0098 J0.0236
G0 Z0.25
M5
M30
