(Generated by PartKam Version 0.05)

G20 G90 G40

(Holes)
G0 Z0.125
T0 M6
G17
M3
G0 X4.5826 Y2.7807
G1 Z-0.015 F1
G3 X4.6037 Y2.7666 I0.0459 J0.0459 F15
G3 X4.6286 Y2.7616 I0.0249 J0.06
G3 X4.6534 Y2.7666 I0 J0.065
G3 X4.6745 Y2.7807 I-0.0249 J0.06
G3 X4.6886 Y2.8018 I-0.0459 J0.0459
G3 X4.6935 Y2.8266 I-0.06 J0.0249
G3 X4.6886 Y2.8515 I-0.065 J0
G3 X4.6745 Y2.8725 I-0.06 J-0.0249
G3 X4.6534 Y2.8866 I-0.0459 J-0.0459
G3 X4.6286 Y2.8916 I-0.0249 J-0.06
G3 X4.6037 Y2.8866 I0 J-0.065
G3 X4.5826 Y2.8725 I0.0249 J-0.06
G3 X4.5685 Y2.8515 I0.0459 J-0.0459
G3 X4.5636 Y2.8266 I0.06 J-0.0249
G3 X4.5685 Y2.8018 I0.065 J0
G3 X4.5826 Y2.7807 I0.06 J0.0249
G1 Z-0.03 F1
G3 X4.6037 Y2.7666 I0.0459 J0.0459 F15
G3 X4.6286 Y2.7616 I0.0249 J0.06
G3 X4.6534 Y2.7666 I0 J0.065
G3 X4.6745 Y2.7807 I-0.0249 J0.06
G3 X4.6886 Y2.8018 I-0.0459 J0.0459
G3 X4.6935 Y2.8266 I-0.06 J0.0249
G3 X4.6886 Y2.8515 I-0.065 J0
G3 X4.6745 Y2.8725 I-0.06 J-0.0249
G3 X4.6534 Y2.8866 I-0.0459 J-0.0459
G3 X4.6286 Y2.8916 I-0.0249 J-0.06
G3 X4.6037 Y2.8866 I0 J-0.065
G3 X4.5826 Y2.8725 I0.0249 J-0.06
G3 X4.5685 Y2.8515 I0.0459 J-0.0459
G3 X4.5636 Y2.8266 I0.06 J-0.0249
G3 X4.5685 Y2.8018 I0.065 J0
G3 X4.5826 Y2.7807 I0.06 J0.0249
G1 Z-0.045 F1
G3 X4.6037 Y2.7666 I0.0459 J0.0459 F15
G3 X4.6286 Y2.7616 I0.0249 J0.06
G3 X4.6534 Y2.7666 I0 J0.065
G3 X4.6745 Y2.7807 I-0.0249 J0.06
G3 X4.6886 Y2.8018 I-0.0459 J0.0459
G3 X4.6935 Y2.8266 I-0.06 J0.0249
G3 X4.6886 Y2.8515 I-0.065 J0
G3 X4.6745 Y2.8725 I-0.06 J-0.0249
G3 X4.6534 Y2.8866 I-0.0459 J-0.0459
G3 X4.6286 Y2.8916 I-0.0249 J-0.06
G3 X4.6037 Y2.8866 I0 J-0.065
G3 X4.5826 Y2.8725 I0.0249 J-0.06
G3 X4.5685 Y2.8515 I0.0459 J-0.0459
G3 X4.5636 Y2.8266 I0.06 J-0.0249
G3 X4.5685 Y2.8018 I0.065 J0
G3 X4.5826 Y2.7807 I0.06 J0.0249
G1 Z-0.06 F1
G3 X4.6037 Y2.7666 I0.0459 J0.0459 F15
G3 X4.6286 Y2.7616 I0.0249 J0.06
G3 X4.6534 Y2.7666 I0 J0.065
G3 X4.6745 Y2.7807 I-0.0249 J0.06
G3 X4.6886 Y2.8018 I-0.0459 J0.0459
G3 X4.6935 Y2.8266 I-0.06 J0.0249
G3 X4.6886 Y2.8515 I-0.065 J0
G3 X4.6745 Y2.8725 I-0.06 J-0.0249
G3 X4.6534 Y2.8866 I-0.0459 J-0.0459
G3 X4.6286 Y2.8916 I-0.0249 J-0.06
G3 X4.6037 Y2.8866 I0 J-0.065
G3 X4.5826 Y2.8725 I0.0249 J-0.06
G3 X4.5685 Y2.8515 I0.0459 J-0.0459
G3 X4.5636 Y2.8266 I0.06 J-0.0249
G3 X4.5685 Y2.8018 I0.065 J0
G3 X4.5826 Y2.7807 I0.06 J0.0249
G1 Z-0.075 F1
G3 X4.6037 Y2.7666 I0.0459 J0.0459 F15
G3 X4.6286 Y2.7616 I0.0249 J0.06
G3 X4.6534 Y2.7666 I0 J0.065
G3 X4.6745 Y2.7807 I-0.0249 J0.06
G3 X4.6886 Y2.8018 I-0.0459 J0.0459
G3 X4.6935 Y2.8266 I-0.06 J0.0249
G3 X4.6886 Y2.8515 I-0.065 J0
G3 X4.6745 Y2.8725 I-0.06 J-0.0249
G3 X4.6534 Y2.8866 I-0.0459 J-0.0459
G3 X4.6286 Y2.8916 I-0.0249 J-0.06
G3 X4.6037 Y2.8866 I0 J-0.065
G3 X4.5826 Y2.8725 I0.0249 J-0.06
G3 X4.5685 Y2.8515 I0.0459 J-0.0459
G3 X4.5636 Y2.8266 I0.06 J-0.0249
G3 X4.5685 Y2.8018 I0.065 J0
G3 X4.5826 Y2.7807 I0.06 J0.0249
G1 Z-0.09 F1
G3 X4.6037 Y2.7666 I0.0459 J0.0459 F15
G3 X4.6286 Y2.7616 I0.0249 J0.06
G3 X4.6534 Y2.7666 I0 J0.065
G3 X4.6745 Y2.7807 I-0.0249 J0.06
G3 X4.6886 Y2.8018 I-0.0459 J0.0459
G3 X4.6935 Y2.8266 I-0.06 J0.0249
G3 X4.6886 Y2.8515 I-0.065 J0
G3 X4.6745 Y2.8725 I-0.06 J-0.0249
G3 X4.6534 Y2.8866 I-0.0459 J-0.0459
G3 X4.6286 Y2.8916 I-0.0249 J-0.06
G3 X4.6037 Y2.8866 I0 J-0.065
G3 X4.5826 Y2.8725 I0.0249 J-0.06
G3 X4.5685 Y2.8515 I0.0459 J-0.0459
G3 X4.5636 Y2.8266 I0.06 J-0.0249
G3 X4.5685 Y2.8018 I0.065 J0
G3 X4.5826 Y2.7807 I0.06 J0.0249
G1 Z-0.105 F1
G3 X4.6037 Y2.7666 I0.0459 J0.0459 F15
G3 X4.6286 Y2.7616 I0.0249 J0.06
G3 X4.6534 Y2.7666 I0 J0.065
G3 X4.6745 Y2.7807 I-0.0249 J0.06
G3 X4.6886 Y2.8018 I-0.0459 J0.0459
G3 X4.6935 Y2.8266 I-0.06 J0.0249
G3 X4.6886 Y2.8515 I-0.065 J0
G3 X4.6745 Y2.8725 I-0.06 J-0.0249
G3 X4.6534 Y2.8866 I-0.0459 J-0.0459
G3 X4.6286 Y2.8916 I-0.0249 J-0.06
G3 X4.6037 Y2.8866 I0 J-0.065
G3 X4.5826 Y2.8725 I0.0249 J-0.06
G3 X4.5685 Y2.8515 I0.0459 J-0.0459
G3 X4.5636 Y2.8266 I0.06 J-0.0249
G3 X4.5685 Y2.8018 I0.065 J0
G3 X4.5826 Y2.7807 I0.06 J0.0249
G1 Z-0.12 F1
G3 X4.6037 Y2.7666 I0.0459 J0.0459 F15
G3 X4.6286 Y2.7616 I0.0249 J0.06
G3 X4.6534 Y2.7666 I0 J0.065
G3 X4.6745 Y2.7807 I-0.0249 J0.06
G3 X4.6886 Y2.8018 I-0.0459 J0.0459
G3 X4.6935 Y2.8266 I-0.06 J0.0249
G3 X4.6886 Y2.8515 I-0.065 J0
G3 X4.6745 Y2.8725 I-0.06 J-0.0249
G3 X4.6534 Y2.8866 I-0.0459 J-0.0459
G3 X4.6286 Y2.8916 I-0.0249 J-0.06
G3 X4.6037 Y2.8866 I0 J-0.065
G3 X4.5826 Y2.8725 I0.0249 J-0.06
G3 X4.5685 Y2.8515 I0.0459 J-0.0459
G3 X4.5636 Y2.8266 I0.06 J-0.0249
G3 X4.5685 Y2.8018 I0.065 J0
G3 X4.5826 Y2.7807 I0.06 J0.0249
G1 Z-0.13 F1
G3 X4.6037 Y2.7666 I0.0459 J0.0459 F15
G3 X4.6286 Y2.7616 I0.0249 J0.06
G3 X4.6534 Y2.7666 I0 J0.065
G3 X4.6745 Y2.7807 I-0.0249 J0.06
G3 X4.6886 Y2.8018 I-0.0459 J0.0459
G3 X4.6935 Y2.8266 I-0.06 J0.0249
G3 X4.6886 Y2.8515 I-0.065 J0
G3 X4.6745 Y2.8725 I-0.06 J-0.0249
G3 X4.6534 Y2.8866 I-0.0459 J-0.0459
G3 X4.6286 Y2.8916 I-0.0249 J-0.06
G3 X4.6037 Y2.8866 I0 J-0.065
G3 X4.5826 Y2.8725 I0.0249 J-0.06
G3 X4.5685 Y2.8515 I0.0459 J-0.0459
G3 X4.5636 Y2.8266 I0.06 J-0.0249
G3 X4.5685 Y2.8018 I0.065 J0
G3 X4.5826 Y2.7807 I0.06 J0.0249
G0 Z0.125
G0 X1.9887 Y2.7767
G1 Z-0.015 F1
G3 X2.0028 Y2.7978 I-0.0459 J0.0459 F15
G3 X2.0077 Y2.8226 I-0.06 J0.0249
G3 X2.0028 Y2.8475 I-0.065 J0
G3 X1.9887 Y2.8686 I-0.06 J-0.0249
G3 X1.9676 Y2.8826 I-0.0459 J-0.0459
G3 X1.9427 Y2.8876 I-0.0249 J-0.06
G3 X1.9179 Y2.8826 I0 J-0.065
G3 X1.8968 Y2.8686 I0.0249 J-0.06
G3 X1.8827 Y2.8475 I0.0459 J-0.0459
G3 X1.8778 Y2.8226 I0.06 J-0.0249
G3 X1.8827 Y2.7978 I0.065 J0
G3 X1.8968 Y2.7767 I0.06 J0.0249
G3 X1.9179 Y2.7626 I0.0459 J0.0459
G3 X1.9427 Y2.7577 I0.0249 J0.06
G3 X1.9676 Y2.7626 I0 J0.065
G3 X1.9887 Y2.7767 I-0.0249 J0.06
G1 Z-0.03 F1
G3 X2.0028 Y2.7978 I-0.0459 J0.0459 F15
G3 X2.0077 Y2.8226 I-0.06 J0.0249
G3 X2.0028 Y2.8475 I-0.065 J0
G3 X1.9887 Y2.8686 I-0.06 J-0.0249
G3 X1.9676 Y2.8826 I-0.0459 J-0.0459
G3 X1.9427 Y2.8876 I-0.0249 J-0.06
G3 X1.9179 Y2.8826 I0 J-0.065
G3 X1.8968 Y2.8686 I0.0249 J-0.06
G3 X1.8827 Y2.8475 I0.0459 J-0.0459
G3 X1.8778 Y2.8226 I0.06 J-0.0249
G3 X1.8827 Y2.7978 I0.065 J0
G3 X1.8968 Y2.7767 I0.06 J0.0249
G3 X1.9179 Y2.7626 I0.0459 J0.0459
G3 X1.9427 Y2.7577 I0.0249 J0.06
G3 X1.9676 Y2.7626 I0 J0.065
G3 X1.9887 Y2.7767 I-0.0249 J0.06
G1 Z-0.045 F1
G3 X2.0028 Y2.7978 I-0.0459 J0.0459 F15
G3 X2.0077 Y2.8226 I-0.06 J0.0249
G3 X2.0028 Y2.8475 I-0.065 J0
G3 X1.9887 Y2.8686 I-0.06 J-0.0249
G3 X1.9676 Y2.8826 I-0.0459 J-0.0459
G3 X1.9427 Y2.8876 I-0.0249 J-0.06
G3 X1.9179 Y2.8826 I0 J-0.065
G3 X1.8968 Y2.8686 I0.0249 J-0.06
G3 X1.8827 Y2.8475 I0.0459 J-0.0459
G3 X1.8778 Y2.8226 I0.06 J-0.0249
G3 X1.8827 Y2.7978 I0.065 J0
G3 X1.8968 Y2.7767 I0.06 J0.0249
G3 X1.9179 Y2.7626 I0.0459 J0.0459
G3 X1.9427 Y2.7577 I0.0249 J0.06
G3 X1.9676 Y2.7626 I0 J0.065
G3 X1.9887 Y2.7767 I-0.0249 J0.06
G1 Z-0.06 F1
G3 X2.0028 Y2.7978 I-0.0459 J0.0459 F15
G3 X2.0077 Y2.8226 I-0.06 J0.0249
G3 X2.0028 Y2.8475 I-0.065 J0
G3 X1.9887 Y2.8686 I-0.06 J-0.0249
G3 X1.9676 Y2.8826 I-0.0459 J-0.0459
G3 X1.9427 Y2.8876 I-0.0249 J-0.06
G3 X1.9179 Y2.8826 I0 J-0.065
G3 X1.8968 Y2.8686 I0.0249 J-0.06
G3 X1.8827 Y2.8475 I0.0459 J-0.0459
G3 X1.8778 Y2.8226 I0.06 J-0.0249
G3 X1.8827 Y2.7978 I0.065 J0
G3 X1.8968 Y2.7767 I0.06 J0.0249
G3 X1.9179 Y2.7626 I0.0459 J0.0459
G3 X1.9427 Y2.7577 I0.0249 J0.06
G3 X1.9676 Y2.7626 I0 J0.065
G3 X1.9887 Y2.7767 I-0.0249 J0.06
G1 Z-0.075 F1
G3 X2.0028 Y2.7978 I-0.0459 J0.0459 F15
G3 X2.0077 Y2.8226 I-0.06 J0.0249
G3 X2.0028 Y2.8475 I-0.065 J0
G3 X1.9887 Y2.8686 I-0.06 J-0.0249
G3 X1.9676 Y2.8826 I-0.0459 J-0.0459
G3 X1.9427 Y2.8876 I-0.0249 J-0.06
G3 X1.9179 Y2.8826 I0 J-0.065
G3 X1.8968 Y2.8686 I0.0249 J-0.06
G3 X1.8827 Y2.8475 I0.0459 J-0.0459
G3 X1.8778 Y2.8226 I0.06 J-0.0249
G3 X1.8827 Y2.7978 I0.065 J0
G3 X1.8968 Y2.7767 I0.06 J0.0249
G3 X1.9179 Y2.7626 I0.0459 J0.0459
G3 X1.9427 Y2.7577 I0.0249 J0.06
G3 X1.9676 Y2.7626 I0 J0.065
G3 X1.9887 Y2.7767 I-0.0249 J0.06
G1 Z-0.09 F1
G3 X2.0028 Y2.7978 I-0.0459 J0.0459 F15
G3 X2.0077 Y2.8226 I-0.06 J0.0249
G3 X2.0028 Y2.8475 I-0.065 J0
G3 X1.9887 Y2.8686 I-0.06 J-0.0249
G3 X1.9676 Y2.8826 I-0.0459 J-0.0459
G3 X1.9427 Y2.8876 I-0.0249 J-0.06
G3 X1.9179 Y2.8826 I0 J-0.065
G3 X1.8968 Y2.8686 I0.0249 J-0.06
G3 X1.8827 Y2.8475 I0.0459 J-0.0459
G3 X1.8778 Y2.8226 I0.06 J-0.0249
G3 X1.8827 Y2.7978 I0.065 J0
G3 X1.8968 Y2.7767 I0.06 J0.0249
G3 X1.9179 Y2.7626 I0.0459 J0.0459
G3 X1.9427 Y2.7577 I0.0249 J0.06
G3 X1.9676 Y2.7626 I0 J0.065
G3 X1.9887 Y2.7767 I-0.0249 J0.06
G1 Z-0.105 F1
G3 X2.0028 Y2.7978 I-0.0459 J0.0459 F15
G3 X2.0077 Y2.8226 I-0.06 J0.0249
G3 X2.0028 Y2.8475 I-0.065 J0
G3 X1.9887 Y2.8686 I-0.06 J-0.0249
G3 X1.9676 Y2.8826 I-0.0459 J-0.0459
G3 X1.9427 Y2.8876 I-0.0249 J-0.06
G3 X1.9179 Y2.8826 I0 J-0.065
G3 X1.8968 Y2.8686 I0.0249 J-0.06
G3 X1.8827 Y2.8475 I0.0459 J-0.0459
G3 X1.8778 Y2.8226 I0.06 J-0.0249
G3 X1.8827 Y2.7978 I0.065 J0
G3 X1.8968 Y2.7767 I0.06 J0.0249
G3 X1.9179 Y2.7626 I0.0459 J0.0459
G3 X1.9427 Y2.7577 I0.0249 J0.06
G3 X1.9676 Y2.7626 I0 J0.065
G3 X1.9887 Y2.7767 I-0.0249 J0.06
G1 Z-0.12 F1
G3 X2.0028 Y2.7978 I-0.0459 J0.0459 F15
G3 X2.0077 Y2.8226 I-0.06 J0.0249
G3 X2.0028 Y2.8475 I-0.065 J0
G3 X1.9887 Y2.8686 I-0.06 J-0.0249
G3 X1.9676 Y2.8826 I-0.0459 J-0.0459
G3 X1.9427 Y2.8876 I-0.0249 J-0.06
G3 X1.9179 Y2.8826 I0 J-0.065
G3 X1.8968 Y2.8686 I0.0249 J-0.06
G3 X1.8827 Y2.8475 I0.0459 J-0.0459
G3 X1.8778 Y2.8226 I0.06 J-0.0249
G3 X1.8827 Y2.7978 I0.065 J0
G3 X1.8968 Y2.7767 I0.06 J0.0249
G3 X1.9179 Y2.7626 I0.0459 J0.0459
G3 X1.9427 Y2.7577 I0.0249 J0.06
G3 X1.9676 Y2.7626 I0 J0.065
G3 X1.9887 Y2.7767 I-0.0249 J0.06
G1 Z-0.13 F1
G3 X2.0028 Y2.7978 I-0.0459 J0.0459 F15
G3 X2.0077 Y2.8226 I-0.06 J0.0249
G3 X2.0028 Y2.8475 I-0.065 J0
G3 X1.9887 Y2.8686 I-0.06 J-0.0249
G3 X1.9676 Y2.8826 I-0.0459 J-0.0459
G3 X1.9427 Y2.8876 I-0.0249 J-0.06
G3 X1.9179 Y2.8826 I0 J-0.065
G3 X1.8968 Y2.8686 I0.0249 J-0.06
G3 X1.8827 Y2.8475 I0.0459 J-0.0459
G3 X1.8778 Y2.8226 I0.06 J-0.0249
G3 X1.8827 Y2.7978 I0.065 J0
G3 X1.8968 Y2.7767 I0.06 J0.0249
G3 X1.9179 Y2.7626 I0.0459 J0.0459
G3 X1.9427 Y2.7577 I0.0249 J0.06
G3 X1.9676 Y2.7626 I0 J0.065
G3 X1.9887 Y2.7767 I-0.0249 J0.06
G0 Z0.125
M5
M30
