(Generated by PartKam Version 0.05)

G20 G90 G40

(Holes)
G0 Z0.25
T0 M6
G17
M3
G0 X4.5965 Y2.7946
G1 Z-0.05 F1
G3 X4.6112 Y2.7848 I0.032 J0.032 F30
G3 X4.6286 Y2.7813 I0.0173 J0.0418
G3 X4.6459 Y2.7848 I0 J0.0453
G3 X4.6606 Y2.7946 I-0.0173 J0.0418
G3 X4.6704 Y2.8093 I-0.032 J0.032
G3 X4.6738 Y2.8266 I-0.0418 J0.0173
G3 X4.6704 Y2.8439 I-0.0453 J0
G3 X4.6606 Y2.8586 I-0.0418 J-0.0173
G3 X4.6459 Y2.8684 I-0.032 J-0.032
G3 X4.6286 Y2.8719 I-0.0173 J-0.0418
G3 X4.6112 Y2.8684 I0 J-0.0453
G3 X4.5965 Y2.8586 I0.0173 J-0.0418
G3 X4.5867 Y2.8439 I0.032 J-0.032
G3 X4.5833 Y2.8266 I0.0418 J-0.0173
G3 X4.5867 Y2.8093 I0.0453 J0
G3 X4.5965 Y2.7946 I0.0418 J0.0173
G1 Z-0.1 F1
G3 X4.6112 Y2.7848 I0.032 J0.032 F30
G3 X4.6286 Y2.7813 I0.0173 J0.0418
G3 X4.6459 Y2.7848 I0 J0.0453
G3 X4.6606 Y2.7946 I-0.0173 J0.0418
G3 X4.6704 Y2.8093 I-0.032 J0.032
G3 X4.6738 Y2.8266 I-0.0418 J0.0173
G3 X4.6704 Y2.8439 I-0.0453 J0
G3 X4.6606 Y2.8586 I-0.0418 J-0.0173
G3 X4.6459 Y2.8684 I-0.032 J-0.032
G3 X4.6286 Y2.8719 I-0.0173 J-0.0418
G3 X4.6112 Y2.8684 I0 J-0.0453
G3 X4.5965 Y2.8586 I0.0173 J-0.0418
G3 X4.5867 Y2.8439 I0.032 J-0.032
G3 X4.5833 Y2.8266 I0.0418 J-0.0173
G3 X4.5867 Y2.8093 I0.0453 J0
G3 X4.5965 Y2.7946 I0.0418 J0.0173
G1 Z-0.13 F1
G3 X4.6112 Y2.7848 I0.032 J0.032 F30
G3 X4.6286 Y2.7813 I0.0173 J0.0418
G3 X4.6459 Y2.7848 I0 J0.0453
G3 X4.6606 Y2.7946 I-0.0173 J0.0418
G3 X4.6704 Y2.8093 I-0.032 J0.032
G3 X4.6738 Y2.8266 I-0.0418 J0.0173
G3 X4.6704 Y2.8439 I-0.0453 J0
G3 X4.6606 Y2.8586 I-0.0418 J-0.0173
G3 X4.6459 Y2.8684 I-0.032 J-0.032
G3 X4.6286 Y2.8719 I-0.0173 J-0.0418
G3 X4.6112 Y2.8684 I0 J-0.0453
G3 X4.5965 Y2.8586 I0.0173 J-0.0418
G3 X4.5867 Y2.8439 I0.032 J-0.032
G3 X4.5833 Y2.8266 I0.0418 J-0.0173
G3 X4.5867 Y2.8093 I0.0453 J0
G3 X4.5965 Y2.7946 I0.0418 J0.0173
G0 Z0.25
G0 X1.9748 Y2.7906
G1 Z-0.05 F1
G3 X1.9846 Y2.8053 I-0.032 J0.032 F30
G3 X1.988 Y2.8226 I-0.0418 J0.0173
G3 X1.9846 Y2.84 I-0.0453 J0
G3 X1.9748 Y2.8546 I-0.0418 J-0.0173
G3 X1.9601 Y2.8645 I-0.032 J-0.032
G3 X1.9427 Y2.8679 I-0.0173 J-0.0418
G3 X1.9254 Y2.8645 I0 J-0.0453
G3 X1.9107 Y2.8546 I0.0173 J-0.0418
G3 X1.9009 Y2.84 I0.032 J-0.032
G3 X1.8975 Y2.8226 I0.0418 J-0.0173
G3 X1.9009 Y2.8053 I0.0453 J0
G3 X1.9107 Y2.7906 I0.0418 J0.0173
G3 X1.9254 Y2.7808 I0.032 J0.032
G3 X1.9427 Y2.7773 I0.0173 J0.0418
G3 X1.9601 Y2.7808 I0 J0.0453
G3 X1.9748 Y2.7906 I-0.0173 J0.0418
G1 Z-0.1 F1
G3 X1.9846 Y2.8053 I-0.032 J0.032 F30
G3 X1.988 Y2.8226 I-0.0418 J0.0173
G3 X1.9846 Y2.84 I-0.0453 J0
G3 X1.9748 Y2.8546 I-0.0418 J-0.0173
G3 X1.9601 Y2.8645 I-0.032 J-0.032
G3 X1.9427 Y2.8679 I-0.0173 J-0.0418
G3 X1.9254 Y2.8645 I0 J-0.0453
G3 X1.9107 Y2.8546 I0.0173 J-0.0418
G3 X1.9009 Y2.84 I0.032 J-0.032
G3 X1.8975 Y2.8226 I0.0418 J-0.0173
G3 X1.9009 Y2.8053 I0.0453 J0
G3 X1.9107 Y2.7906 I0.0418 J0.0173
G3 X1.9254 Y2.7808 I0.032 J0.032
G3 X1.9427 Y2.7773 I0.0173 J0.0418
G3 X1.9601 Y2.7808 I0 J0.0453
G3 X1.9748 Y2.7906 I-0.0173 J0.0418
G1 Z-0.13 F1
G3 X1.9846 Y2.8053 I-0.032 J0.032 F30
G3 X1.988 Y2.8226 I-0.0418 J0.0173
G3 X1.9846 Y2.84 I-0.0453 J0
G3 X1.9748 Y2.8546 I-0.0418 J-0.0173
G3 X1.9601 Y2.8645 I-0.032 J-0.032
G3 X1.9427 Y2.8679 I-0.0173 J-0.0418
G3 X1.9254 Y2.8645 I0 J-0.0453
G3 X1.9107 Y2.8546 I0.0173 J-0.0418
G3 X1.9009 Y2.84 I0.032 J-0.032
G3 X1.8975 Y2.8226 I0.0418 J-0.0173
G3 X1.9009 Y2.8053 I0.0453 J0
G3 X1.9107 Y2.7906 I0.0418 J0.0173
G3 X1.9254 Y2.7808 I0.032 J0.032
G3 X1.9427 Y2.7773 I0.0173 J0.0418
G3 X1.9601 Y2.7808 I0 J0.0453
G3 X1.9748 Y2.7906 I-0.0173 J0.0418
G0 Z0.25
M5
M30
