(Generated by PartKam Version 0.05)

G21 G90 G40

(Holes)
G0 Z6.35
T0 M6
G17
M3
G0 X49.805329949238576 Y71.23502538071067
G1 Z-1.27005076142132 F30
G3 X49.94670050761421 Y71.44670050761421 I-0.4593908629441624 J0.4593908629441624 F1524
G3 X49.99492385786802 Y71.69543147208122 I-0.6015228426395939 J0.24873096446700507
G3 X49.94670050761421 Y71.94416243654823 I-0.6497461928934011 J0
G3 X49.80456852791878 Y72.15482233502539 I-0.6015228426395939 J-0.24873096446700507
G3 X49.59390862944162 Y72.29441624365482 I-0.4593908629441624 J-0.4593908629441624
G3 X49.345177664974614 Y72.34517766497463 I-0.24873096446700507 J-0.6015228426395939
G3 X49.09644670050761 Y72.29441624365482 I0 J-0.6497461928934011
G3 X48.88578680203046 Y72.15482233502539 I0.24873096446700507 J-0.6015228426395939
G3 X48.746192893401016 Y71.94416243654823 I0.4593908629441624 J-0.4593908629441624
G3 X48.69543147208121 Y71.69543147208122 I0.6015228426395939 J-0.24873096446700507
G3 X48.746192893401016 Y71.44670050761421 I0.6497461928934011 J0
G3 X48.88578680203046 Y71.23604060913705 I0.6015228426395939 J0.24873096446700507
G3 X49.09644670050761 Y71.09390862944163 I0.4593908629441624 J0.4593908629441624
G3 X49.345177664974614 Y71.04568527918782 I0.24873096446700507 J0.6015228426395939
G3 X49.59390862944162 Y71.09390862944163 I0 J0.6497461928934011
G3 X49.80456852791878 Y71.23604060913705 I-0.24873096446700507 J0.6015228426395939
G1 Z-2.54010152284264 F30
G3 X49.94670050761421 Y71.44670050761421 I-0.4593908629441624 J0.4593908629441624 F1524
G3 X49.99492385786802 Y71.69543147208122 I-0.6015228426395939 J0.24873096446700507
G3 X49.94670050761421 Y71.94416243654823 I-0.6497461928934011 J0
G3 X49.80456852791878 Y72.15482233502539 I-0.6015228426395939 J-0.24873096446700507
G3 X49.59390862944162 Y72.29441624365482 I-0.4593908629441624 J-0.4593908629441624
G3 X49.345177664974614 Y72.34517766497463 I-0.24873096446700507 J-0.6015228426395939
G3 X49.09644670050761 Y72.29441624365482 I0 J-0.6497461928934011
G3 X48.88578680203046 Y72.15482233502539 I0.24873096446700507 J-0.6015228426395939
G3 X48.746192893401016 Y71.94416243654823 I0.4593908629441624 J-0.4593908629441624
G3 X48.69543147208121 Y71.69543147208122 I0.6015228426395939 J-0.24873096446700507
G3 X48.746192893401016 Y71.44670050761421 I0.6497461928934011 J0
G3 X48.88578680203046 Y71.23604060913705 I0.6015228426395939 J0.24873096446700507
G3 X49.09644670050761 Y71.09390862944163 I0.4593908629441624 J0.4593908629441624
G3 X49.345177664974614 Y71.04568527918782 I0.24873096446700507 J0.6015228426395939
G3 X49.59390862944162 Y71.09390862944163 I0 J0.6497461928934011
G3 X49.80456852791878 Y71.23604060913705 I-0.24873096446700507 J0.6015228426395939
G1 Z-3.302030456852792 F30
G3 X49.94670050761421 Y71.44670050761421 I-0.4593908629441624 J0.4593908629441624 F1524
G3 X49.99492385786802 Y71.69543147208122 I-0.6015228426395939 J0.24873096446700507
G3 X49.94670050761421 Y71.94416243654823 I-0.6497461928934011 J0
G3 X49.80456852791878 Y72.15482233502539 I-0.6015228426395939 J-0.24873096446700507
G3 X49.59390862944162 Y72.29441624365482 I-0.4593908629441624 J-0.4593908629441624
G3 X49.345177664974614 Y72.34517766497463 I-0.24873096446700507 J-0.6015228426395939
G3 X49.09644670050761 Y72.29441624365482 I0 J-0.6497461928934011
G3 X48.88578680203046 Y72.15482233502539 I0.24873096446700507 J-0.6015228426395939
G3 X48.746192893401016 Y71.94416243654823 I0.4593908629441624 J-0.4593908629441624
G3 X48.69543147208121 Y71.69543147208122 I0.6015228426395939 J-0.24873096446700507
G3 X48.746192893401016 Y71.44670050761421 I0.6497461928934011 J0
G3 X48.88578680203046 Y71.23604060913705 I0.6015228426395939 J0.24873096446700507
G3 X49.09644670050761 Y71.09390862944163 I0.4593908629441624 J0.4593908629441624
G3 X49.345177664974614 Y71.04568527918782 I0.24873096446700507 J0.6015228426395939
G3 X49.59390862944162 Y71.09390862944163 I0 J0.6497461928934011
G3 X49.80456852791878 Y71.23604060913705 I-0.24873096446700507 J0.6015228426395939
G0 Z6.35
G0 X50.738832487309644 Y26.303553299492386
G1 Z-1.27005076142132 F30
G3 X50.880710659898476 Y26.51522842639594 I-0.4593908629441624 J0.4593908629441624 F1524
G3 X50.92893401015228 Y26.763959390862944 I-0.6015228426395939 J0.24873096446700507
G3 X50.880710659898476 Y27.01269035532995 I-0.6497461928934011 J0
G3 X50.73857868020305 Y27.223350253807105 I-0.6015228426395939 J-0.24873096446700507
G3 X50.52791878172589 Y27.36294416243655 I-0.4593908629441624 J-0.4593908629441624
G3 X50.27918781725888 Y27.413705583756347 I-0.24873096446700507 J-0.6015228426395939
G3 X50.030456852791886 Y27.36294416243655 I0 J-0.6497461928934011
G3 X49.819796954314725 Y27.223350253807105 I0.24873096446700507 J-0.6015228426395939
G3 X49.67766497461929 Y27.01269035532995 I0.4593908629441624 J-0.4593908629441624
G3 X49.629441624365484 Y26.763959390862944 I0.6015228426395939 J-0.24873096446700507
G3 X49.67766497461929 Y26.51522842639594 I0.6497461928934011 J0
G3 X49.819796954314725 Y26.304568527918782 I0.6015228426395939 J0.24873096446700507
G3 X50.030456852791886 Y26.162436548223347 I0.4593908629441624 J0.4593908629441624
G3 X50.27918781725888 Y26.11421319796954 I0.24873096446700507 J0.6015228426395939
G3 X50.52791878172589 Y26.162436548223347 I0 J0.6497461928934011
G3 X50.73857868020305 Y26.304568527918782 I-0.24873096446700507 J0.6015228426395939
G1 Z-2.54010152284264 F30
G3 X50.880710659898476 Y26.51522842639594 I-0.4593908629441624 J0.4593908629441624 F1524
G3 X50.92893401015228 Y26.763959390862944 I-0.6015228426395939 J0.24873096446700507
G3 X50.880710659898476 Y27.01269035532995 I-0.6497461928934011 J0
G3 X50.73857868020305 Y27.223350253807105 I-0.6015228426395939 J-0.24873096446700507
G3 X50.52791878172589 Y27.36294416243655 I-0.4593908629441624 J-0.4593908629441624
G3 X50.27918781725888 Y27.413705583756347 I-0.24873096446700507 J-0.6015228426395939
G3 X50.030456852791886 Y27.36294416243655 I0 J-0.6497461928934011
G3 X49.819796954314725 Y27.223350253807105 I0.24873096446700507 J-0.6015228426395939
G3 X49.67766497461929 Y27.01269035532995 I0.4593908629441624 J-0.4593908629441624
G3 X49.629441624365484 Y26.763959390862944 I0.6015228426395939 J-0.24873096446700507
G3 X49.67766497461929 Y26.51522842639594 I0.6497461928934011 J0
G3 X49.819796954314725 Y26.304568527918782 I0.6015228426395939 J0.24873096446700507
G3 X50.030456852791886 Y26.162436548223347 I0.4593908629441624 J0.4593908629441624
G3 X50.27918781725888 Y26.11421319796954 I0.24873096446700507 J0.6015228426395939
G3 X50.52791878172589 Y26.162436548223347 I0 J0.6497461928934011
G3 X50.73857868020305 Y26.304568527918782 I-0.24873096446700507 J0.6015228426395939
G1 Z-3.302030456852792 F30
G3 X50.880710659898476 Y26.51522842639594 I-0.4593908629441624 J0.4593908629441624 F1524
G3 X50.92893401015228 Y26.763959390862944 I-0.6015228426395939 J0.24873096446700507
G3 X50.880710659898476 Y27.01269035532995 I-0.6497461928934011 J0
G3 X50.73857868020305 Y27.223350253807105 I-0.6015228426395939 J-0.24873096446700507
G3 X50.52791878172589 Y27.36294416243655 I-0.4593908629441624 J-0.4593908629441624
G3 X50.27918781725888 Y27.413705583756347 I-0.24873096446700507 J-0.6015228426395939
G3 X50.030456852791886 Y27.36294416243655 I0 J-0.6497461928934011
G3 X49.819796954314725 Y27.223350253807105 I0.24873096446700507 J-0.6015228426395939
G3 X49.67766497461929 Y27.01269035532995 I0.4593908629441624 J-0.4593908629441624
G3 X49.629441624365484 Y26.763959390862944 I0.6015228426395939 J-0.24873096446700507
G3 X49.67766497461929 Y26.51522842639594 I0.6497461928934011 J0
G3 X49.819796954314725 Y26.304568527918782 I0.6015228426395939 J0.24873096446700507
G3 X50.030456852791886 Y26.162436548223347 I0.4593908629441624 J0.4593908629441624
G3 X50.27918781725888 Y26.11421319796954 I0.24873096446700507 J0.6015228426395939
G3 X50.52791878172589 Y26.162436548223347 I0 J0.6497461928934011
G3 X50.73857868020305 Y26.304568527918782 I-0.24873096446700507 J0.6015228426395939
G0 Z6.35
G0 X116.91522842639594 Y71.79593908629441
G1 Z-1.27005076142132 F30
G3 X116.96446700507614 Y71.5482233502538 I0.6497461928934011 J0 F1524
G3 X117.10659898477158 Y71.33502538071066 I0.6015228426395939 J0.24873096446700507
G3 X117.31725888324873 Y71.19543147208121 I0.4593908629441624 J0.4593908629441624
G3 X117.56598984771573 Y71.14467005076142 I0.24873096446700507 J0.6015228426395939
G3 X117.81472081218274 Y71.19543147208121 I0 J0.6497461928934011
G3 X118.0253807106599 Y71.33502538071066 I-0.24873096446700507 J0.6015228426395939
G3 X118.16497461928934 Y71.5482233502538 I-0.4593908629441624 J0.4593908629441624
G3 X118.21573604060914 Y71.79695431472081 I-0.6015228426395939 J0.24873096446700507
G3 X118.16497461928934 Y72.04568527918782 I-0.6497461928934011 J0
G3 X118.0253807106599 Y72.25634517766497 I-0.6015228426395939 J-0.24873096446700507
G3 X117.81472081218274 Y72.39593908629442 I-0.4593908629441624 J-0.4593908629441624
G3 X117.56598984771573 Y72.44670050761421 I-0.24873096446700507 J-0.6015228426395939
G3 X117.31725888324873 Y72.39593908629442 I0 J-0.6497461928934011
G3 X117.10659898477158 Y72.25634517766497 I0.24873096446700507 J-0.6015228426395939
G3 X116.96446700507614 Y72.04568527918782 I0.4593908629441624 J-0.4593908629441624
G3 X116.91624365482234 Y71.79695431472081 I0.6015228426395939 J-0.24873096446700507
G1 Z-2.54010152284264 F30
G3 X116.96446700507614 Y71.5482233502538 I0.6497461928934011 J0 F1524
G3 X117.10659898477158 Y71.33502538071066 I0.6015228426395939 J0.24873096446700507
G3 X117.31725888324873 Y71.19543147208121 I0.4593908629441624 J0.4593908629441624
G3 X117.56598984771573 Y71.14467005076142 I0.24873096446700507 J0.6015228426395939
G3 X117.81472081218274 Y71.19543147208121 I0 J0.6497461928934011
G3 X118.0253807106599 Y71.33502538071066 I-0.24873096446700507 J0.6015228426395939
G3 X118.16497461928934 Y71.5482233502538 I-0.4593908629441624 J0.4593908629441624
G3 X118.21573604060914 Y71.79695431472081 I-0.6015228426395939 J0.24873096446700507
G3 X118.16497461928934 Y72.04568527918782 I-0.6497461928934011 J0
G3 X118.0253807106599 Y72.25634517766497 I-0.6015228426395939 J-0.24873096446700507
G3 X117.81472081218274 Y72.39593908629442 I-0.4593908629441624 J-0.4593908629441624
G3 X117.56598984771573 Y72.44670050761421 I-0.24873096446700507 J-0.6015228426395939
G3 X117.31725888324873 Y72.39593908629442 I0 J-0.6497461928934011
G3 X117.10659898477158 Y72.25634517766497 I0.24873096446700507 J-0.6015228426395939
G3 X116.96446700507614 Y72.04568527918782 I0.4593908629441624 J-0.4593908629441624
G3 X116.91624365482234 Y71.79695431472081 I0.6015228426395939 J-0.24873096446700507
G1 Z-3.302030456852792 F30
G3 X116.96446700507614 Y71.5482233502538 I0.6497461928934011 J0 F1524
G3 X117.10659898477158 Y71.33502538071066 I0.6015228426395939 J0.24873096446700507
G3 X117.31725888324873 Y71.19543147208121 I0.4593908629441624 J0.4593908629441624
G3 X117.56598984771573 Y71.14467005076142 I0.24873096446700507 J0.6015228426395939
G3 X117.81472081218274 Y71.19543147208121 I0 J0.6497461928934011
G3 X118.0253807106599 Y71.33502538071066 I-0.24873096446700507 J0.6015228426395939
G3 X118.16497461928934 Y71.5482233502538 I-0.4593908629441624 J0.4593908629441624
G3 X118.21573604060914 Y71.79695431472081 I-0.6015228426395939 J0.24873096446700507
G3 X118.16497461928934 Y72.04568527918782 I-0.6497461928934011 J0
G3 X118.0253807106599 Y72.25634517766497 I-0.6015228426395939 J-0.24873096446700507
G3 X117.81472081218274 Y72.39593908629442 I-0.4593908629441624 J-0.4593908629441624
G3 X117.56598984771573 Y72.44670050761421 I-0.24873096446700507 J-0.6015228426395939
G3 X117.31725888324873 Y72.39593908629442 I0 J-0.6497461928934011
G3 X117.10659898477158 Y72.25634517766497 I0.24873096446700507 J-0.6015228426395939
G3 X116.96446700507614 Y72.04568527918782 I0.4593908629441624 J-0.4593908629441624
G3 X116.91624365482234 Y71.79695431472081 I0.6015228426395939 J-0.24873096446700507
G0 Z6.35
G0 X119.14898477157361 Y26.864467005076143
G1 Z-1.27005076142132 F30
G3 X119.09898477157361 Y27.114213197969544 I-0.6497461928934011 J0 F1524
G3 X118.95939086294416 Y27.3248730964467 I-0.6015228426395939 J-0.24873096446700507
G3 X118.748730964467 Y27.464467005076145 I-0.4593908629441624 J-0.4593908629441624
G3 X118.5 Y27.515228426395943 I-0.24873096446700507 J-0.6015228426395939
G3 X118.25126903553299 Y27.464467005076145 I0 J-0.6497461928934011
G3 X118.03807106598984 Y27.3248730964467 I0.24873096446700507 J-0.6015228426395939
G3 X117.89847715736042 Y27.114213197969544 I0.4593908629441624 J-0.4593908629441624
G3 X117.84771573604061 Y26.86548223350254 I0.6015228426395939 J-0.24873096446700507
G3 X117.89847715736042 Y26.616751269035532 I0.6497461928934011 J0
G3 X118.03807106598984 Y26.403553299492387 I0.6015228426395939 J0.24873096446700507
G3 X118.25126903553299 Y26.263959390862944 I0.4593908629441624 J0.4593908629441624
G3 X118.5 Y26.213197969543145 I0.24873096446700507 J0.6015228426395939
G3 X118.748730964467 Y26.263959390862944 I0 J0.6497461928934011
G3 X118.95939086294416 Y26.403553299492387 I-0.24873096446700507 J0.6015228426395939
G3 X119.09898477157361 Y26.616751269035532 I-0.4593908629441624 J0.4593908629441624
G3 X119.1497461928934 Y26.86548223350254 I-0.6015228426395939 J0.24873096446700507
G1 Z-2.54010152284264 F30
G3 X119.09898477157361 Y27.114213197969544 I-0.6497461928934011 J0 F1524
G3 X118.95939086294416 Y27.3248730964467 I-0.6015228426395939 J-0.24873096446700507
G3 X118.748730964467 Y27.464467005076145 I-0.4593908629441624 J-0.4593908629441624
G3 X118.5 Y27.515228426395943 I-0.24873096446700507 J-0.6015228426395939
G3 X118.25126903553299 Y27.464467005076145 I0 J-0.6497461928934011
G3 X118.03807106598984 Y27.3248730964467 I0.24873096446700507 J-0.6015228426395939
G3 X117.89847715736042 Y27.114213197969544 I0.4593908629441624 J-0.4593908629441624
G3 X117.84771573604061 Y26.86548223350254 I0.6015228426395939 J-0.24873096446700507
G3 X117.89847715736042 Y26.616751269035532 I0.6497461928934011 J0
G3 X118.03807106598984 Y26.403553299492387 I0.6015228426395939 J0.24873096446700507
G3 X118.25126903553299 Y26.263959390862944 I0.4593908629441624 J0.4593908629441624
G3 X118.5 Y26.213197969543145 I0.24873096446700507 J0.6015228426395939
G3 X118.748730964467 Y26.263959390862944 I0 J0.6497461928934011
G3 X118.95939086294416 Y26.403553299492387 I-0.24873096446700507 J0.6015228426395939
G3 X119.09898477157361 Y26.616751269035532 I-0.4593908629441624 J0.4593908629441624
G3 X119.1497461928934 Y26.86548223350254 I-0.6015228426395939 J0.24873096446700507
G1 Z-3.302030456852792 F30
G3 X119.09898477157361 Y27.114213197969544 I-0.6497461928934011 J0 F1524
G3 X118.95939086294416 Y27.3248730964467 I-0.6015228426395939 J-0.24873096446700507
G3 X118.748730964467 Y27.464467005076145 I-0.4593908629441624 J-0.4593908629441624
G3 X118.5 Y27.515228426395943 I-0.24873096446700507 J-0.6015228426395939
G3 X118.25126903553299 Y27.464467005076145 I0 J-0.6497461928934011
G3 X118.03807106598984 Y27.3248730964467 I0.24873096446700507 J-0.6015228426395939
G3 X117.89847715736042 Y27.114213197969544 I0.4593908629441624 J-0.4593908629441624
G3 X117.84771573604061 Y26.86548223350254 I0.6015228426395939 J-0.24873096446700507
G3 X117.89847715736042 Y26.616751269035532 I0.6497461928934011 J0
G3 X118.03807106598984 Y26.403553299492387 I0.6015228426395939 J0.24873096446700507
G3 X118.25126903553299 Y26.263959390862944 I0.4593908629441624 J0.4593908629441624
G3 X118.5 Y26.213197969543145 I0.24873096446700507 J0.6015228426395939
G3 X118.748730964467 Y26.263959390862944 I0 J0.6497461928934011
G3 X118.95939086294416 Y26.403553299492387 I-0.24873096446700507 J0.6015228426395939
G3 X119.09898477157361 Y26.616751269035532 I-0.4593908629441624 J0.4593908629441624
G3 X119.1497461928934 Y26.86548223350254 I-0.6015228426395939 J0.24873096446700507
G0 Z6.35
M5
M30
