(Generated by PartKam Version 0.05)

G20 G90 G40

(Holes)
G0 Z0.25
T0 M6
G17
M3
G0 X4.6554 Y2.8825
G1 Z-0.05 F30
G3 X4.6637 Y2.888 I-0.0098 J0.0236 F60
G3 X4.6692 Y2.8963 I-0.0181 J0.0181
G3 X4.6712 Y2.9061 I-0.0236 J0.0098
G3 X4.6692 Y2.9159 I-0.0256 J0
G3 X4.6637 Y2.9242 I-0.0236 J-0.0098
G3 X4.6554 Y2.9297 I-0.0181 J-0.0181
G3 X4.6456 Y2.9317 I-0.0098 J-0.0236
G3 X4.6358 Y2.9297 I0 J-0.0256
G3 X4.6275 Y2.9242 I0.0098 J-0.0236
G3 X4.6219 Y2.9159 I0.0181 J-0.0181
G3 X4.62 Y2.9061 I0.0236 J-0.0098
G3 X4.6219 Y2.8963 I0.0256 J0
G3 X4.6275 Y2.888 I0.0236 J0.0098
G3 X4.6358 Y2.8825 I0.0181 J0.0181
G3 X4.6456 Y2.8805 I0.0098 J0.0236
G3 X4.6554 Y2.8825 I0 J0.0256
G1 Z-0.1 F30
G3 X4.6637 Y2.888 I-0.0098 J0.0236 F60
G3 X4.6692 Y2.8963 I-0.0181 J0.0181
G3 X4.6712 Y2.9061 I-0.0236 J0.0098
G3 X4.6692 Y2.9159 I-0.0256 J0
G3 X4.6637 Y2.9242 I-0.0236 J-0.0098
G3 X4.6554 Y2.9297 I-0.0181 J-0.0181
G3 X4.6456 Y2.9317 I-0.0098 J-0.0236
G3 X4.6358 Y2.9297 I0 J-0.0256
G3 X4.6275 Y2.9242 I0.0098 J-0.0236
G3 X4.6219 Y2.9159 I0.0181 J-0.0181
G3 X4.62 Y2.9061 I0.0236 J-0.0098
G3 X4.6219 Y2.8963 I0.0256 J0
G3 X4.6275 Y2.888 I0.0236 J0.0098
G3 X4.6358 Y2.8825 I0.0181 J0.0181
G3 X4.6456 Y2.8805 I0.0098 J0.0236
G3 X4.6554 Y2.8825 I0 J0.0256
G1 Z-0.13 F30
G3 X4.6637 Y2.888 I-0.0098 J0.0236 F60
G3 X4.6692 Y2.8963 I-0.0181 J0.0181
G3 X4.6712 Y2.9061 I-0.0236 J0.0098
G3 X4.6692 Y2.9159 I-0.0256 J0
G3 X4.6637 Y2.9242 I-0.0236 J-0.0098
G3 X4.6554 Y2.9297 I-0.0181 J-0.0181
G3 X4.6456 Y2.9317 I-0.0098 J-0.0236
G3 X4.6358 Y2.9297 I0 J-0.0256
G3 X4.6275 Y2.9242 I0.0098 J-0.0236
G3 X4.6219 Y2.9159 I0.0181 J-0.0181
G3 X4.62 Y2.9061 I0.0236 J-0.0098
G3 X4.6219 Y2.8963 I0.0256 J0
G3 X4.6275 Y2.888 I0.0236 J0.0098
G3 X4.6358 Y2.8825 I0.0181 J0.0181
G3 X4.6456 Y2.8805 I0.0098 J0.0236
G3 X4.6554 Y2.8825 I0 J0.0256
G0 Z0.25
G0 X4.6498 Y1.0908
G1 Z-0.05 F30
G3 X4.6596 Y1.0888 I0.0098 J0.0236 F60
G3 X4.6694 Y1.0908 I0 J0.0256
G3 X4.6777 Y1.0963 I-0.0098 J0.0236
G3 X4.6833 Y1.1046 I-0.0181 J0.0181
G3 X4.6852 Y1.1144 I-0.0236 J0.0098
G3 X4.6833 Y1.1242 I-0.0256 J0
G3 X4.6777 Y1.1325 I-0.0236 J-0.0098
G3 X4.6694 Y1.1381 I-0.0181 J-0.0181
G3 X4.6596 Y1.14 I-0.0098 J-0.0236
G3 X4.6498 Y1.1381 I0 J-0.0256
G3 X4.6415 Y1.1325 I0.0098 J-0.0236
G3 X4.636 Y1.1242 I0.0181 J-0.0181
G3 X4.634 Y1.1144 I0.0236 J-0.0098
G3 X4.636 Y1.1046 I0.0256 J0
G3 X4.6415 Y1.0963 I0.0236 J0.0098
G3 X4.6498 Y1.0908 I0.0181 J0.0181
G1 Z-0.1 F30
G3 X4.6596 Y1.0888 I0.0098 J0.0236 F60
G3 X4.6694 Y1.0908 I0 J0.0256
G3 X4.6777 Y1.0963 I-0.0098 J0.0236
G3 X4.6833 Y1.1046 I-0.0181 J0.0181
G3 X4.6852 Y1.1144 I-0.0236 J0.0098
G3 X4.6833 Y1.1242 I-0.0256 J0
G3 X4.6777 Y1.1325 I-0.0236 J-0.0098
G3 X4.6694 Y1.1381 I-0.0181 J-0.0181
G3 X4.6596 Y1.14 I-0.0098 J-0.0236
G3 X4.6498 Y1.1381 I0 J-0.0256
G3 X4.6415 Y1.1325 I0.0098 J-0.0236
G3 X4.636 Y1.1242 I0.0181 J-0.0181
G3 X4.634 Y1.1144 I0.0236 J-0.0098
G3 X4.636 Y1.1046 I0.0256 J0
G3 X4.6415 Y1.0963 I0.0236 J0.0098
G3 X4.6498 Y1.0908 I0.0181 J0.0181
G1 Z-0.13 F30
G3 X4.6596 Y1.0888 I0.0098 J0.0236 F60
G3 X4.6694 Y1.0908 I0 J0.0256
G3 X4.6777 Y1.0963 I-0.0098 J0.0236
G3 X4.6833 Y1.1046 I-0.0181 J0.0181
G3 X4.6852 Y1.1144 I-0.0236 J0.0098
G3 X4.6833 Y1.1242 I-0.0256 J0
G3 X4.6777 Y1.1325 I-0.0236 J-0.0098
G3 X4.6694 Y1.1381 I-0.0181 J-0.0181
G3 X4.6596 Y1.14 I-0.0098 J-0.0236
G3 X4.6498 Y1.1381 I0 J-0.0256
G3 X4.6415 Y1.1325 I0.0098 J-0.0236
G3 X4.636 Y1.1242 I0.0181 J-0.0181
G3 X4.634 Y1.1144 I0.0236 J-0.0098
G3 X4.636 Y1.1046 I0.0256 J0
G3 X4.6415 Y1.0963 I0.0236 J0.0098
G3 X4.6498 Y1.0908 I0.0181 J0.0181
G0 Z0.25
G0 X1.95 Y2.8785
G1 Z-0.05 F30
G3 X1.9598 Y2.8765 I0.0098 J0.0236 F60
G3 X1.9696 Y2.8785 I0 J0.0256
G3 X1.9779 Y2.884 I-0.0098 J0.0236
G3 X1.9834 Y2.8923 I-0.0181 J0.0181
G3 X1.9854 Y2.9021 I-0.0236 J0.0098
G3 X1.9834 Y2.9119 I-0.0256 J0
G3 X1.9779 Y2.9202 I-0.0236 J-0.0098
G3 X1.9696 Y2.9258 I-0.0181 J-0.0181
G3 X1.9598 Y2.9277 I-0.0098 J-0.0236
G3 X1.95 Y2.9258 I0 J-0.0256
G3 X1.9417 Y2.9202 I0.0098 J-0.0236
G3 X1.9361 Y2.9119 I0.0181 J-0.0181
G3 X1.9342 Y2.9021 I0.0236 J-0.0098
G3 X1.9361 Y2.8923 I0.0256 J0
G3 X1.9417 Y2.884 I0.0236 J0.0098
G3 X1.95 Y2.8785 I0.0181 J0.0181
G1 Z-0.1 F30
G3 X1.9598 Y2.8765 I0.0098 J0.0236 F60
G3 X1.9696 Y2.8785 I0 J0.0256
G3 X1.9779 Y2.884 I-0.0098 J0.0236
G3 X1.9834 Y2.8923 I-0.0181 J0.0181
G3 X1.9854 Y2.9021 I-0.0236 J0.0098
G3 X1.9834 Y2.9119 I-0.0256 J0
G3 X1.9779 Y2.9202 I-0.0236 J-0.0098
G3 X1.9696 Y2.9258 I-0.0181 J-0.0181
G3 X1.9598 Y2.9277 I-0.0098 J-0.0236
G3 X1.95 Y2.9258 I0 J-0.0256
G3 X1.9417 Y2.9202 I0.0098 J-0.0236
G3 X1.9361 Y2.9119 I0.0181 J-0.0181
G3 X1.9342 Y2.9021 I0.0236 J-0.0098
G3 X1.9361 Y2.8923 I0.0256 J0
G3 X1.9417 Y2.884 I0.0236 J0.0098
G3 X1.95 Y2.8785 I0.0181 J0.0181
G1 Z-0.13 F30
G3 X1.9598 Y2.8765 I0.0098 J0.0236 F60
G3 X1.9696 Y2.8785 I0 J0.0256
G3 X1.9779 Y2.884 I-0.0098 J0.0236
G3 X1.9834 Y2.8923 I-0.0181 J0.0181
G3 X1.9854 Y2.9021 I-0.0236 J0.0098
G3 X1.9834 Y2.9119 I-0.0256 J0
G3 X1.9779 Y2.9202 I-0.0236 J-0.0098
G3 X1.9696 Y2.9258 I-0.0181 J-0.0181
G3 X1.9598 Y2.9277 I-0.0098 J-0.0236
G3 X1.95 Y2.9258 I0 J-0.0256
G3 X1.9417 Y2.9202 I0.0098 J-0.0236
G3 X1.9361 Y2.9119 I0.0181 J-0.0181
G3 X1.9342 Y2.9021 I0.0236 J-0.0098
G3 X1.9361 Y2.8923 I0.0256 J0
G3 X1.9417 Y2.884 I0.0236 J0.0098
G3 X1.95 Y2.8785 I0.0181 J0.0181
G0 Z0.25
G0 X1.9482 Y1.1105
G1 Z-0.05 F30
G3 X1.9502 Y1.1007 I0.0256 J0 F60
G3 X1.9557 Y1.0924 I0.0236 J0.0098
G3 X1.964 Y1.0868 I0.0181 J0.0181
G3 X1.9738 Y1.0849 I0.0098 J0.0236
G3 X1.9836 Y1.0868 I0 J0.0256
G3 X1.9919 Y1.0924 I-0.0098 J0.0236
G3 X1.9975 Y1.1007 I-0.0181 J0.0181
G3 X1.9994 Y1.1105 I-0.0236 J0.0098
G3 X1.9975 Y1.1202 I-0.0256 J0
G3 X1.9919 Y1.1285 I-0.0236 J-0.0098
G3 X1.9836 Y1.1341 I-0.0181 J-0.0181
G3 X1.9738 Y1.136 I-0.0098 J-0.0236
G3 X1.964 Y1.1341 I0 J-0.0256
G3 X1.9557 Y1.1285 I0.0098 J-0.0236
G3 X1.9502 Y1.1202 I0.0181 J-0.0181
G3 X1.9482 Y1.1105 I0.0236 J-0.0098
G1 Z-0.1 F30
G3 X1.9502 Y1.1007 I0.0256 J0 F60
G3 X1.9557 Y1.0924 I0.0236 J0.0098
G3 X1.964 Y1.0868 I0.0181 J0.0181
G3 X1.9738 Y1.0849 I0.0098 J0.0236
G3 X1.9836 Y1.0868 I0 J0.0256
G3 X1.9919 Y1.0924 I-0.0098 J0.0236
G3 X1.9975 Y1.1007 I-0.0181 J0.0181
G3 X1.9994 Y1.1105 I-0.0236 J0.0098
G3 X1.9975 Y1.1202 I-0.0256 J0
G3 X1.9919 Y1.1285 I-0.0236 J-0.0098
G3 X1.9836 Y1.1341 I-0.0181 J-0.0181
G3 X1.9738 Y1.136 I-0.0098 J-0.0236
G3 X1.964 Y1.1341 I0 J-0.0256
G3 X1.9557 Y1.1285 I0.0098 J-0.0236
G3 X1.9502 Y1.1202 I0.0181 J-0.0181
G3 X1.9482 Y1.1105 I0.0236 J-0.0098
G1 Z-0.13 F30
G3 X1.9502 Y1.1007 I0.0256 J0 F60
G3 X1.9557 Y1.0924 I0.0236 J0.0098
G3 X1.964 Y1.0868 I0.0181 J0.0181
G3 X1.9738 Y1.0849 I0.0098 J0.0236
G3 X1.9836 Y1.0868 I0 J0.0256
G3 X1.9919 Y1.0924 I-0.0098 J0.0236
G3 X1.9975 Y1.1007 I-0.0181 J0.0181
G3 X1.9994 Y1.1105 I-0.0236 J0.0098
G3 X1.9975 Y1.1202 I-0.0256 J0
G3 X1.9919 Y1.1285 I-0.0236 J-0.0098
G3 X1.9836 Y1.1341 I-0.0181 J-0.0181
G3 X1.9738 Y1.136 I-0.0098 J-0.0236
G3 X1.964 Y1.1341 I0 J-0.0256
G3 X1.9557 Y1.1285 I0.0098 J-0.0236
G3 X1.9502 Y1.1202 I0.0181 J-0.0181
G3 X1.9482 Y1.1105 I0.0236 J-0.0098
G0 Z0.25
M5
M30
