(Generated by PartKam Version 0.05)

G20 G90 G40

(HalfIt)
G0 Z0.25
T0 M6
G17
M3
G0 X0.9875 Y3.0438
G1 Z-0.05 F30
G1 X0.9875 Y0.9688 F60
G1 X1.0625 Y0.9688
G1 X1.0625 Y3.0438
G1 X0.9875 Y3.0438
G1 X0.9375 Y3.0938 F60
G1 X0.9375 Y0.9188 F60
G1 X1.1125 Y0.9188
G1 X1.1125 Y3.0938
G1 X0.9375 Y3.0938
G1 X0.8875 Y3.1438 F60
G1 X0.8875 Y0.8688 F60
G1 X1.1625 Y0.8688
G1 X1.1625 Y3.1438
G1 X0.8875 Y3.1438
G1 X0.8375 Y3.1938 F60
G1 X0.8375 Y0.8188 F60
G1 X1.2125 Y0.8188
G1 X1.2125 Y3.1938
G1 X0.8375 Y3.1938
G1 X0.7875 Y3.2438 F60
G1 X0.7875 Y0.7688 F60
G1 X1.2625 Y0.7688
G1 X1.2625 Y3.2438
G1 X0.7875 Y3.2438
G1 X0.7375 Y3.2938 F60
G1 X0.7375 Y0.7188 F60
G1 X1.3125 Y0.7188
G1 X1.3125 Y3.2938
G1 X0.7375 Y3.2938
G1 X0.6875 Y3.3438 F60
G1 X0.6875 Y0.6688 F60
G1 X1.3625 Y0.6688
G1 X1.3625 Y3.3438
G1 X0.6875 Y3.3438
G1 X0.6375 Y3.3938 F60
G1 X0.6375 Y0.6187 F60
G1 X1.4125 Y0.6187
G1 X1.4125 Y3.3938
G1 X0.6375 Y3.3938
G1 X0.5875 Y3.4438 F60
G1 X0.5875 Y0.5687 F60
G1 X1.4625 Y0.5687
G1 X1.4625 Y3.4438
G1 X0.5875 Y3.4438
G1 X0.5375 Y3.4938 F60
G1 X0.5375 Y0.5187 F60
G1 X1.5125 Y0.5187
G1 X1.5125 Y3.4938
G1 X0.5375 Y3.4938
G1 X0.4875 Y3.5438 F60
G1 X0.4875 Y0.4687 F60
G1 X1.5625 Y0.4687
G1 X1.5625 Y3.5438
G1 X0.4875 Y3.5438
G1 X0.4375 Y3.5938 F60
G1 X0.4375 Y0.4187 F60
G1 X1.6125 Y0.4187
G1 X1.6125 Y3.5938
G1 X0.4375 Y3.5938
G1 X0.3875 Y3.6438 F60
G1 X0.3875 Y0.3687 F60
G1 X1.6625 Y0.3687
G1 X1.6625 Y3.6438
G1 X0.3875 Y3.6438
G1 X0.3375 Y3.6938 F60
G1 X0.3375 Y0.3187 F60
G1 X1.7125 Y0.3187
G1 X1.7125 Y3.6938
G1 X0.3375 Y3.6938
G1 X0.2875 Y3.7438 F60
G1 X0.2875 Y0.2687 F60
G1 X1.7625 Y0.2687
G1 X1.7625 Y3.7438
G1 X0.2875 Y3.7438
G1 X0.2375 Y3.7938 F60
G1 X0.2375 Y0.2187 F60
G1 X1.8125 Y0.2187
G1 X1.8125 Y3.7938
G1 X0.2375 Y3.7938
G1 X0.1875 Y3.8438 F60
G1 X0.1875 Y0.1687 F60
G1 X1.8625 Y0.1687
G1 X1.8625 Y3.8438
G1 X0.1875 Y3.8438
G1 X0.1375 Y3.8938 F60
G1 X0.1375 Y0.1187 F60
G1 X1.9125 Y0.1187
G1 X1.9125 Y3.8938
G1 X0.1375 Y3.8938
G1 X0.0875 Y3.9438 F60
G1 X0.0875 Y0.0687 F60
G1 X1.9625 Y0.0687
G1 X1.9625 Y3.9438
G1 X0.0875 Y3.9438
G0 Z0.25
M5
M30
