(Generated by PartKam Version 0.05)

G20 G90 G40

(CutItOut)
G0 Z0.25
T0 M6
G17
M3
G0 X0.176 Y3.5666
G1 Z-0.1 F5
G1 X0.176 Y0.4237 F20
G3 X0.1928 Y0.3243 I0.3011 J0
G3 X0.2406 Y0.2406 I0.2504 J0.0875
G3 X0.318 Y0.1804 I0.1815 J0.1534
G3 X0.41 Y0.1592 I0.092 J0.1888
G1 X1.6018 Y0.1592
G3 X1.693 Y0.1802 I0 J0.2085
G3 X1.7703 Y0.2399 I-0.1047 J0.2152
G3 X1.8187 Y0.3239 I-0.2017 J0.1723
G3 X1.8358 Y0.4237 I-0.2825 J0.0998
G1 X1.8358 Y0.4237
G1 X1.8358 Y0.5211
G1 X1.8358 Y0.617
G1 X1.8358 Y0.7114
G1 X1.8358 Y0.8043
G1 X1.8358 Y0.8956
G1 X1.8358 Y0.9854
G1 X1.8358 Y1.0736
G1 X1.8358 Y1.1603
G1 X1.8358 Y1.2455
G1 X1.8358 Y1.3291
G1 X1.8358 Y1.4112
G1 X1.8358 Y1.4918
G1 X1.8358 Y1.5708
G1 X1.8358 Y1.6483
G1 X1.8358 Y1.7243
G1 X1.8358 Y1.7987
G1 X1.8357 Y1.8716
G1 X1.8357 Y1.943
G1 X1.8357 Y2.0128
G1 X1.8357 Y2.0811
G1 X1.8357 Y2.1479
G1 X1.8357 Y2.2131
G1 X1.8357 Y2.2768
G1 X1.8357 Y2.3389
G1 X1.8357 Y2.3995
G1 X1.8356 Y2.4586
G1 X1.8356 Y2.5162
G1 X1.8356 Y2.5722
G1 X1.8356 Y2.6267
G1 X1.8356 Y2.6796
G1 X1.8356 Y2.731
G1 X1.8355 Y2.7809
G1 X1.8355 Y2.8293
G1 X1.8355 Y2.8761
G1 X1.8355 Y2.9213
G1 X1.8355 Y2.9651
G1 X1.8354 Y3.0073
G1 X1.8354 Y3.048
G1 X1.8354 Y3.0871
G1 X1.8354 Y3.1247
G1 X1.8353 Y3.1608
G1 X1.8353 Y3.1953
G1 X1.8353 Y3.2283
G1 X1.8353 Y3.2598
G1 X1.8352 Y3.2897
G1 X1.8352 Y3.3181
G3 X1.8352 Y3.3457 I-347.5983 J-0.3376
G3 X1.8352 Y3.3703 I-274.6588 J-0.2886
G3 X1.835 Y3.4685 I-193.8953 J-0.2211
G3 X1.8349 Y3.5177 I-48.5209 J-0.0799
G3 X1.8348 Y3.5423 I-24.2918 J-0.0646
G3 X1.8348 Y3.5547 I-6.12 J-0.0225
G3 X1.8347 Y3.561 I-3.0913 J-0.0176
G3 X1.8347 Y3.5643 I-0.8198 J-0.0063
G3 X1.8346 Y3.5682 I-0.3135 J-0.0037
G3 X1.8178 Y3.666 I-0.3011 J-0.0016
G3 X1.77 Y3.7497 I-0.2504 J-0.0875
G3 X1.6926 Y3.8099 I-0.1815 J-0.1534
G3 X1.6006 Y3.8311 I-0.092 J-0.1888
G1 X0.41 Y3.8311
G3 X0.3188 Y3.8101 I0 J-0.2085
G3 X0.2415 Y3.7504 I0.1047 J-0.2153
G3 X0.1931 Y3.6664 I0.2017 J-0.1723
G3 X0.176 Y3.5666 I0.2824 J-0.0998
G1 Z-0.2 F5
G1 X0.176 Y0.4237 F20
G3 X0.1928 Y0.3243 I0.3011 J0
G3 X0.2406 Y0.2406 I0.2504 J0.0875
G3 X0.318 Y0.1804 I0.1815 J0.1534
G3 X0.41 Y0.1592 I0.092 J0.1888
G1 X1.6018 Y0.1592
G3 X1.693 Y0.1802 I0 J0.2085
G3 X1.7703 Y0.2399 I-0.1047 J0.2152
G3 X1.8187 Y0.3239 I-0.2017 J0.1723
G3 X1.8358 Y0.4237 I-0.2825 J0.0998
G1 X1.8358 Y0.4237
G1 X1.8358 Y0.5211
G1 X1.8358 Y0.617
G1 X1.8358 Y0.7114
G1 X1.8358 Y0.8043
G1 X1.8358 Y0.8956
G1 X1.8358 Y0.9854
G1 X1.8358 Y1.0736
G1 X1.8358 Y1.1603
G1 X1.8358 Y1.2455
G1 X1.8358 Y1.3291
G1 X1.8358 Y1.4112
G1 X1.8358 Y1.4918
G1 X1.8358 Y1.5708
G1 X1.8358 Y1.6483
G1 X1.8358 Y1.7243
G1 X1.8358 Y1.7987
G1 X1.8357 Y1.8716
G1 X1.8357 Y1.943
G1 X1.8357 Y2.0128
G1 X1.8357 Y2.0811
G1 X1.8357 Y2.1479
G1 X1.8357 Y2.2131
G1 X1.8357 Y2.2768
G1 X1.8357 Y2.3389
G1 X1.8357 Y2.3995
G1 X1.8356 Y2.4586
G1 X1.8356 Y2.5162
G1 X1.8356 Y2.5722
G1 X1.8356 Y2.6267
G1 X1.8356 Y2.6796
G1 X1.8356 Y2.731
G1 X1.8355 Y2.7809
G1 X1.8355 Y2.8293
G1 X1.8355 Y2.8761
G1 X1.8355 Y2.9213
G1 X1.8355 Y2.9651
G1 X1.8354 Y3.0073
G1 X1.8354 Y3.048
G1 X1.8354 Y3.0871
G1 X1.8354 Y3.1247
G1 X1.8353 Y3.1608
G1 X1.8353 Y3.1953
G1 X1.8353 Y3.2283
G1 X1.8353 Y3.2598
G1 X1.8352 Y3.2897
G1 X1.8352 Y3.3181
G3 X1.8352 Y3.3457 I-347.5983 J-0.3376
G3 X1.8352 Y3.3703 I-274.6588 J-0.2886
G3 X1.835 Y3.4685 I-193.8953 J-0.2211
G3 X1.8349 Y3.5177 I-48.5209 J-0.0799
G3 X1.8348 Y3.5423 I-24.2918 J-0.0646
G3 X1.8348 Y3.5547 I-6.12 J-0.0225
G3 X1.8347 Y3.561 I-3.0913 J-0.0176
G3 X1.8347 Y3.5643 I-0.8198 J-0.0063
G3 X1.8346 Y3.5682 I-0.3135 J-0.0037
G3 X1.8178 Y3.666 I-0.3011 J-0.0016
G3 X1.77 Y3.7497 I-0.2504 J-0.0875
G3 X1.6926 Y3.8099 I-0.1815 J-0.1534
G3 X1.6006 Y3.8311 I-0.092 J-0.1888
G1 X0.41 Y3.8311
G3 X0.3188 Y3.8101 I0 J-0.2085
G3 X0.2415 Y3.7504 I0.1047 J-0.2153
G3 X0.1931 Y3.6664 I0.2017 J-0.1723
G3 X0.176 Y3.5666 I0.2824 J-0.0998
G1 Z-0.3 F5
G1 X0.176 Y0.4237 F20
G3 X0.1928 Y0.3243 I0.3011 J0
G3 X0.2406 Y0.2406 I0.2504 J0.0875
G3 X0.318 Y0.1804 I0.1815 J0.1534
G3 X0.41 Y0.1592 I0.092 J0.1888
G1 X1.6018 Y0.1592
G3 X1.693 Y0.1802 I0 J0.2085
G3 X1.7703 Y0.2399 I-0.1047 J0.2152
G3 X1.8187 Y0.3239 I-0.2017 J0.1723
G3 X1.8358 Y0.4237 I-0.2825 J0.0998
G1 X1.8358 Y0.4237
G1 X1.8358 Y0.5211
G1 X1.8358 Y0.617
G1 X1.8358 Y0.7114
G1 X1.8358 Y0.8043
G1 X1.8358 Y0.8956
G1 X1.8358 Y0.9854
G1 X1.8358 Y1.0736
G1 X1.8358 Y1.1603
G1 X1.8358 Y1.2455
G1 X1.8358 Y1.3291
G1 X1.8358 Y1.4112
G1 X1.8358 Y1.4918
G1 X1.8358 Y1.5708
G1 X1.8358 Y1.6483
G1 X1.8358 Y1.7243
G1 X1.8358 Y1.7987
G1 X1.8357 Y1.8716
G1 X1.8357 Y1.943
G1 X1.8357 Y2.0128
G1 X1.8357 Y2.0811
G1 X1.8357 Y2.1479
G1 X1.8357 Y2.2131
G1 X1.8357 Y2.2768
G1 X1.8357 Y2.3389
G1 X1.8357 Y2.3995
G1 X1.8356 Y2.4586
G1 X1.8356 Y2.5162
G1 X1.8356 Y2.5722
G1 X1.8356 Y2.6267
G1 X1.8356 Y2.6796
G1 X1.8356 Y2.731
G1 X1.8355 Y2.7809
G1 X1.8355 Y2.8293
G1 X1.8355 Y2.8761
G1 X1.8355 Y2.9213
G1 X1.8355 Y2.9651
G1 X1.8354 Y3.0073
G1 X1.8354 Y3.048
G1 X1.8354 Y3.0871
G1 X1.8354 Y3.1247
G1 X1.8353 Y3.1608
G1 X1.8353 Y3.1953
G1 X1.8353 Y3.2283
G1 X1.8353 Y3.2598
G1 X1.8352 Y3.2897
G1 X1.8352 Y3.3181
G3 X1.8352 Y3.3457 I-347.5983 J-0.3376
G3 X1.8352 Y3.3703 I-274.6588 J-0.2886
G3 X1.835 Y3.4685 I-193.8953 J-0.2211
G3 X1.8349 Y3.5177 I-48.5209 J-0.0799
G3 X1.8348 Y3.5423 I-24.2918 J-0.0646
G3 X1.8348 Y3.5547 I-6.12 J-0.0225
G3 X1.8347 Y3.561 I-3.0913 J-0.0176
G3 X1.8347 Y3.5643 I-0.8198 J-0.0063
G3 X1.8346 Y3.5682 I-0.3135 J-0.0037
G3 X1.8178 Y3.666 I-0.3011 J-0.0016
G3 X1.77 Y3.7497 I-0.2504 J-0.0875
G3 X1.6926 Y3.8099 I-0.1815 J-0.1534
G3 X1.6006 Y3.8311 I-0.092 J-0.1888
G1 X0.41 Y3.8311
G3 X0.3188 Y3.8101 I0 J-0.2085
G3 X0.2415 Y3.7504 I0.1047 J-0.2153
G3 X0.1931 Y3.6664 I0.2017 J-0.1723
G3 X0.176 Y3.5666 I0.2824 J-0.0998
G0 Z0.25
M5
M30
