(Generated by PartKam Version 0.05)

G20 G90 G40

(holes)
G0 Z0.25
T0 M6
G17
M3
G0 X0.968 Y3.4041
G1 Z-0.1 F5
G3 X0.9712 Y3.3881 I0.042 J0 F30
G3 X0.9803 Y3.3745 I0.0388 J0.0161
G3 X0.9939 Y3.3654 I0.0297 J0.0297
G3 X1.01 Y3.3622 I0.0161 J0.0388
G3 X1.026 Y3.3654 I0 J0.042
G3 X1.0397 Y3.3745 I-0.0161 J0.0388
G3 X1.0488 Y3.3881 I-0.0297 J0.0297
G3 X1.0519 Y3.4041 I-0.0388 J0.0161
G3 X1.0488 Y3.4202 I-0.042 J0
G3 X1.0397 Y3.4338 I-0.0388 J-0.0161
G3 X1.026 Y3.4429 I-0.0297 J-0.0297
G3 X1.01 Y3.4461 I-0.0161 J-0.0388
G3 X0.9939 Y3.4429 I0 J-0.042
G3 X0.9803 Y3.4338 I0.0161 J-0.0388
G3 X0.9712 Y3.4202 I0.0297 J-0.0297
G3 X0.968 Y3.4041 I0.0388 J-0.0161
G1 Z-0.2 F5
G3 X0.9712 Y3.3881 I0.042 J0 F30
G3 X0.9803 Y3.3745 I0.0388 J0.0161
G3 X0.9939 Y3.3654 I0.0297 J0.0297
G3 X1.01 Y3.3622 I0.0161 J0.0388
G3 X1.026 Y3.3654 I0 J0.042
G3 X1.0397 Y3.3745 I-0.0161 J0.0388
G3 X1.0488 Y3.3881 I-0.0297 J0.0297
G3 X1.0519 Y3.4041 I-0.0388 J0.0161
G3 X1.0488 Y3.4202 I-0.042 J0
G3 X1.0397 Y3.4338 I-0.0388 J-0.0161
G3 X1.026 Y3.4429 I-0.0297 J-0.0297
G3 X1.01 Y3.4461 I-0.0161 J-0.0388
G3 X0.9939 Y3.4429 I0 J-0.042
G3 X0.9803 Y3.4338 I0.0161 J-0.0388
G3 X0.9712 Y3.4202 I0.0297 J-0.0297
G3 X0.968 Y3.4041 I0.0388 J-0.0161
G1 Z-0.3 F5
G3 X0.9712 Y3.3881 I0.042 J0 F30
G3 X0.9803 Y3.3745 I0.0388 J0.0161
G3 X0.9939 Y3.3654 I0.0297 J0.0297
G3 X1.01 Y3.3622 I0.0161 J0.0388
G3 X1.026 Y3.3654 I0 J0.042
G3 X1.0397 Y3.3745 I-0.0161 J0.0388
G3 X1.0488 Y3.3881 I-0.0297 J0.0297
G3 X1.0519 Y3.4041 I-0.0388 J0.0161
G3 X1.0488 Y3.4202 I-0.042 J0
G3 X1.0397 Y3.4338 I-0.0388 J-0.0161
G3 X1.026 Y3.4429 I-0.0297 J-0.0297
G3 X1.01 Y3.4461 I-0.0161 J-0.0388
G3 X0.9939 Y3.4429 I0 J-0.042
G3 X0.9803 Y3.4338 I0.0161 J-0.0388
G3 X0.9712 Y3.4202 I0.0297 J-0.0297
G3 X0.968 Y3.4041 I0.0388 J-0.0161
G0 Z0.25
G0 X0.968 Y0.7128
G1 Z-0.1 F5
G3 X0.9712 Y0.6968 I0.042 J0 F30
G3 X0.9803 Y0.6832 I0.0388 J0.0161
G3 X0.9939 Y0.6741 I0.0297 J0.0297
G3 X1.01 Y0.6709 I0.0161 J0.0388
G3 X1.026 Y0.6741 I0 J0.042
G3 X1.0397 Y0.6832 I-0.0161 J0.0388
G3 X1.0488 Y0.6968 I-0.0297 J0.0297
G3 X1.0519 Y0.7128 I-0.0388 J0.0161
G3 X1.0488 Y0.7289 I-0.042 J0
G3 X1.0397 Y0.7425 I-0.0388 J-0.0161
G3 X1.026 Y0.7516 I-0.0297 J-0.0297
G3 X1.01 Y0.7548 I-0.0161 J-0.0388
G3 X0.9939 Y0.7516 I0 J-0.042
G3 X0.9803 Y0.7425 I0.0161 J-0.0388
G3 X0.9712 Y0.7289 I0.0297 J-0.0297
G3 X0.968 Y0.7128 I0.0388 J-0.0161
G1 Z-0.2 F5
G3 X0.9712 Y0.6968 I0.042 J0 F30
G3 X0.9803 Y0.6832 I0.0388 J0.0161
G3 X0.9939 Y0.6741 I0.0297 J0.0297
G3 X1.01 Y0.6709 I0.0161 J0.0388
G3 X1.026 Y0.6741 I0 J0.042
G3 X1.0397 Y0.6832 I-0.0161 J0.0388
G3 X1.0488 Y0.6968 I-0.0297 J0.0297
G3 X1.0519 Y0.7128 I-0.0388 J0.0161
G3 X1.0488 Y0.7289 I-0.042 J0
G3 X1.0397 Y0.7425 I-0.0388 J-0.0161
G3 X1.026 Y0.7516 I-0.0297 J-0.0297
G3 X1.01 Y0.7548 I-0.0161 J-0.0388
G3 X0.9939 Y0.7516 I0 J-0.042
G3 X0.9803 Y0.7425 I0.0161 J-0.0388
G3 X0.9712 Y0.7289 I0.0297 J-0.0297
G3 X0.968 Y0.7128 I0.0388 J-0.0161
G1 Z-0.3 F5
G3 X0.9712 Y0.6968 I0.042 J0 F30
G3 X0.9803 Y0.6832 I0.0388 J0.0161
G3 X0.9939 Y0.6741 I0.0297 J0.0297
G3 X1.01 Y0.6709 I0.0161 J0.0388
G3 X1.026 Y0.6741 I0 J0.042
G3 X1.0397 Y0.6832 I-0.0161 J0.0388
G3 X1.0488 Y0.6968 I-0.0297 J0.0297
G3 X1.0519 Y0.7128 I-0.0388 J0.0161
G3 X1.0488 Y0.7289 I-0.042 J0
G3 X1.0397 Y0.7425 I-0.0388 J-0.0161
G3 X1.026 Y0.7516 I-0.0297 J-0.0297
G3 X1.01 Y0.7548 I-0.0161 J-0.0388
G3 X0.9939 Y0.7516 I0 J-0.042
G3 X0.9803 Y0.7425 I0.0161 J-0.0388
G3 X0.9712 Y0.7289 I0.0297 J-0.0297
G3 X0.968 Y0.7128 I0.0388 J-0.0161
G0 Z0.25
M5
M30
