(Generated by PartKam Version 0.05)

G20 G90 G40

(mouthI)
G0 Z0.25
T0 M6
G17
M3
G0 X2.2078 Y1.4302
G1 Z-0.1 F30
G3 X2.3972 Y1.3357 I0.3325 J0.429 F60
G3 X2.5011 Y1.3179 I0.143 J0.5234
G3 X2.6084 Y1.3208 I0.0391 J0.5412
G3 X2.8092 Y1.3878 I-0.0682 J0.5383
G3 X2.9688 Y1.5262 I-0.269 J0.4714
G3 X2.9712 Y1.5311 I-0.0112 J0.0086
G3 X2.9716 Y1.5334 I-0.0124 J0.0034
G3 X2.9716 Y1.5345 I-0.0128 J0.0011
G3 X2.9715 Y1.5361 I-0.0129 J0
G3 X2.97 Y1.5407 I-0.0122 J-0.0015
G3 X2.9689 Y1.5423 I-0.0106 J-0.006
G3 X2.9669 Y1.5442 I-0.0095 J-0.0077
G3 X2.9626 Y1.5464 I-0.0075 J-0.0097
G3 X2.9579 Y1.5467 I-0.0032 J-0.0118
G3 X2.9534 Y1.5452 I0.0015 J-0.0121
G3 X2.9507 Y1.5431 I0.0061 J-0.0107
G3 X2.9497 Y1.542 I0.0088 J-0.0086
G2 X2.9052 Y1.4917 I-0.4101 J0.3182
G2 X2.797 Y1.4094 I-0.3655 J0.3685
G2 X2.6053 Y1.3454 I-0.2569 J0.4499
G2 X2.4037 Y1.3596 I-0.0651 J0.5137
G2 X2.2233 Y1.4495 I0.1364 J0.4994
G3 X2.2189 Y1.4517 I-0.0078 J-0.0106
G3 X2.2139 Y1.452 I-0.0033 J-0.0125
G3 X2.2093 Y1.4505 I0.0016 J-0.0124
G3 X2.2057 Y1.4474 I0.006 J-0.0105
G3 X2.2035 Y1.443 I0.0098 J-0.0076
G3 X2.2031 Y1.4398 I0.0117 J-0.0032
G3 X2.2032 Y1.4383 I0.0122 J0
G3 X2.2047 Y1.4338 I0.0121 J0.0015
G3 X2.2068 Y1.4311 I0.0108 J0.0061
G3 X2.2078 Y1.4302 I0.0087 J0.0088
G1 Z-0.2 F30
G3 X2.3972 Y1.3357 I0.3325 J0.429 F60
G3 X2.5011 Y1.3179 I0.143 J0.5234
G3 X2.6084 Y1.3208 I0.0391 J0.5412
G3 X2.8092 Y1.3878 I-0.0682 J0.5383
G3 X2.9688 Y1.5262 I-0.269 J0.4714
G3 X2.9712 Y1.5311 I-0.0112 J0.0086
G3 X2.9716 Y1.5334 I-0.0124 J0.0034
G3 X2.9716 Y1.5345 I-0.0128 J0.0011
G3 X2.9715 Y1.5361 I-0.0129 J0
G3 X2.97 Y1.5407 I-0.0122 J-0.0015
G3 X2.9689 Y1.5423 I-0.0106 J-0.006
G3 X2.9669 Y1.5442 I-0.0095 J-0.0077
G3 X2.9626 Y1.5464 I-0.0075 J-0.0097
G3 X2.9579 Y1.5467 I-0.0032 J-0.0118
G3 X2.9534 Y1.5452 I0.0015 J-0.0121
G3 X2.9507 Y1.5431 I0.0061 J-0.0107
G3 X2.9497 Y1.542 I0.0088 J-0.0086
G2 X2.9052 Y1.4917 I-0.4101 J0.3182
G2 X2.797 Y1.4094 I-0.3655 J0.3685
G2 X2.6053 Y1.3454 I-0.2569 J0.4499
G2 X2.4037 Y1.3596 I-0.0651 J0.5137
G2 X2.2233 Y1.4495 I0.1364 J0.4994
G3 X2.2189 Y1.4517 I-0.0078 J-0.0106
G3 X2.2139 Y1.452 I-0.0033 J-0.0125
G3 X2.2093 Y1.4505 I0.0016 J-0.0124
G3 X2.2057 Y1.4474 I0.006 J-0.0105
G3 X2.2035 Y1.443 I0.0098 J-0.0076
G3 X2.2031 Y1.4398 I0.0117 J-0.0032
G3 X2.2032 Y1.4383 I0.0122 J0
G3 X2.2047 Y1.4338 I0.0121 J0.0015
G3 X2.2068 Y1.4311 I0.0108 J0.0061
G3 X2.2078 Y1.4302 I0.0087 J0.0088
G1 Z-0.3 F30
G3 X2.3972 Y1.3357 I0.3325 J0.429 F60
G3 X2.5011 Y1.3179 I0.143 J0.5234
G3 X2.6084 Y1.3208 I0.0391 J0.5412
G3 X2.8092 Y1.3878 I-0.0682 J0.5383
G3 X2.9688 Y1.5262 I-0.269 J0.4714
G3 X2.9712 Y1.5311 I-0.0112 J0.0086
G3 X2.9716 Y1.5334 I-0.0124 J0.0034
G3 X2.9716 Y1.5345 I-0.0128 J0.0011
G3 X2.9715 Y1.5361 I-0.0129 J0
G3 X2.97 Y1.5407 I-0.0122 J-0.0015
G3 X2.9689 Y1.5423 I-0.0106 J-0.006
G3 X2.9669 Y1.5442 I-0.0095 J-0.0077
G3 X2.9626 Y1.5464 I-0.0075 J-0.0097
G3 X2.9579 Y1.5467 I-0.0032 J-0.0118
G3 X2.9534 Y1.5452 I0.0015 J-0.0121
G3 X2.9507 Y1.5431 I0.0061 J-0.0107
G3 X2.9497 Y1.542 I0.0088 J-0.0086
G2 X2.9052 Y1.4917 I-0.4101 J0.3182
G2 X2.797 Y1.4094 I-0.3655 J0.3685
G2 X2.6053 Y1.3454 I-0.2569 J0.4499
G2 X2.4037 Y1.3596 I-0.0651 J0.5137
G2 X2.2233 Y1.4495 I0.1364 J0.4994
G3 X2.2189 Y1.4517 I-0.0078 J-0.0106
G3 X2.2139 Y1.452 I-0.0033 J-0.0125
G3 X2.2093 Y1.4505 I0.0016 J-0.0124
G3 X2.2057 Y1.4474 I0.006 J-0.0105
G3 X2.2035 Y1.443 I0.0098 J-0.0076
G3 X2.2031 Y1.4398 I0.0117 J-0.0032
G3 X2.2032 Y1.4383 I0.0122 J0
G3 X2.2047 Y1.4338 I0.0121 J0.0015
G3 X2.2068 Y1.4311 I0.0108 J0.0061
G3 X2.2078 Y1.4302 I0.0087 J0.0088
G1 Z-0.4 F30
G3 X2.3972 Y1.3357 I0.3325 J0.429 F60
G3 X2.5011 Y1.3179 I0.143 J0.5234
G3 X2.6084 Y1.3208 I0.0391 J0.5412
G3 X2.8092 Y1.3878 I-0.0682 J0.5383
G3 X2.9688 Y1.5262 I-0.269 J0.4714
G3 X2.9712 Y1.5311 I-0.0112 J0.0086
G3 X2.9716 Y1.5334 I-0.0124 J0.0034
G3 X2.9716 Y1.5345 I-0.0128 J0.0011
G3 X2.9715 Y1.5361 I-0.0129 J0
G3 X2.97 Y1.5407 I-0.0122 J-0.0015
G3 X2.9689 Y1.5423 I-0.0106 J-0.006
G3 X2.9669 Y1.5442 I-0.0095 J-0.0077
G3 X2.9626 Y1.5464 I-0.0075 J-0.0097
G3 X2.9579 Y1.5467 I-0.0032 J-0.0118
G3 X2.9534 Y1.5452 I0.0015 J-0.0121
G3 X2.9507 Y1.5431 I0.0061 J-0.0107
G3 X2.9497 Y1.542 I0.0088 J-0.0086
G2 X2.9052 Y1.4917 I-0.4101 J0.3182
G2 X2.797 Y1.4094 I-0.3655 J0.3685
G2 X2.6053 Y1.3454 I-0.2569 J0.4499
G2 X2.4037 Y1.3596 I-0.0651 J0.5137
G2 X2.2233 Y1.4495 I0.1364 J0.4994
G3 X2.2189 Y1.4517 I-0.0078 J-0.0106
G3 X2.2139 Y1.452 I-0.0033 J-0.0125
G3 X2.2093 Y1.4505 I0.0016 J-0.0124
G3 X2.2057 Y1.4474 I0.006 J-0.0105
G3 X2.2035 Y1.443 I0.0098 J-0.0076
G3 X2.2031 Y1.4398 I0.0117 J-0.0032
G3 X2.2032 Y1.4383 I0.0122 J0
G3 X2.2047 Y1.4338 I0.0121 J0.0015
G3 X2.2068 Y1.4311 I0.0108 J0.0061
G3 X2.2078 Y1.4302 I0.0087 J0.0088
G1 Z-0.5 F30
G3 X2.3972 Y1.3357 I0.3325 J0.429 F60
G3 X2.5011 Y1.3179 I0.143 J0.5234
G3 X2.6084 Y1.3208 I0.0391 J0.5412
G3 X2.8092 Y1.3878 I-0.0682 J0.5383
G3 X2.9688 Y1.5262 I-0.269 J0.4714
G3 X2.9712 Y1.5311 I-0.0112 J0.0086
G3 X2.9716 Y1.5334 I-0.0124 J0.0034
G3 X2.9716 Y1.5345 I-0.0128 J0.0011
G3 X2.9715 Y1.5361 I-0.0129 J0
G3 X2.97 Y1.5407 I-0.0122 J-0.0015
G3 X2.9689 Y1.5423 I-0.0106 J-0.006
G3 X2.9669 Y1.5442 I-0.0095 J-0.0077
G3 X2.9626 Y1.5464 I-0.0075 J-0.0097
G3 X2.9579 Y1.5467 I-0.0032 J-0.0118
G3 X2.9534 Y1.5452 I0.0015 J-0.0121
G3 X2.9507 Y1.5431 I0.0061 J-0.0107
G3 X2.9497 Y1.542 I0.0088 J-0.0086
G2 X2.9052 Y1.4917 I-0.4101 J0.3182
G2 X2.797 Y1.4094 I-0.3655 J0.3685
G2 X2.6053 Y1.3454 I-0.2569 J0.4499
G2 X2.4037 Y1.3596 I-0.0651 J0.5137
G2 X2.2233 Y1.4495 I0.1364 J0.4994
G3 X2.2189 Y1.4517 I-0.0078 J-0.0106
G3 X2.2139 Y1.452 I-0.0033 J-0.0125
G3 X2.2093 Y1.4505 I0.0016 J-0.0124
G3 X2.2057 Y1.4474 I0.006 J-0.0105
G3 X2.2035 Y1.443 I0.0098 J-0.0076
G3 X2.2031 Y1.4398 I0.0117 J-0.0032
G3 X2.2032 Y1.4383 I0.0122 J0
G3 X2.2047 Y1.4338 I0.0121 J0.0015
G3 X2.2068 Y1.4311 I0.0108 J0.0061
G3 X2.2078 Y1.4302 I0.0087 J0.0088
G1 Z-0.6 F30
G3 X2.3972 Y1.3357 I0.3325 J0.429 F60
G3 X2.5011 Y1.3179 I0.143 J0.5234
G3 X2.6084 Y1.3208 I0.0391 J0.5412
G3 X2.8092 Y1.3878 I-0.0682 J0.5383
G3 X2.9688 Y1.5262 I-0.269 J0.4714
G3 X2.9712 Y1.5311 I-0.0112 J0.0086
G3 X2.9716 Y1.5334 I-0.0124 J0.0034
G3 X2.9716 Y1.5345 I-0.0128 J0.0011
G3 X2.9715 Y1.5361 I-0.0129 J0
G3 X2.97 Y1.5407 I-0.0122 J-0.0015
G3 X2.9689 Y1.5423 I-0.0106 J-0.006
G3 X2.9669 Y1.5442 I-0.0095 J-0.0077
G3 X2.9626 Y1.5464 I-0.0075 J-0.0097
G3 X2.9579 Y1.5467 I-0.0032 J-0.0118
G3 X2.9534 Y1.5452 I0.0015 J-0.0121
G3 X2.9507 Y1.5431 I0.0061 J-0.0107
G3 X2.9497 Y1.542 I0.0088 J-0.0086
G2 X2.9052 Y1.4917 I-0.4101 J0.3182
G2 X2.797 Y1.4094 I-0.3655 J0.3685
G2 X2.6053 Y1.3454 I-0.2569 J0.4499
G2 X2.4037 Y1.3596 I-0.0651 J0.5137
G2 X2.2233 Y1.4495 I0.1364 J0.4994
G3 X2.2189 Y1.4517 I-0.0078 J-0.0106
G3 X2.2139 Y1.452 I-0.0033 J-0.0125
G3 X2.2093 Y1.4505 I0.0016 J-0.0124
G3 X2.2057 Y1.4474 I0.006 J-0.0105
G3 X2.2035 Y1.443 I0.0098 J-0.0076
G3 X2.2031 Y1.4398 I0.0117 J-0.0032
G3 X2.2032 Y1.4383 I0.0122 J0
G3 X2.2047 Y1.4338 I0.0121 J0.0015
G3 X2.2068 Y1.4311 I0.0108 J0.0061
G3 X2.2078 Y1.4302 I0.0087 J0.0088
G1 Z-0.7 F30
G3 X2.3972 Y1.3357 I0.3325 J0.429 F60
G3 X2.5011 Y1.3179 I0.143 J0.5234
G3 X2.6084 Y1.3208 I0.0391 J0.5412
G3 X2.8092 Y1.3878 I-0.0682 J0.5383
G3 X2.9688 Y1.5262 I-0.269 J0.4714
G3 X2.9712 Y1.5311 I-0.0112 J0.0086
G3 X2.9716 Y1.5334 I-0.0124 J0.0034
G3 X2.9716 Y1.5345 I-0.0128 J0.0011
G3 X2.9715 Y1.5361 I-0.0129 J0
G3 X2.97 Y1.5407 I-0.0122 J-0.0015
G3 X2.9689 Y1.5423 I-0.0106 J-0.006
G3 X2.9669 Y1.5442 I-0.0095 J-0.0077
G3 X2.9626 Y1.5464 I-0.0075 J-0.0097
G3 X2.9579 Y1.5467 I-0.0032 J-0.0118
G3 X2.9534 Y1.5452 I0.0015 J-0.0121
G3 X2.9507 Y1.5431 I0.0061 J-0.0107
G3 X2.9497 Y1.542 I0.0088 J-0.0086
G2 X2.9052 Y1.4917 I-0.4101 J0.3182
G2 X2.797 Y1.4094 I-0.3655 J0.3685
G2 X2.6053 Y1.3454 I-0.2569 J0.4499
G2 X2.4037 Y1.3596 I-0.0651 J0.5137
G2 X2.2233 Y1.4495 I0.1364 J0.4994
G3 X2.2189 Y1.4517 I-0.0078 J-0.0106
G3 X2.2139 Y1.452 I-0.0033 J-0.0125
G3 X2.2093 Y1.4505 I0.0016 J-0.0124
G3 X2.2057 Y1.4474 I0.006 J-0.0105
G3 X2.2035 Y1.443 I0.0098 J-0.0076
G3 X2.2031 Y1.4398 I0.0117 J-0.0032
G3 X2.2032 Y1.4383 I0.0122 J0
G3 X2.2047 Y1.4338 I0.0121 J0.0015
G3 X2.2068 Y1.4311 I0.0108 J0.0061
G3 X2.2078 Y1.4302 I0.0087 J0.0088
G1 Z-0.8 F30
G3 X2.3972 Y1.3357 I0.3325 J0.429 F60
G3 X2.5011 Y1.3179 I0.143 J0.5234
G3 X2.6084 Y1.3208 I0.0391 J0.5412
G3 X2.8092 Y1.3878 I-0.0682 J0.5383
G3 X2.9688 Y1.5262 I-0.269 J0.4714
G3 X2.9712 Y1.5311 I-0.0112 J0.0086
G3 X2.9716 Y1.5334 I-0.0124 J0.0034
G3 X2.9716 Y1.5345 I-0.0128 J0.0011
G3 X2.9715 Y1.5361 I-0.0129 J0
G3 X2.97 Y1.5407 I-0.0122 J-0.0015
G3 X2.9689 Y1.5423 I-0.0106 J-0.006
G3 X2.9669 Y1.5442 I-0.0095 J-0.0077
G3 X2.9626 Y1.5464 I-0.0075 J-0.0097
G3 X2.9579 Y1.5467 I-0.0032 J-0.0118
G3 X2.9534 Y1.5452 I0.0015 J-0.0121
G3 X2.9507 Y1.5431 I0.0061 J-0.0107
G3 X2.9497 Y1.542 I0.0088 J-0.0086
G2 X2.9052 Y1.4917 I-0.4101 J0.3182
G2 X2.797 Y1.4094 I-0.3655 J0.3685
G2 X2.6053 Y1.3454 I-0.2569 J0.4499
G2 X2.4037 Y1.3596 I-0.0651 J0.5137
G2 X2.2233 Y1.4495 I0.1364 J0.4994
G3 X2.2189 Y1.4517 I-0.0078 J-0.0106
G3 X2.2139 Y1.452 I-0.0033 J-0.0125
G3 X2.2093 Y1.4505 I0.0016 J-0.0124
G3 X2.2057 Y1.4474 I0.006 J-0.0105
G3 X2.2035 Y1.443 I0.0098 J-0.0076
G3 X2.2031 Y1.4398 I0.0117 J-0.0032
G3 X2.2032 Y1.4383 I0.0122 J0
G3 X2.2047 Y1.4338 I0.0121 J0.0015
G3 X2.2068 Y1.4311 I0.0108 J0.0061
G3 X2.2078 Y1.4302 I0.0087 J0.0088
G0 Z0.25
G0 X2.8091 Y1.388
G1 Z-0.1 F30
G3 X2.969 Y1.527 I-0.2696 J0.4716 F60
G3 X2.9712 Y1.5314 I-0.0099 J0.0076
G3 X2.9716 Y1.5334 I-0.0118 J0.0032
G3 X2.9716 Y1.5346 I-0.0121 J0.0012
G3 X2.9715 Y1.5361 I-0.0122 J0
G3 X2.97 Y1.5406 I-0.012 J-0.0015
G3 X2.9689 Y1.5423 I-0.0107 J-0.0061
G3 X2.9669 Y1.5442 I-0.0095 J-0.0078
G3 X2.9627 Y1.5463 I-0.0074 J-0.0096
G3 X2.958 Y1.5467 I-0.0032 J-0.0117
G3 X2.9534 Y1.5451 I0.0016 J-0.0124
G3 X2.9507 Y1.5431 I0.0068 J-0.0119
G3 X2.9494 Y1.5417 I0.0095 J-0.0099
G2 X2.9052 Y1.4917 I-0.4091 J0.3172
G2 X2.7969 Y1.4093 I-0.3648 J0.3672
G2 X2.6052 Y1.3453 I-0.2569 J0.4502
G2 X2.4037 Y1.3594 I-0.0653 J0.5146
G2 X2.2228 Y1.4495 I0.1363 J0.5004
G3 X2.2185 Y1.4516 I-0.0075 J-0.0098
G3 X2.2138 Y1.4519 I-0.0032 J-0.0118
G3 X2.2093 Y1.4504 I0.0015 J-0.012
G3 X2.2057 Y1.4473 I0.006 J-0.0104
G3 X2.2036 Y1.443 I0.0097 J-0.0075
G3 X2.2031 Y1.4398 I0.0117 J-0.0032
G3 X2.2032 Y1.4383 I0.0121 J0
G3 X2.2047 Y1.4338 I0.0122 J0.0015
G3 X2.2068 Y1.4311 I0.0111 J0.0063
G3 X2.2079 Y1.4301 I0.0091 J0.009
G3 X2.3972 Y1.3356 I0.3322 J0.4286
G3 X2.5011 Y1.3179 I0.1428 J0.523
G3 X2.6083 Y1.3208 I0.0389 J0.5407
G3 X2.8091 Y1.388 I-0.0683 J0.5378
G1 Z-0.2 F30
G3 X2.969 Y1.527 I-0.2696 J0.4716 F60
G3 X2.9712 Y1.5314 I-0.0099 J0.0076
G3 X2.9716 Y1.5334 I-0.0118 J0.0032
G3 X2.9716 Y1.5346 I-0.0121 J0.0012
G3 X2.9715 Y1.5361 I-0.0122 J0
G3 X2.97 Y1.5406 I-0.012 J-0.0015
G3 X2.9689 Y1.5423 I-0.0107 J-0.0061
G3 X2.9669 Y1.5442 I-0.0095 J-0.0078
G3 X2.9627 Y1.5463 I-0.0074 J-0.0096
G3 X2.958 Y1.5467 I-0.0032 J-0.0117
G3 X2.9534 Y1.5451 I0.0016 J-0.0124
G3 X2.9507 Y1.5431 I0.0068 J-0.0119
G3 X2.9494 Y1.5417 I0.0095 J-0.0099
G2 X2.9052 Y1.4917 I-0.4091 J0.3172
G2 X2.7969 Y1.4093 I-0.3648 J0.3672
G2 X2.6052 Y1.3453 I-0.2569 J0.4502
G2 X2.4037 Y1.3594 I-0.0653 J0.5146
G2 X2.2228 Y1.4495 I0.1363 J0.5004
G3 X2.2185 Y1.4516 I-0.0075 J-0.0098
G3 X2.2138 Y1.4519 I-0.0032 J-0.0118
G3 X2.2093 Y1.4504 I0.0015 J-0.012
G3 X2.2057 Y1.4473 I0.006 J-0.0104
G3 X2.2036 Y1.443 I0.0097 J-0.0075
G3 X2.2031 Y1.4398 I0.0117 J-0.0032
G3 X2.2032 Y1.4383 I0.0121 J0
G3 X2.2047 Y1.4338 I0.0122 J0.0015
G3 X2.2068 Y1.4311 I0.0111 J0.0063
G3 X2.2079 Y1.4301 I0.0091 J0.009
G3 X2.3972 Y1.3356 I0.3322 J0.4286
G3 X2.5011 Y1.3179 I0.1428 J0.523
G3 X2.6083 Y1.3208 I0.0389 J0.5407
G3 X2.8091 Y1.388 I-0.0683 J0.5378
G1 Z-0.3 F30
G3 X2.969 Y1.527 I-0.2696 J0.4716 F60
G3 X2.9712 Y1.5314 I-0.0099 J0.0076
G3 X2.9716 Y1.5334 I-0.0118 J0.0032
G3 X2.9716 Y1.5346 I-0.0121 J0.0012
G3 X2.9715 Y1.5361 I-0.0122 J0
G3 X2.97 Y1.5406 I-0.012 J-0.0015
G3 X2.9689 Y1.5423 I-0.0107 J-0.0061
G3 X2.9669 Y1.5442 I-0.0095 J-0.0078
G3 X2.9627 Y1.5463 I-0.0074 J-0.0096
G3 X2.958 Y1.5467 I-0.0032 J-0.0117
G3 X2.9534 Y1.5451 I0.0016 J-0.0124
G3 X2.9507 Y1.5431 I0.0068 J-0.0119
G3 X2.9494 Y1.5417 I0.0095 J-0.0099
G2 X2.9052 Y1.4917 I-0.4091 J0.3172
G2 X2.7969 Y1.4093 I-0.3648 J0.3672
G2 X2.6052 Y1.3453 I-0.2569 J0.4502
G2 X2.4037 Y1.3594 I-0.0653 J0.5146
G2 X2.2228 Y1.4495 I0.1363 J0.5004
G3 X2.2185 Y1.4516 I-0.0075 J-0.0098
G3 X2.2138 Y1.4519 I-0.0032 J-0.0118
G3 X2.2093 Y1.4504 I0.0015 J-0.012
G3 X2.2057 Y1.4473 I0.006 J-0.0104
G3 X2.2036 Y1.443 I0.0097 J-0.0075
G3 X2.2031 Y1.4398 I0.0117 J-0.0032
G3 X2.2032 Y1.4383 I0.0121 J0
G3 X2.2047 Y1.4338 I0.0122 J0.0015
G3 X2.2068 Y1.4311 I0.0111 J0.0063
G3 X2.2079 Y1.4301 I0.0091 J0.009
G3 X2.3972 Y1.3356 I0.3322 J0.4286
G3 X2.5011 Y1.3179 I0.1428 J0.523
G3 X2.6083 Y1.3208 I0.0389 J0.5407
G3 X2.8091 Y1.388 I-0.0683 J0.5378
G1 Z-0.4 F30
G3 X2.969 Y1.527 I-0.2696 J0.4716 F60
G3 X2.9712 Y1.5314 I-0.0099 J0.0076
G3 X2.9716 Y1.5334 I-0.0118 J0.0032
G3 X2.9716 Y1.5346 I-0.0121 J0.0012
G3 X2.9715 Y1.5361 I-0.0122 J0
G3 X2.97 Y1.5406 I-0.012 J-0.0015
G3 X2.9689 Y1.5423 I-0.0107 J-0.0061
G3 X2.9669 Y1.5442 I-0.0095 J-0.0078
G3 X2.9627 Y1.5463 I-0.0074 J-0.0096
G3 X2.958 Y1.5467 I-0.0032 J-0.0117
G3 X2.9534 Y1.5451 I0.0016 J-0.0124
G3 X2.9507 Y1.5431 I0.0068 J-0.0119
G3 X2.9494 Y1.5417 I0.0095 J-0.0099
G2 X2.9052 Y1.4917 I-0.4091 J0.3172
G2 X2.7969 Y1.4093 I-0.3648 J0.3672
G2 X2.6052 Y1.3453 I-0.2569 J0.4502
G2 X2.4037 Y1.3594 I-0.0653 J0.5146
G2 X2.2228 Y1.4495 I0.1363 J0.5004
G3 X2.2185 Y1.4516 I-0.0075 J-0.0098
G3 X2.2138 Y1.4519 I-0.0032 J-0.0118
G3 X2.2093 Y1.4504 I0.0015 J-0.012
G3 X2.2057 Y1.4473 I0.006 J-0.0104
G3 X2.2036 Y1.443 I0.0097 J-0.0075
G3 X2.2031 Y1.4398 I0.0117 J-0.0032
G3 X2.2032 Y1.4383 I0.0121 J0
G3 X2.2047 Y1.4338 I0.0122 J0.0015
G3 X2.2068 Y1.4311 I0.0111 J0.0063
G3 X2.2079 Y1.4301 I0.0091 J0.009
G3 X2.3972 Y1.3356 I0.3322 J0.4286
G3 X2.5011 Y1.3179 I0.1428 J0.523
G3 X2.6083 Y1.3208 I0.0389 J0.5407
G3 X2.8091 Y1.388 I-0.0683 J0.5378
G1 Z-0.5 F30
G3 X2.969 Y1.527 I-0.2696 J0.4716 F60
G3 X2.9712 Y1.5314 I-0.0099 J0.0076
G3 X2.9716 Y1.5334 I-0.0118 J0.0032
G3 X2.9716 Y1.5346 I-0.0121 J0.0012
G3 X2.9715 Y1.5361 I-0.0122 J0
G3 X2.97 Y1.5406 I-0.012 J-0.0015
G3 X2.9689 Y1.5423 I-0.0107 J-0.0061
G3 X2.9669 Y1.5442 I-0.0095 J-0.0078
G3 X2.9627 Y1.5463 I-0.0074 J-0.0096
G3 X2.958 Y1.5467 I-0.0032 J-0.0117
G3 X2.9534 Y1.5451 I0.0016 J-0.0124
G3 X2.9507 Y1.5431 I0.0068 J-0.0119
G3 X2.9494 Y1.5417 I0.0095 J-0.0099
G2 X2.9052 Y1.4917 I-0.4091 J0.3172
G2 X2.7969 Y1.4093 I-0.3648 J0.3672
G2 X2.6052 Y1.3453 I-0.2569 J0.4502
G2 X2.4037 Y1.3594 I-0.0653 J0.5146
G2 X2.2228 Y1.4495 I0.1363 J0.5004
G3 X2.2185 Y1.4516 I-0.0075 J-0.0098
G3 X2.2138 Y1.4519 I-0.0032 J-0.0118
G3 X2.2093 Y1.4504 I0.0015 J-0.012
G3 X2.2057 Y1.4473 I0.006 J-0.0104
G3 X2.2036 Y1.443 I0.0097 J-0.0075
G3 X2.2031 Y1.4398 I0.0117 J-0.0032
G3 X2.2032 Y1.4383 I0.0121 J0
G3 X2.2047 Y1.4338 I0.0122 J0.0015
G3 X2.2068 Y1.4311 I0.0111 J0.0063
G3 X2.2079 Y1.4301 I0.0091 J0.009
G3 X2.3972 Y1.3356 I0.3322 J0.4286
G3 X2.5011 Y1.3179 I0.1428 J0.523
G3 X2.6083 Y1.3208 I0.0389 J0.5407
G3 X2.8091 Y1.388 I-0.0683 J0.5378
G1 Z-0.6 F30
G3 X2.969 Y1.527 I-0.2696 J0.4716 F60
G3 X2.9712 Y1.5314 I-0.0099 J0.0076
G3 X2.9716 Y1.5334 I-0.0118 J0.0032
G3 X2.9716 Y1.5346 I-0.0121 J0.0012
G3 X2.9715 Y1.5361 I-0.0122 J0
G3 X2.97 Y1.5406 I-0.012 J-0.0015
G3 X2.9689 Y1.5423 I-0.0107 J-0.0061
G3 X2.9669 Y1.5442 I-0.0095 J-0.0078
G3 X2.9627 Y1.5463 I-0.0074 J-0.0096
G3 X2.958 Y1.5467 I-0.0032 J-0.0117
G3 X2.9534 Y1.5451 I0.0016 J-0.0124
G3 X2.9507 Y1.5431 I0.0068 J-0.0119
G3 X2.9494 Y1.5417 I0.0095 J-0.0099
G2 X2.9052 Y1.4917 I-0.4091 J0.3172
G2 X2.7969 Y1.4093 I-0.3648 J0.3672
G2 X2.6052 Y1.3453 I-0.2569 J0.4502
G2 X2.4037 Y1.3594 I-0.0653 J0.5146
G2 X2.2228 Y1.4495 I0.1363 J0.5004
G3 X2.2185 Y1.4516 I-0.0075 J-0.0098
G3 X2.2138 Y1.4519 I-0.0032 J-0.0118
G3 X2.2093 Y1.4504 I0.0015 J-0.012
G3 X2.2057 Y1.4473 I0.006 J-0.0104
G3 X2.2036 Y1.443 I0.0097 J-0.0075
G3 X2.2031 Y1.4398 I0.0117 J-0.0032
G3 X2.2032 Y1.4383 I0.0121 J0
G3 X2.2047 Y1.4338 I0.0122 J0.0015
G3 X2.2068 Y1.4311 I0.0111 J0.0063
G3 X2.2079 Y1.4301 I0.0091 J0.009
G3 X2.3972 Y1.3356 I0.3322 J0.4286
G3 X2.5011 Y1.3179 I0.1428 J0.523
G3 X2.6083 Y1.3208 I0.0389 J0.5407
G3 X2.8091 Y1.388 I-0.0683 J0.5378
G1 Z-0.7 F30
G3 X2.969 Y1.527 I-0.2696 J0.4716 F60
G3 X2.9712 Y1.5314 I-0.0099 J0.0076
G3 X2.9716 Y1.5334 I-0.0118 J0.0032
G3 X2.9716 Y1.5346 I-0.0121 J0.0012
G3 X2.9715 Y1.5361 I-0.0122 J0
G3 X2.97 Y1.5406 I-0.012 J-0.0015
G3 X2.9689 Y1.5423 I-0.0107 J-0.0061
G3 X2.9669 Y1.5442 I-0.0095 J-0.0078
G3 X2.9627 Y1.5463 I-0.0074 J-0.0096
G3 X2.958 Y1.5467 I-0.0032 J-0.0117
G3 X2.9534 Y1.5451 I0.0016 J-0.0124
G3 X2.9507 Y1.5431 I0.0068 J-0.0119
G3 X2.9494 Y1.5417 I0.0095 J-0.0099
G2 X2.9052 Y1.4917 I-0.4091 J0.3172
G2 X2.7969 Y1.4093 I-0.3648 J0.3672
G2 X2.6052 Y1.3453 I-0.2569 J0.4502
G2 X2.4037 Y1.3594 I-0.0653 J0.5146
G2 X2.2228 Y1.4495 I0.1363 J0.5004
G3 X2.2185 Y1.4516 I-0.0075 J-0.0098
G3 X2.2138 Y1.4519 I-0.0032 J-0.0118
G3 X2.2093 Y1.4504 I0.0015 J-0.012
G3 X2.2057 Y1.4473 I0.006 J-0.0104
G3 X2.2036 Y1.443 I0.0097 J-0.0075
G3 X2.2031 Y1.4398 I0.0117 J-0.0032
G3 X2.2032 Y1.4383 I0.0121 J0
G3 X2.2047 Y1.4338 I0.0122 J0.0015
G3 X2.2068 Y1.4311 I0.0111 J0.0063
G3 X2.2079 Y1.4301 I0.0091 J0.009
G3 X2.3972 Y1.3356 I0.3322 J0.4286
G3 X2.5011 Y1.3179 I0.1428 J0.523
G3 X2.6083 Y1.3208 I0.0389 J0.5407
G3 X2.8091 Y1.388 I-0.0683 J0.5378
G1 Z-0.8 F30
G3 X2.969 Y1.527 I-0.2696 J0.4716 F60
G3 X2.9712 Y1.5314 I-0.0099 J0.0076
G3 X2.9716 Y1.5334 I-0.0118 J0.0032
G3 X2.9716 Y1.5346 I-0.0121 J0.0012
G3 X2.9715 Y1.5361 I-0.0122 J0
G3 X2.97 Y1.5406 I-0.012 J-0.0015
G3 X2.9689 Y1.5423 I-0.0107 J-0.0061
G3 X2.9669 Y1.5442 I-0.0095 J-0.0078
G3 X2.9627 Y1.5463 I-0.0074 J-0.0096
G3 X2.958 Y1.5467 I-0.0032 J-0.0117
G3 X2.9534 Y1.5451 I0.0016 J-0.0124
G3 X2.9507 Y1.5431 I0.0068 J-0.0119
G3 X2.9494 Y1.5417 I0.0095 J-0.0099
G2 X2.9052 Y1.4917 I-0.4091 J0.3172
G2 X2.7969 Y1.4093 I-0.3648 J0.3672
G2 X2.6052 Y1.3453 I-0.2569 J0.4502
G2 X2.4037 Y1.3594 I-0.0653 J0.5146
G2 X2.2228 Y1.4495 I0.1363 J0.5004
G3 X2.2185 Y1.4516 I-0.0075 J-0.0098
G3 X2.2138 Y1.4519 I-0.0032 J-0.0118
G3 X2.2093 Y1.4504 I0.0015 J-0.012
G3 X2.2057 Y1.4473 I0.006 J-0.0104
G3 X2.2036 Y1.443 I0.0097 J-0.0075
G3 X2.2031 Y1.4398 I0.0117 J-0.0032
G3 X2.2032 Y1.4383 I0.0121 J0
G3 X2.2047 Y1.4338 I0.0122 J0.0015
G3 X2.2068 Y1.4311 I0.0111 J0.0063
G3 X2.2079 Y1.4301 I0.0091 J0.009
G3 X2.3972 Y1.3356 I0.3322 J0.4286
G3 X2.5011 Y1.3179 I0.1428 J0.523
G3 X2.6083 Y1.3208 I0.0389 J0.5407
G3 X2.8091 Y1.388 I-0.0683 J0.5378
G0 Z0.25
M5
M30
