(Generated by PartKam Version 0.05)

G20 G90 G40

(mouth)
G0 Z0.25
T0 M6
G17
M3
G0 X2.8711 Y1.2792
G1 Z-0.1 F30
G3 X3.0681 Y1.4504 I-0.331 J0.58 F60
G3 X3.0918 Y1.4983 I-0.1106 J0.0845
G3 X3.096 Y1.5218 I-0.1331 J0.0361
G3 X3.0966 Y1.5346 I-0.1366 J0.0128
G3 X3.0956 Y1.5518 I-0.1372 J0
G3 X3.0786 Y1.6026 I-0.136 J-0.0171
G3 X3.0655 Y1.6216 I-0.1192 J-0.068
G3 X3.0435 Y1.643 I-0.1061 J-0.0871
G3 X2.9955 Y1.6669 I-0.084 J-0.1084
G3 X2.942 Y1.6706 I-0.036 J-0.1323
G3 X2.8912 Y1.6536 I0.0175 J-0.1363
G3 X2.8627 Y1.6319 I0.069 J-0.1204
G3 X2.8506 Y1.6183 I0.0975 J-0.0987
G2 X2.8171 Y1.5804 I-0.3103 J0.2406
G2 X2.735 Y1.5179 I-0.2767 J0.2785
G2 X2.5895 Y1.4693 I-0.1949 J0.3416
G2 X2.4365 Y1.48 I-0.0495 J0.3905
G2 X2.2993 Y1.5484 I0.1034 J0.3798
G3 X2.2514 Y1.5722 I-0.084 J-0.1086
G3 X2.198 Y1.576 I-0.0361 J-0.1324
G3 X2.1473 Y1.559 I0.0173 J-0.136
G3 X2.1069 Y1.5239 I0.068 J-0.119
G3 X2.083 Y1.476 I0.1085 J-0.0841
G3 X2.0781 Y1.4398 I0.1322 J-0.0362
G3 X2.0792 Y1.4226 I0.1371 J0
G3 X2.0961 Y1.3719 I0.1362 J0.0172
G3 X2.1186 Y1.3425 I0.1197 J0.0683
G3 X2.1313 Y1.3313 I0.0972 J0.0976
G3 X2.3643 Y1.215 I0.4088 J0.5274
G3 X2.4921 Y1.1932 I0.1757 J0.6436
G3 X2.6241 Y1.1968 I0.0479 J0.6654
G3 X2.8711 Y1.2795 I-0.0841 J0.6619
G3 X3.0678 Y1.4505 I-0.3317 J0.5801
G3 X3.0918 Y1.4984 I-0.1087 J0.0842
G3 X3.096 Y1.5218 I-0.1323 J0.0362
G3 X3.0966 Y1.5345 I-0.1373 J0.0127
G3 X3.0955 Y1.5517 I-0.1379 J0
G3 X3.0786 Y1.6025 I-0.1362 J-0.0171
G3 X3.0655 Y1.6216 I-0.1192 J-0.0679
G3 X3.0435 Y1.6431 I-0.1061 J-0.087
G3 X2.9955 Y1.6669 I-0.0841 J-0.1086
G3 X2.9422 Y1.6707 I-0.0361 J-0.1324
G3 X2.8914 Y1.6537 I0.0173 J-0.1361
G3 X2.8627 Y1.6319 I0.0681 J-0.1193
G3 X2.851 Y1.6186 I0.0968 J-0.0974
G2 X2.8171 Y1.5804 I-0.3113 J0.2416
G2 X2.735 Y1.518 I-0.2775 J0.2798
G2 X2.5896 Y1.4694 I-0.1949 J0.3414
G2 X2.4367 Y1.4802 I-0.0494 J0.3897
G2 X2.2995 Y1.5486 I0.1035 J0.3789
G1 X2.299 Y1.549
G3 X2.2511 Y1.5724 I-0.0836 J-0.1101
G3 X2.1979 Y1.576 I-0.0356 J-0.1333
G3 X2.1472 Y1.559 I0.0176 J-0.1364
G3 X2.1069 Y1.5239 I0.068 J-0.119
G3 X2.083 Y1.476 I0.1086 J-0.0841
G3 X2.0781 Y1.4398 I0.1323 J-0.0362
G3 X2.0792 Y1.4227 I0.1372 J0
G3 X2.0961 Y1.3719 I0.1361 J0.0172
G3 X2.1186 Y1.3425 I0.1194 J0.068
G3 X2.1312 Y1.3314 I0.0969 J0.0974
G3 X2.3643 Y1.2151 I0.409 J0.5278
G3 X2.4921 Y1.1932 I0.176 J0.644
G3 X2.6241 Y1.1968 I0.0481 J0.6658
G3 X2.8711 Y1.2792 I-0.0839 J0.6623
G1 Z-0.2 F30
G3 X3.0681 Y1.4504 I-0.331 J0.58 F60
G3 X3.0918 Y1.4983 I-0.1106 J0.0845
G3 X3.096 Y1.5218 I-0.1331 J0.0361
G3 X3.0966 Y1.5346 I-0.1366 J0.0128
G3 X3.0956 Y1.5518 I-0.1372 J0
G3 X3.0786 Y1.6026 I-0.136 J-0.0171
G3 X3.0655 Y1.6216 I-0.1192 J-0.068
G3 X3.0435 Y1.643 I-0.1061 J-0.0871
G3 X2.9955 Y1.6669 I-0.084 J-0.1084
G3 X2.942 Y1.6706 I-0.036 J-0.1323
G3 X2.8912 Y1.6536 I0.0175 J-0.1363
G3 X2.8627 Y1.6319 I0.069 J-0.1204
G3 X2.8506 Y1.6183 I0.0975 J-0.0987
G2 X2.8171 Y1.5804 I-0.3103 J0.2406
G2 X2.735 Y1.5179 I-0.2767 J0.2785
G2 X2.5895 Y1.4693 I-0.1949 J0.3416
G2 X2.4365 Y1.48 I-0.0495 J0.3905
G2 X2.2993 Y1.5484 I0.1034 J0.3798
G3 X2.2514 Y1.5722 I-0.084 J-0.1086
G3 X2.198 Y1.576 I-0.0361 J-0.1324
G3 X2.1473 Y1.559 I0.0173 J-0.136
G3 X2.1069 Y1.5239 I0.068 J-0.119
G3 X2.083 Y1.476 I0.1085 J-0.0841
G3 X2.0781 Y1.4398 I0.1322 J-0.0362
G3 X2.0792 Y1.4226 I0.1371 J0
G3 X2.0961 Y1.3719 I0.1362 J0.0172
G3 X2.1186 Y1.3425 I0.1197 J0.0683
G3 X2.1313 Y1.3313 I0.0972 J0.0976
G3 X2.3643 Y1.215 I0.4088 J0.5274
G3 X2.4921 Y1.1932 I0.1757 J0.6436
G3 X2.6241 Y1.1968 I0.0479 J0.6654
G3 X2.8711 Y1.2795 I-0.0841 J0.6619
G3 X3.0678 Y1.4505 I-0.3317 J0.5801
G3 X3.0918 Y1.4984 I-0.1087 J0.0842
G3 X3.096 Y1.5218 I-0.1323 J0.0362
G3 X3.0966 Y1.5345 I-0.1373 J0.0127
G3 X3.0955 Y1.5517 I-0.1379 J0
G3 X3.0786 Y1.6025 I-0.1362 J-0.0171
G3 X3.0655 Y1.6216 I-0.1192 J-0.0679
G3 X3.0435 Y1.6431 I-0.1061 J-0.087
G3 X2.9955 Y1.6669 I-0.0841 J-0.1086
G3 X2.9422 Y1.6707 I-0.0361 J-0.1324
G3 X2.8914 Y1.6537 I0.0173 J-0.1361
G3 X2.8627 Y1.6319 I0.0681 J-0.1193
G3 X2.851 Y1.6186 I0.0968 J-0.0974
G2 X2.8171 Y1.5804 I-0.3113 J0.2416
G2 X2.735 Y1.518 I-0.2775 J0.2798
G2 X2.5896 Y1.4694 I-0.1949 J0.3414
G2 X2.4367 Y1.4802 I-0.0494 J0.3897
G2 X2.2995 Y1.5486 I0.1035 J0.3789
G1 X2.299 Y1.549
G3 X2.2511 Y1.5724 I-0.0836 J-0.1101
G3 X2.1979 Y1.576 I-0.0356 J-0.1333
G3 X2.1472 Y1.559 I0.0176 J-0.1364
G3 X2.1069 Y1.5239 I0.068 J-0.119
G3 X2.083 Y1.476 I0.1086 J-0.0841
G3 X2.0781 Y1.4398 I0.1323 J-0.0362
G3 X2.0792 Y1.4227 I0.1372 J0
G3 X2.0961 Y1.3719 I0.1361 J0.0172
G3 X2.1186 Y1.3425 I0.1194 J0.068
G3 X2.1312 Y1.3314 I0.0969 J0.0974
G3 X2.3643 Y1.2151 I0.409 J0.5278
G3 X2.4921 Y1.1932 I0.176 J0.644
G3 X2.6241 Y1.1968 I0.0481 J0.6658
G3 X2.8711 Y1.2792 I-0.0839 J0.6623
G1 Z-0.3 F30
G3 X3.0681 Y1.4504 I-0.331 J0.58 F60
G3 X3.0918 Y1.4983 I-0.1106 J0.0845
G3 X3.096 Y1.5218 I-0.1331 J0.0361
G3 X3.0966 Y1.5346 I-0.1366 J0.0128
G3 X3.0956 Y1.5518 I-0.1372 J0
G3 X3.0786 Y1.6026 I-0.136 J-0.0171
G3 X3.0655 Y1.6216 I-0.1192 J-0.068
G3 X3.0435 Y1.643 I-0.1061 J-0.0871
G3 X2.9955 Y1.6669 I-0.084 J-0.1084
G3 X2.942 Y1.6706 I-0.036 J-0.1323
G3 X2.8912 Y1.6536 I0.0175 J-0.1363
G3 X2.8627 Y1.6319 I0.069 J-0.1204
G3 X2.8506 Y1.6183 I0.0975 J-0.0987
G2 X2.8171 Y1.5804 I-0.3103 J0.2406
G2 X2.735 Y1.5179 I-0.2767 J0.2785
G2 X2.5895 Y1.4693 I-0.1949 J0.3416
G2 X2.4365 Y1.48 I-0.0495 J0.3905
G2 X2.2993 Y1.5484 I0.1034 J0.3798
G3 X2.2514 Y1.5722 I-0.084 J-0.1086
G3 X2.198 Y1.576 I-0.0361 J-0.1324
G3 X2.1473 Y1.559 I0.0173 J-0.136
G3 X2.1069 Y1.5239 I0.068 J-0.119
G3 X2.083 Y1.476 I0.1085 J-0.0841
G3 X2.0781 Y1.4398 I0.1322 J-0.0362
G3 X2.0792 Y1.4226 I0.1371 J0
G3 X2.0961 Y1.3719 I0.1362 J0.0172
G3 X2.1186 Y1.3425 I0.1197 J0.0683
G3 X2.1313 Y1.3313 I0.0972 J0.0976
G3 X2.3643 Y1.215 I0.4088 J0.5274
G3 X2.4921 Y1.1932 I0.1757 J0.6436
G3 X2.6241 Y1.1968 I0.0479 J0.6654
G3 X2.8711 Y1.2795 I-0.0841 J0.6619
G3 X3.0678 Y1.4505 I-0.3317 J0.5801
G3 X3.0918 Y1.4984 I-0.1087 J0.0842
G3 X3.096 Y1.5218 I-0.1323 J0.0362
G3 X3.0966 Y1.5345 I-0.1373 J0.0127
G3 X3.0955 Y1.5517 I-0.1379 J0
G3 X3.0786 Y1.6025 I-0.1362 J-0.0171
G3 X3.0655 Y1.6216 I-0.1192 J-0.0679
G3 X3.0435 Y1.6431 I-0.1061 J-0.087
G3 X2.9955 Y1.6669 I-0.0841 J-0.1086
G3 X2.9422 Y1.6707 I-0.0361 J-0.1324
G3 X2.8914 Y1.6537 I0.0173 J-0.1361
G3 X2.8627 Y1.6319 I0.0681 J-0.1193
G3 X2.851 Y1.6186 I0.0968 J-0.0974
G2 X2.8171 Y1.5804 I-0.3113 J0.2416
G2 X2.735 Y1.518 I-0.2775 J0.2798
G2 X2.5896 Y1.4694 I-0.1949 J0.3414
G2 X2.4367 Y1.4802 I-0.0494 J0.3897
G2 X2.2995 Y1.5486 I0.1035 J0.3789
G1 X2.299 Y1.549
G3 X2.2511 Y1.5724 I-0.0836 J-0.1101
G3 X2.1979 Y1.576 I-0.0356 J-0.1333
G3 X2.1472 Y1.559 I0.0176 J-0.1364
G3 X2.1069 Y1.5239 I0.068 J-0.119
G3 X2.083 Y1.476 I0.1086 J-0.0841
G3 X2.0781 Y1.4398 I0.1323 J-0.0362
G3 X2.0792 Y1.4227 I0.1372 J0
G3 X2.0961 Y1.3719 I0.1361 J0.0172
G3 X2.1186 Y1.3425 I0.1194 J0.068
G3 X2.1312 Y1.3314 I0.0969 J0.0974
G3 X2.3643 Y1.2151 I0.409 J0.5278
G3 X2.4921 Y1.1932 I0.176 J0.644
G3 X2.6241 Y1.1968 I0.0481 J0.6658
G3 X2.8711 Y1.2792 I-0.0839 J0.6623
G1 Z-0.4 F30
G3 X3.0681 Y1.4504 I-0.331 J0.58 F60
G3 X3.0918 Y1.4983 I-0.1106 J0.0845
G3 X3.096 Y1.5218 I-0.1331 J0.0361
G3 X3.0966 Y1.5346 I-0.1366 J0.0128
G3 X3.0956 Y1.5518 I-0.1372 J0
G3 X3.0786 Y1.6026 I-0.136 J-0.0171
G3 X3.0655 Y1.6216 I-0.1192 J-0.068
G3 X3.0435 Y1.643 I-0.1061 J-0.0871
G3 X2.9955 Y1.6669 I-0.084 J-0.1084
G3 X2.942 Y1.6706 I-0.036 J-0.1323
G3 X2.8912 Y1.6536 I0.0175 J-0.1363
G3 X2.8627 Y1.6319 I0.069 J-0.1204
G3 X2.8506 Y1.6183 I0.0975 J-0.0987
G2 X2.8171 Y1.5804 I-0.3103 J0.2406
G2 X2.735 Y1.5179 I-0.2767 J0.2785
G2 X2.5895 Y1.4693 I-0.1949 J0.3416
G2 X2.4365 Y1.48 I-0.0495 J0.3905
G2 X2.2993 Y1.5484 I0.1034 J0.3798
G3 X2.2514 Y1.5722 I-0.084 J-0.1086
G3 X2.198 Y1.576 I-0.0361 J-0.1324
G3 X2.1473 Y1.559 I0.0173 J-0.136
G3 X2.1069 Y1.5239 I0.068 J-0.119
G3 X2.083 Y1.476 I0.1085 J-0.0841
G3 X2.0781 Y1.4398 I0.1322 J-0.0362
G3 X2.0792 Y1.4226 I0.1371 J0
G3 X2.0961 Y1.3719 I0.1362 J0.0172
G3 X2.1186 Y1.3425 I0.1197 J0.0683
G3 X2.1313 Y1.3313 I0.0972 J0.0976
G3 X2.3643 Y1.215 I0.4088 J0.5274
G3 X2.4921 Y1.1932 I0.1757 J0.6436
G3 X2.6241 Y1.1968 I0.0479 J0.6654
G3 X2.8711 Y1.2795 I-0.0841 J0.6619
G3 X3.0678 Y1.4505 I-0.3317 J0.5801
G3 X3.0918 Y1.4984 I-0.1087 J0.0842
G3 X3.096 Y1.5218 I-0.1323 J0.0362
G3 X3.0966 Y1.5345 I-0.1373 J0.0127
G3 X3.0955 Y1.5517 I-0.1379 J0
G3 X3.0786 Y1.6025 I-0.1362 J-0.0171
G3 X3.0655 Y1.6216 I-0.1192 J-0.0679
G3 X3.0435 Y1.6431 I-0.1061 J-0.087
G3 X2.9955 Y1.6669 I-0.0841 J-0.1086
G3 X2.9422 Y1.6707 I-0.0361 J-0.1324
G3 X2.8914 Y1.6537 I0.0173 J-0.1361
G3 X2.8627 Y1.6319 I0.0681 J-0.1193
G3 X2.851 Y1.6186 I0.0968 J-0.0974
G2 X2.8171 Y1.5804 I-0.3113 J0.2416
G2 X2.735 Y1.518 I-0.2775 J0.2798
G2 X2.5896 Y1.4694 I-0.1949 J0.3414
G2 X2.4367 Y1.4802 I-0.0494 J0.3897
G2 X2.2995 Y1.5486 I0.1035 J0.3789
G1 X2.299 Y1.549
G3 X2.2511 Y1.5724 I-0.0836 J-0.1101
G3 X2.1979 Y1.576 I-0.0356 J-0.1333
G3 X2.1472 Y1.559 I0.0176 J-0.1364
G3 X2.1069 Y1.5239 I0.068 J-0.119
G3 X2.083 Y1.476 I0.1086 J-0.0841
G3 X2.0781 Y1.4398 I0.1323 J-0.0362
G3 X2.0792 Y1.4227 I0.1372 J0
G3 X2.0961 Y1.3719 I0.1361 J0.0172
G3 X2.1186 Y1.3425 I0.1194 J0.068
G3 X2.1312 Y1.3314 I0.0969 J0.0974
G3 X2.3643 Y1.2151 I0.409 J0.5278
G3 X2.4921 Y1.1932 I0.176 J0.644
G3 X2.6241 Y1.1968 I0.0481 J0.6658
G3 X2.8711 Y1.2792 I-0.0839 J0.6623
G1 Z-0.5 F30
G3 X3.0681 Y1.4504 I-0.331 J0.58 F60
G3 X3.0918 Y1.4983 I-0.1106 J0.0845
G3 X3.096 Y1.5218 I-0.1331 J0.0361
G3 X3.0966 Y1.5346 I-0.1366 J0.0128
G3 X3.0956 Y1.5518 I-0.1372 J0
G3 X3.0786 Y1.6026 I-0.136 J-0.0171
G3 X3.0655 Y1.6216 I-0.1192 J-0.068
G3 X3.0435 Y1.643 I-0.1061 J-0.0871
G3 X2.9955 Y1.6669 I-0.084 J-0.1084
G3 X2.942 Y1.6706 I-0.036 J-0.1323
G3 X2.8912 Y1.6536 I0.0175 J-0.1363
G3 X2.8627 Y1.6319 I0.069 J-0.1204
G3 X2.8506 Y1.6183 I0.0975 J-0.0987
G2 X2.8171 Y1.5804 I-0.3103 J0.2406
G2 X2.735 Y1.5179 I-0.2767 J0.2785
G2 X2.5895 Y1.4693 I-0.1949 J0.3416
G2 X2.4365 Y1.48 I-0.0495 J0.3905
G2 X2.2993 Y1.5484 I0.1034 J0.3798
G3 X2.2514 Y1.5722 I-0.084 J-0.1086
G3 X2.198 Y1.576 I-0.0361 J-0.1324
G3 X2.1473 Y1.559 I0.0173 J-0.136
G3 X2.1069 Y1.5239 I0.068 J-0.119
G3 X2.083 Y1.476 I0.1085 J-0.0841
G3 X2.0781 Y1.4398 I0.1322 J-0.0362
G3 X2.0792 Y1.4226 I0.1371 J0
G3 X2.0961 Y1.3719 I0.1362 J0.0172
G3 X2.1186 Y1.3425 I0.1197 J0.0683
G3 X2.1313 Y1.3313 I0.0972 J0.0976
G3 X2.3643 Y1.215 I0.4088 J0.5274
G3 X2.4921 Y1.1932 I0.1757 J0.6436
G3 X2.6241 Y1.1968 I0.0479 J0.6654
G3 X2.8711 Y1.2795 I-0.0841 J0.6619
G3 X3.0678 Y1.4505 I-0.3317 J0.5801
G3 X3.0918 Y1.4984 I-0.1087 J0.0842
G3 X3.096 Y1.5218 I-0.1323 J0.0362
G3 X3.0966 Y1.5345 I-0.1373 J0.0127
G3 X3.0955 Y1.5517 I-0.1379 J0
G3 X3.0786 Y1.6025 I-0.1362 J-0.0171
G3 X3.0655 Y1.6216 I-0.1192 J-0.0679
G3 X3.0435 Y1.6431 I-0.1061 J-0.087
G3 X2.9955 Y1.6669 I-0.0841 J-0.1086
G3 X2.9422 Y1.6707 I-0.0361 J-0.1324
G3 X2.8914 Y1.6537 I0.0173 J-0.1361
G3 X2.8627 Y1.6319 I0.0681 J-0.1193
G3 X2.851 Y1.6186 I0.0968 J-0.0974
G2 X2.8171 Y1.5804 I-0.3113 J0.2416
G2 X2.735 Y1.518 I-0.2775 J0.2798
G2 X2.5896 Y1.4694 I-0.1949 J0.3414
G2 X2.4367 Y1.4802 I-0.0494 J0.3897
G2 X2.2995 Y1.5486 I0.1035 J0.3789
G1 X2.299 Y1.549
G3 X2.2511 Y1.5724 I-0.0836 J-0.1101
G3 X2.1979 Y1.576 I-0.0356 J-0.1333
G3 X2.1472 Y1.559 I0.0176 J-0.1364
G3 X2.1069 Y1.5239 I0.068 J-0.119
G3 X2.083 Y1.476 I0.1086 J-0.0841
G3 X2.0781 Y1.4398 I0.1323 J-0.0362
G3 X2.0792 Y1.4227 I0.1372 J0
G3 X2.0961 Y1.3719 I0.1361 J0.0172
G3 X2.1186 Y1.3425 I0.1194 J0.068
G3 X2.1312 Y1.3314 I0.0969 J0.0974
G3 X2.3643 Y1.2151 I0.409 J0.5278
G3 X2.4921 Y1.1932 I0.176 J0.644
G3 X2.6241 Y1.1968 I0.0481 J0.6658
G3 X2.8711 Y1.2792 I-0.0839 J0.6623
G1 Z-0.6 F30
G3 X3.0681 Y1.4504 I-0.331 J0.58 F60
G3 X3.0918 Y1.4983 I-0.1106 J0.0845
G3 X3.096 Y1.5218 I-0.1331 J0.0361
G3 X3.0966 Y1.5346 I-0.1366 J0.0128
G3 X3.0956 Y1.5518 I-0.1372 J0
G3 X3.0786 Y1.6026 I-0.136 J-0.0171
G3 X3.0655 Y1.6216 I-0.1192 J-0.068
G3 X3.0435 Y1.643 I-0.1061 J-0.0871
G3 X2.9955 Y1.6669 I-0.084 J-0.1084
G3 X2.942 Y1.6706 I-0.036 J-0.1323
G3 X2.8912 Y1.6536 I0.0175 J-0.1363
G3 X2.8627 Y1.6319 I0.069 J-0.1204
G3 X2.8506 Y1.6183 I0.0975 J-0.0987
G2 X2.8171 Y1.5804 I-0.3103 J0.2406
G2 X2.735 Y1.5179 I-0.2767 J0.2785
G2 X2.5895 Y1.4693 I-0.1949 J0.3416
G2 X2.4365 Y1.48 I-0.0495 J0.3905
G2 X2.2993 Y1.5484 I0.1034 J0.3798
G3 X2.2514 Y1.5722 I-0.084 J-0.1086
G3 X2.198 Y1.576 I-0.0361 J-0.1324
G3 X2.1473 Y1.559 I0.0173 J-0.136
G3 X2.1069 Y1.5239 I0.068 J-0.119
G3 X2.083 Y1.476 I0.1085 J-0.0841
G3 X2.0781 Y1.4398 I0.1322 J-0.0362
G3 X2.0792 Y1.4226 I0.1371 J0
G3 X2.0961 Y1.3719 I0.1362 J0.0172
G3 X2.1186 Y1.3425 I0.1197 J0.0683
G3 X2.1313 Y1.3313 I0.0972 J0.0976
G3 X2.3643 Y1.215 I0.4088 J0.5274
G3 X2.4921 Y1.1932 I0.1757 J0.6436
G3 X2.6241 Y1.1968 I0.0479 J0.6654
G3 X2.8711 Y1.2795 I-0.0841 J0.6619
G3 X3.0678 Y1.4505 I-0.3317 J0.5801
G3 X3.0918 Y1.4984 I-0.1087 J0.0842
G3 X3.096 Y1.5218 I-0.1323 J0.0362
G3 X3.0966 Y1.5345 I-0.1373 J0.0127
G3 X3.0955 Y1.5517 I-0.1379 J0
G3 X3.0786 Y1.6025 I-0.1362 J-0.0171
G3 X3.0655 Y1.6216 I-0.1192 J-0.0679
G3 X3.0435 Y1.6431 I-0.1061 J-0.087
G3 X2.9955 Y1.6669 I-0.0841 J-0.1086
G3 X2.9422 Y1.6707 I-0.0361 J-0.1324
G3 X2.8914 Y1.6537 I0.0173 J-0.1361
G3 X2.8627 Y1.6319 I0.0681 J-0.1193
G3 X2.851 Y1.6186 I0.0968 J-0.0974
G2 X2.8171 Y1.5804 I-0.3113 J0.2416
G2 X2.735 Y1.518 I-0.2775 J0.2798
G2 X2.5896 Y1.4694 I-0.1949 J0.3414
G2 X2.4367 Y1.4802 I-0.0494 J0.3897
G2 X2.2995 Y1.5486 I0.1035 J0.3789
G1 X2.299 Y1.549
G3 X2.2511 Y1.5724 I-0.0836 J-0.1101
G3 X2.1979 Y1.576 I-0.0356 J-0.1333
G3 X2.1472 Y1.559 I0.0176 J-0.1364
G3 X2.1069 Y1.5239 I0.068 J-0.119
G3 X2.083 Y1.476 I0.1086 J-0.0841
G3 X2.0781 Y1.4398 I0.1323 J-0.0362
G3 X2.0792 Y1.4227 I0.1372 J0
G3 X2.0961 Y1.3719 I0.1361 J0.0172
G3 X2.1186 Y1.3425 I0.1194 J0.068
G3 X2.1312 Y1.3314 I0.0969 J0.0974
G3 X2.3643 Y1.2151 I0.409 J0.5278
G3 X2.4921 Y1.1932 I0.176 J0.644
G3 X2.6241 Y1.1968 I0.0481 J0.6658
G3 X2.8711 Y1.2792 I-0.0839 J0.6623
G1 Z-0.7 F30
G3 X3.0681 Y1.4504 I-0.331 J0.58 F60
G3 X3.0918 Y1.4983 I-0.1106 J0.0845
G3 X3.096 Y1.5218 I-0.1331 J0.0361
G3 X3.0966 Y1.5346 I-0.1366 J0.0128
G3 X3.0956 Y1.5518 I-0.1372 J0
G3 X3.0786 Y1.6026 I-0.136 J-0.0171
G3 X3.0655 Y1.6216 I-0.1192 J-0.068
G3 X3.0435 Y1.643 I-0.1061 J-0.0871
G3 X2.9955 Y1.6669 I-0.084 J-0.1084
G3 X2.942 Y1.6706 I-0.036 J-0.1323
G3 X2.8912 Y1.6536 I0.0175 J-0.1363
G3 X2.8627 Y1.6319 I0.069 J-0.1204
G3 X2.8506 Y1.6183 I0.0975 J-0.0987
G2 X2.8171 Y1.5804 I-0.3103 J0.2406
G2 X2.735 Y1.5179 I-0.2767 J0.2785
G2 X2.5895 Y1.4693 I-0.1949 J0.3416
G2 X2.4365 Y1.48 I-0.0495 J0.3905
G2 X2.2993 Y1.5484 I0.1034 J0.3798
G3 X2.2514 Y1.5722 I-0.084 J-0.1086
G3 X2.198 Y1.576 I-0.0361 J-0.1324
G3 X2.1473 Y1.559 I0.0173 J-0.136
G3 X2.1069 Y1.5239 I0.068 J-0.119
G3 X2.083 Y1.476 I0.1085 J-0.0841
G3 X2.0781 Y1.4398 I0.1322 J-0.0362
G3 X2.0792 Y1.4226 I0.1371 J0
G3 X2.0961 Y1.3719 I0.1362 J0.0172
G3 X2.1186 Y1.3425 I0.1197 J0.0683
G3 X2.1313 Y1.3313 I0.0972 J0.0976
G3 X2.3643 Y1.215 I0.4088 J0.5274
G3 X2.4921 Y1.1932 I0.1757 J0.6436
G3 X2.6241 Y1.1968 I0.0479 J0.6654
G3 X2.8711 Y1.2795 I-0.0841 J0.6619
G3 X3.0678 Y1.4505 I-0.3317 J0.5801
G3 X3.0918 Y1.4984 I-0.1087 J0.0842
G3 X3.096 Y1.5218 I-0.1323 J0.0362
G3 X3.0966 Y1.5345 I-0.1373 J0.0127
G3 X3.0955 Y1.5517 I-0.1379 J0
G3 X3.0786 Y1.6025 I-0.1362 J-0.0171
G3 X3.0655 Y1.6216 I-0.1192 J-0.0679
G3 X3.0435 Y1.6431 I-0.1061 J-0.087
G3 X2.9955 Y1.6669 I-0.0841 J-0.1086
G3 X2.9422 Y1.6707 I-0.0361 J-0.1324
G3 X2.8914 Y1.6537 I0.0173 J-0.1361
G3 X2.8627 Y1.6319 I0.0681 J-0.1193
G3 X2.851 Y1.6186 I0.0968 J-0.0974
G2 X2.8171 Y1.5804 I-0.3113 J0.2416
G2 X2.735 Y1.518 I-0.2775 J0.2798
G2 X2.5896 Y1.4694 I-0.1949 J0.3414
G2 X2.4367 Y1.4802 I-0.0494 J0.3897
G2 X2.2995 Y1.5486 I0.1035 J0.3789
G1 X2.299 Y1.549
G3 X2.2511 Y1.5724 I-0.0836 J-0.1101
G3 X2.1979 Y1.576 I-0.0356 J-0.1333
G3 X2.1472 Y1.559 I0.0176 J-0.1364
G3 X2.1069 Y1.5239 I0.068 J-0.119
G3 X2.083 Y1.476 I0.1086 J-0.0841
G3 X2.0781 Y1.4398 I0.1323 J-0.0362
G3 X2.0792 Y1.4227 I0.1372 J0
G3 X2.0961 Y1.3719 I0.1361 J0.0172
G3 X2.1186 Y1.3425 I0.1194 J0.068
G3 X2.1312 Y1.3314 I0.0969 J0.0974
G3 X2.3643 Y1.2151 I0.409 J0.5278
G3 X2.4921 Y1.1932 I0.176 J0.644
G3 X2.6241 Y1.1968 I0.0481 J0.6658
G3 X2.8711 Y1.2792 I-0.0839 J0.6623
G1 Z-0.8 F30
G3 X3.0681 Y1.4504 I-0.331 J0.58 F60
G3 X3.0918 Y1.4983 I-0.1106 J0.0845
G3 X3.096 Y1.5218 I-0.1331 J0.0361
G3 X3.0966 Y1.5346 I-0.1366 J0.0128
G3 X3.0956 Y1.5518 I-0.1372 J0
G3 X3.0786 Y1.6026 I-0.136 J-0.0171
G3 X3.0655 Y1.6216 I-0.1192 J-0.068
G3 X3.0435 Y1.643 I-0.1061 J-0.0871
G3 X2.9955 Y1.6669 I-0.084 J-0.1084
G3 X2.942 Y1.6706 I-0.036 J-0.1323
G3 X2.8912 Y1.6536 I0.0175 J-0.1363
G3 X2.8627 Y1.6319 I0.069 J-0.1204
G3 X2.8506 Y1.6183 I0.0975 J-0.0987
G2 X2.8171 Y1.5804 I-0.3103 J0.2406
G2 X2.735 Y1.5179 I-0.2767 J0.2785
G2 X2.5895 Y1.4693 I-0.1949 J0.3416
G2 X2.4365 Y1.48 I-0.0495 J0.3905
G2 X2.2993 Y1.5484 I0.1034 J0.3798
G3 X2.2514 Y1.5722 I-0.084 J-0.1086
G3 X2.198 Y1.576 I-0.0361 J-0.1324
G3 X2.1473 Y1.559 I0.0173 J-0.136
G3 X2.1069 Y1.5239 I0.068 J-0.119
G3 X2.083 Y1.476 I0.1085 J-0.0841
G3 X2.0781 Y1.4398 I0.1322 J-0.0362
G3 X2.0792 Y1.4226 I0.1371 J0
G3 X2.0961 Y1.3719 I0.1362 J0.0172
G3 X2.1186 Y1.3425 I0.1197 J0.0683
G3 X2.1313 Y1.3313 I0.0972 J0.0976
G3 X2.3643 Y1.215 I0.4088 J0.5274
G3 X2.4921 Y1.1932 I0.1757 J0.6436
G3 X2.6241 Y1.1968 I0.0479 J0.6654
G3 X2.8711 Y1.2795 I-0.0841 J0.6619
G3 X3.0678 Y1.4505 I-0.3317 J0.5801
G3 X3.0918 Y1.4984 I-0.1087 J0.0842
G3 X3.096 Y1.5218 I-0.1323 J0.0362
G3 X3.0966 Y1.5345 I-0.1373 J0.0127
G3 X3.0955 Y1.5517 I-0.1379 J0
G3 X3.0786 Y1.6025 I-0.1362 J-0.0171
G3 X3.0655 Y1.6216 I-0.1192 J-0.0679
G3 X3.0435 Y1.6431 I-0.1061 J-0.087
G3 X2.9955 Y1.6669 I-0.0841 J-0.1086
G3 X2.9422 Y1.6707 I-0.0361 J-0.1324
G3 X2.8914 Y1.6537 I0.0173 J-0.1361
G3 X2.8627 Y1.6319 I0.0681 J-0.1193
G3 X2.851 Y1.6186 I0.0968 J-0.0974
G2 X2.8171 Y1.5804 I-0.3113 J0.2416
G2 X2.735 Y1.518 I-0.2775 J0.2798
G2 X2.5896 Y1.4694 I-0.1949 J0.3414
G2 X2.4367 Y1.4802 I-0.0494 J0.3897
G2 X2.2995 Y1.5486 I0.1035 J0.3789
G1 X2.299 Y1.549
G3 X2.2511 Y1.5724 I-0.0836 J-0.1101
G3 X2.1979 Y1.576 I-0.0356 J-0.1333
G3 X2.1472 Y1.559 I0.0176 J-0.1364
G3 X2.1069 Y1.5239 I0.068 J-0.119
G3 X2.083 Y1.476 I0.1086 J-0.0841
G3 X2.0781 Y1.4398 I0.1323 J-0.0362
G3 X2.0792 Y1.4227 I0.1372 J0
G3 X2.0961 Y1.3719 I0.1361 J0.0172
G3 X2.1186 Y1.3425 I0.1194 J0.068
G3 X2.1312 Y1.3314 I0.0969 J0.0974
G3 X2.3643 Y1.2151 I0.409 J0.5278
G3 X2.4921 Y1.1932 I0.176 J0.644
G3 X2.6241 Y1.1968 I0.0481 J0.6658
G3 X2.8711 Y1.2792 I-0.0839 J0.6623
G0 Z0.25
M5
M30
