(Generated by PartKam Version 0.05)

G20 G90 G40

(plug)
G0 Z0.25
T0 M6
G17
M3
G0 X1.6708 Y2.8668
G1 Z-0.1 F30
G1 X1.742 Y2.2868 F60
G1 X1.6275 Y2.2724
G3 X1.5687 Y2.2543 I0.0216 J-0.1741
G3 X1.521 Y2.217 I0.0747 J-0.1449
G3 X1.4903 Y2.163 I0.115 J-0.1012
G3 X1.4834 Y2.1193 I0.1351 J-0.0437
G3 X1.4844 Y2.1019 I0.142 J0
G1 X1.5074 Y1.9152
G3 X1.528 Y1.8573 I0.1415 J0.0179
G3 X1.5709 Y1.8126 I0.1295 J0.0812
G3 X1.6263 Y1.7882 I0.0919 J0.1336
G3 X1.6876 Y1.7851 I0.0393 J0.1702
G1 X1.7047 Y1.7873
G1 X1.7462 Y1.4505
G1 X1.7639 Y1.3069
G3 X1.8242 Y1.1296 I0.4563 J0.0563
G3 X1.954 Y0.9835 I0.4373 J0.258
G3 X2.1272 Y0.8947 I0.3356 J0.441
G3 X2.3001 Y0.8677 I0.1801 J0.5872
G1 X2.3094 Y0.7924
G3 X2.33 Y0.7346 I0.1409 J0.0176
G3 X2.3729 Y0.6898 I0.1296 J0.0813
G3 X2.4283 Y0.6654 I0.0922 J0.1341
G3 X2.4523 Y0.6616 I0.0397 J0.1706
G2 X2.4582 Y0.5973 I-4.3952 J-0.4358
G2 X2.4633 Y0.5162 I-1.9268 J-0.1626
G2 X2.4644 Y0.4681 I-1.1401 J-0.0481
G2 X2.4639 Y0.4369 I-1.1411 J0
G2 X2.4606 Y0.4023 I-0.2576 J0.007
G2 X2.4297 Y0.3058 I-0.3406 J0.0558
G2 X2.3638 Y0.2068 I-0.4104 J0.2019
G2 X2.2944 Y0.1397 I-0.4344 J0.3795
G2 X2.1977 Y0.0714 I-0.5326 J0.6516
G3 X2.1676 Y0.0179 I0.0324 J-0.0535
G3 X2.2373 Y-0.0442 I0.0625 J0
G3 X2.3798 Y-0.0224 I-0.2403 J2.0461
G3 X2.5198 Y0.0092 I-0.38 J2.0101
G3 X2.6552 Y0.0499 I-0.5194 J1.9759
G3 X2.7874 Y0.0997 I-0.6549 J1.9357
G3 X2.8111 Y0.1171 I-0.0241 J0.0577
G3 X2.85 Y0.1709 I-0.3461 J0.2919
G3 X2.8847 Y0.2359 I-0.49 J0.303
G3 X2.9142 Y0.3135 I-0.6072 J0.2755
G3 X2.938 Y0.4071 I-0.8856 J0.2752
G3 X2.9512 Y0.5396 I-0.6631 J0.1325
G3 X2.9511 Y0.5513 I-0.6762 J0
G3 X2.9392 Y0.7304 I-1.8384 J-0.0318
G3 X2.9847 Y0.7666 I-0.0774 J0.144
G3 X3.0154 Y0.8206 I-0.1156 J0.1014
G3 X3.0223 Y0.8644 I-0.1351 J0.0438
G3 X3.0212 Y0.8818 I-0.142 J0
G1 X3.0118 Y0.9576
G3 X3.1536 Y1.015 I-0.1612 J0.6021
G3 X3.3104 Y1.1442 I-0.2735 J0.4917
G3 X3.408 Y1.3223 I-0.3928 J0.3309
G3 X3.4288 Y1.4591 I-0.4389 J0.1368
G3 X3.4253 Y1.5153 I-0.4597 J0
G1 X3.3703 Y1.9624
G1 X3.3661 Y1.9959
G1 X3.3835 Y1.9981
G3 X3.4422 Y2.0163 I-0.0216 J0.1737
G3 X3.4899 Y2.0536 I-0.0748 J0.1448
G3 X3.5206 Y2.1075 I-0.1153 J0.1011
G3 X3.5275 Y2.1513 I-0.1355 J0.0438
G3 X3.5264 Y2.1687 I-0.1424 J0
G1 X3.5033 Y2.3551
G3 X3.4828 Y2.4131 I-0.1408 J-0.0172
G3 X3.4399 Y2.4579 I-0.1293 J-0.0808
G3 X3.3845 Y2.4823 I-0.092 J-0.1337
G3 X3.3232 Y2.4854 I-0.0394 J-0.1704
G1 X3.3089 Y2.4836
G1 X3.1772 Y2.4671
G1 X3.1064 Y3.0429
G3 X3.0795 Y3.1189 I-0.184 J-0.0223
G3 X3.0226 Y3.1784 I-0.1718 J-0.1074
G3 X2.9483 Y3.2111 I-0.1236 J-0.1798
G3 X2.8648 Y3.2155 I-0.0539 J-0.2321
G3 X2.7851 Y3.1907 I0.03 J-0.2373
G3 X2.721 Y3.1407 I0.1008 J-0.1951
G3 X2.6802 Y3.069 I0.153 J-0.1347
G3 X2.6711 Y3.0115 I0.177 J-0.0575
G3 X2.6725 Y2.9888 I0.1861 J0
G1 X2.7433 Y2.4126
G1 X2.176 Y2.3413
G1 X2.1046 Y2.9209
G3 X2.0778 Y2.9969 I-0.1842 J-0.0225
G3 X2.0207 Y3.0564 I-0.1718 J-0.1075
G3 X1.9463 Y3.0892 I-0.1235 J-0.1798
G3 X1.863 Y3.0934 I-0.0536 J-0.2318
G3 X1.7833 Y3.0687 I0.0298 J-0.2367
G3 X1.7192 Y3.0187 I0.1008 J-0.1952
G3 X1.6784 Y2.9469 I0.153 J-0.1346
G3 X1.6693 Y2.8897 I0.1764 J-0.0572
G3 X1.6708 Y2.8668 I0.1854 J0
G1 Z-0.2 F30
G1 X1.742 Y2.2868 F60
G1 X1.6275 Y2.2724
G3 X1.5687 Y2.2543 I0.0216 J-0.1741
G3 X1.521 Y2.217 I0.0747 J-0.1449
G3 X1.4903 Y2.163 I0.115 J-0.1012
G3 X1.4834 Y2.1193 I0.1351 J-0.0437
G3 X1.4844 Y2.1019 I0.142 J0
G1 X1.5074 Y1.9152
G3 X1.528 Y1.8573 I0.1415 J0.0179
G3 X1.5709 Y1.8126 I0.1295 J0.0812
G3 X1.6263 Y1.7882 I0.0919 J0.1336
G3 X1.6876 Y1.7851 I0.0393 J0.1702
G1 X1.7047 Y1.7873
G1 X1.7462 Y1.4505
G1 X1.7639 Y1.3069
G3 X1.8242 Y1.1296 I0.4563 J0.0563
G3 X1.954 Y0.9835 I0.4373 J0.258
G3 X2.1272 Y0.8947 I0.3356 J0.441
G3 X2.3001 Y0.8677 I0.1801 J0.5872
G1 X2.3094 Y0.7924
G3 X2.33 Y0.7346 I0.1409 J0.0176
G3 X2.3729 Y0.6898 I0.1296 J0.0813
G3 X2.4283 Y0.6654 I0.0922 J0.1341
G3 X2.4523 Y0.6616 I0.0397 J0.1706
G2 X2.4582 Y0.5973 I-4.3952 J-0.4358
G2 X2.4633 Y0.5162 I-1.9268 J-0.1626
G2 X2.4644 Y0.4681 I-1.1401 J-0.0481
G2 X2.4639 Y0.4369 I-1.1411 J0
G2 X2.4606 Y0.4023 I-0.2576 J0.007
G2 X2.4297 Y0.3058 I-0.3406 J0.0558
G2 X2.3638 Y0.2068 I-0.4104 J0.2019
G2 X2.2944 Y0.1397 I-0.4344 J0.3795
G2 X2.1977 Y0.0714 I-0.5326 J0.6516
G3 X2.1676 Y0.0179 I0.0324 J-0.0535
G3 X2.2373 Y-0.0442 I0.0625 J0
G3 X2.3798 Y-0.0224 I-0.2403 J2.0461
G3 X2.5198 Y0.0092 I-0.38 J2.0101
G3 X2.6552 Y0.0499 I-0.5194 J1.9759
G3 X2.7874 Y0.0997 I-0.6549 J1.9357
G3 X2.8111 Y0.1171 I-0.0241 J0.0577
G3 X2.85 Y0.1709 I-0.3461 J0.2919
G3 X2.8847 Y0.2359 I-0.49 J0.303
G3 X2.9142 Y0.3135 I-0.6072 J0.2755
G3 X2.938 Y0.4071 I-0.8856 J0.2752
G3 X2.9512 Y0.5396 I-0.6631 J0.1325
G3 X2.9511 Y0.5513 I-0.6762 J0
G3 X2.9392 Y0.7304 I-1.8384 J-0.0318
G3 X2.9847 Y0.7666 I-0.0774 J0.144
G3 X3.0154 Y0.8206 I-0.1156 J0.1014
G3 X3.0223 Y0.8644 I-0.1351 J0.0438
G3 X3.0212 Y0.8818 I-0.142 J0
G1 X3.0118 Y0.9576
G3 X3.1536 Y1.015 I-0.1612 J0.6021
G3 X3.3104 Y1.1442 I-0.2735 J0.4917
G3 X3.408 Y1.3223 I-0.3928 J0.3309
G3 X3.4288 Y1.4591 I-0.4389 J0.1368
G3 X3.4253 Y1.5153 I-0.4597 J0
G1 X3.3703 Y1.9624
G1 X3.3661 Y1.9959
G1 X3.3835 Y1.9981
G3 X3.4422 Y2.0163 I-0.0216 J0.1737
G3 X3.4899 Y2.0536 I-0.0748 J0.1448
G3 X3.5206 Y2.1075 I-0.1153 J0.1011
G3 X3.5275 Y2.1513 I-0.1355 J0.0438
G3 X3.5264 Y2.1687 I-0.1424 J0
G1 X3.5033 Y2.3551
G3 X3.4828 Y2.4131 I-0.1408 J-0.0172
G3 X3.4399 Y2.4579 I-0.1293 J-0.0808
G3 X3.3845 Y2.4823 I-0.092 J-0.1337
G3 X3.3232 Y2.4854 I-0.0394 J-0.1704
G1 X3.3089 Y2.4836
G1 X3.1772 Y2.4671
G1 X3.1064 Y3.0429
G3 X3.0795 Y3.1189 I-0.184 J-0.0223
G3 X3.0226 Y3.1784 I-0.1718 J-0.1074
G3 X2.9483 Y3.2111 I-0.1236 J-0.1798
G3 X2.8648 Y3.2155 I-0.0539 J-0.2321
G3 X2.7851 Y3.1907 I0.03 J-0.2373
G3 X2.721 Y3.1407 I0.1008 J-0.1951
G3 X2.6802 Y3.069 I0.153 J-0.1347
G3 X2.6711 Y3.0115 I0.177 J-0.0575
G3 X2.6725 Y2.9888 I0.1861 J0
G1 X2.7433 Y2.4126
G1 X2.176 Y2.3413
G1 X2.1046 Y2.9209
G3 X2.0778 Y2.9969 I-0.1842 J-0.0225
G3 X2.0207 Y3.0564 I-0.1718 J-0.1075
G3 X1.9463 Y3.0892 I-0.1235 J-0.1798
G3 X1.863 Y3.0934 I-0.0536 J-0.2318
G3 X1.7833 Y3.0687 I0.0298 J-0.2367
G3 X1.7192 Y3.0187 I0.1008 J-0.1952
G3 X1.6784 Y2.9469 I0.153 J-0.1346
G3 X1.6693 Y2.8897 I0.1764 J-0.0572
G3 X1.6708 Y2.8668 I0.1854 J0
G1 Z-0.3 F30
G1 X1.742 Y2.2868 F60
G1 X1.6275 Y2.2724
G3 X1.5687 Y2.2543 I0.0216 J-0.1741
G3 X1.521 Y2.217 I0.0747 J-0.1449
G3 X1.4903 Y2.163 I0.115 J-0.1012
G3 X1.4834 Y2.1193 I0.1351 J-0.0437
G3 X1.4844 Y2.1019 I0.142 J0
G1 X1.5074 Y1.9152
G3 X1.528 Y1.8573 I0.1415 J0.0179
G3 X1.5709 Y1.8126 I0.1295 J0.0812
G3 X1.6263 Y1.7882 I0.0919 J0.1336
G3 X1.6876 Y1.7851 I0.0393 J0.1702
G1 X1.7047 Y1.7873
G1 X1.7462 Y1.4505
G1 X1.7639 Y1.3069
G3 X1.8242 Y1.1296 I0.4563 J0.0563
G3 X1.954 Y0.9835 I0.4373 J0.258
G3 X2.1272 Y0.8947 I0.3356 J0.441
G3 X2.3001 Y0.8677 I0.1801 J0.5872
G1 X2.3094 Y0.7924
G3 X2.33 Y0.7346 I0.1409 J0.0176
G3 X2.3729 Y0.6898 I0.1296 J0.0813
G3 X2.4283 Y0.6654 I0.0922 J0.1341
G3 X2.4523 Y0.6616 I0.0397 J0.1706
G2 X2.4582 Y0.5973 I-4.3952 J-0.4358
G2 X2.4633 Y0.5162 I-1.9268 J-0.1626
G2 X2.4644 Y0.4681 I-1.1401 J-0.0481
G2 X2.4639 Y0.4369 I-1.1411 J0
G2 X2.4606 Y0.4023 I-0.2576 J0.007
G2 X2.4297 Y0.3058 I-0.3406 J0.0558
G2 X2.3638 Y0.2068 I-0.4104 J0.2019
G2 X2.2944 Y0.1397 I-0.4344 J0.3795
G2 X2.1977 Y0.0714 I-0.5326 J0.6516
G3 X2.1676 Y0.0179 I0.0324 J-0.0535
G3 X2.2373 Y-0.0442 I0.0625 J0
G3 X2.3798 Y-0.0224 I-0.2403 J2.0461
G3 X2.5198 Y0.0092 I-0.38 J2.0101
G3 X2.6552 Y0.0499 I-0.5194 J1.9759
G3 X2.7874 Y0.0997 I-0.6549 J1.9357
G3 X2.8111 Y0.1171 I-0.0241 J0.0577
G3 X2.85 Y0.1709 I-0.3461 J0.2919
G3 X2.8847 Y0.2359 I-0.49 J0.303
G3 X2.9142 Y0.3135 I-0.6072 J0.2755
G3 X2.938 Y0.4071 I-0.8856 J0.2752
G3 X2.9512 Y0.5396 I-0.6631 J0.1325
G3 X2.9511 Y0.5513 I-0.6762 J0
G3 X2.9392 Y0.7304 I-1.8384 J-0.0318
G3 X2.9847 Y0.7666 I-0.0774 J0.144
G3 X3.0154 Y0.8206 I-0.1156 J0.1014
G3 X3.0223 Y0.8644 I-0.1351 J0.0438
G3 X3.0212 Y0.8818 I-0.142 J0
G1 X3.0118 Y0.9576
G3 X3.1536 Y1.015 I-0.1612 J0.6021
G3 X3.3104 Y1.1442 I-0.2735 J0.4917
G3 X3.408 Y1.3223 I-0.3928 J0.3309
G3 X3.4288 Y1.4591 I-0.4389 J0.1368
G3 X3.4253 Y1.5153 I-0.4597 J0
G1 X3.3703 Y1.9624
G1 X3.3661 Y1.9959
G1 X3.3835 Y1.9981
G3 X3.4422 Y2.0163 I-0.0216 J0.1737
G3 X3.4899 Y2.0536 I-0.0748 J0.1448
G3 X3.5206 Y2.1075 I-0.1153 J0.1011
G3 X3.5275 Y2.1513 I-0.1355 J0.0438
G3 X3.5264 Y2.1687 I-0.1424 J0
G1 X3.5033 Y2.3551
G3 X3.4828 Y2.4131 I-0.1408 J-0.0172
G3 X3.4399 Y2.4579 I-0.1293 J-0.0808
G3 X3.3845 Y2.4823 I-0.092 J-0.1337
G3 X3.3232 Y2.4854 I-0.0394 J-0.1704
G1 X3.3089 Y2.4836
G1 X3.1772 Y2.4671
G1 X3.1064 Y3.0429
G3 X3.0795 Y3.1189 I-0.184 J-0.0223
G3 X3.0226 Y3.1784 I-0.1718 J-0.1074
G3 X2.9483 Y3.2111 I-0.1236 J-0.1798
G3 X2.8648 Y3.2155 I-0.0539 J-0.2321
G3 X2.7851 Y3.1907 I0.03 J-0.2373
G3 X2.721 Y3.1407 I0.1008 J-0.1951
G3 X2.6802 Y3.069 I0.153 J-0.1347
G3 X2.6711 Y3.0115 I0.177 J-0.0575
G3 X2.6725 Y2.9888 I0.1861 J0
G1 X2.7433 Y2.4126
G1 X2.176 Y2.3413
G1 X2.1046 Y2.9209
G3 X2.0778 Y2.9969 I-0.1842 J-0.0225
G3 X2.0207 Y3.0564 I-0.1718 J-0.1075
G3 X1.9463 Y3.0892 I-0.1235 J-0.1798
G3 X1.863 Y3.0934 I-0.0536 J-0.2318
G3 X1.7833 Y3.0687 I0.0298 J-0.2367
G3 X1.7192 Y3.0187 I0.1008 J-0.1952
G3 X1.6784 Y2.9469 I0.153 J-0.1346
G3 X1.6693 Y2.8897 I0.1764 J-0.0572
G3 X1.6708 Y2.8668 I0.1854 J0
G1 Z-0.4 F30
G1 X1.742 Y2.2868 F60
G1 X1.6275 Y2.2724
G3 X1.5687 Y2.2543 I0.0216 J-0.1741
G3 X1.521 Y2.217 I0.0747 J-0.1449
G3 X1.4903 Y2.163 I0.115 J-0.1012
G3 X1.4834 Y2.1193 I0.1351 J-0.0437
G3 X1.4844 Y2.1019 I0.142 J0
G1 X1.5074 Y1.9152
G3 X1.528 Y1.8573 I0.1415 J0.0179
G3 X1.5709 Y1.8126 I0.1295 J0.0812
G3 X1.6263 Y1.7882 I0.0919 J0.1336
G3 X1.6876 Y1.7851 I0.0393 J0.1702
G1 X1.7047 Y1.7873
G1 X1.7462 Y1.4505
G1 X1.7639 Y1.3069
G3 X1.8242 Y1.1296 I0.4563 J0.0563
G3 X1.954 Y0.9835 I0.4373 J0.258
G3 X2.1272 Y0.8947 I0.3356 J0.441
G3 X2.3001 Y0.8677 I0.1801 J0.5872
G1 X2.3094 Y0.7924
G3 X2.33 Y0.7346 I0.1409 J0.0176
G3 X2.3729 Y0.6898 I0.1296 J0.0813
G3 X2.4283 Y0.6654 I0.0922 J0.1341
G3 X2.4523 Y0.6616 I0.0397 J0.1706
G2 X2.4582 Y0.5973 I-4.3952 J-0.4358
G2 X2.4633 Y0.5162 I-1.9268 J-0.1626
G2 X2.4644 Y0.4681 I-1.1401 J-0.0481
G2 X2.4639 Y0.4369 I-1.1411 J0
G2 X2.4606 Y0.4023 I-0.2576 J0.007
G2 X2.4297 Y0.3058 I-0.3406 J0.0558
G2 X2.3638 Y0.2068 I-0.4104 J0.2019
G2 X2.2944 Y0.1397 I-0.4344 J0.3795
G2 X2.1977 Y0.0714 I-0.5326 J0.6516
G3 X2.1676 Y0.0179 I0.0324 J-0.0535
G3 X2.2373 Y-0.0442 I0.0625 J0
G3 X2.3798 Y-0.0224 I-0.2403 J2.0461
G3 X2.5198 Y0.0092 I-0.38 J2.0101
G3 X2.6552 Y0.0499 I-0.5194 J1.9759
G3 X2.7874 Y0.0997 I-0.6549 J1.9357
G3 X2.8111 Y0.1171 I-0.0241 J0.0577
G3 X2.85 Y0.1709 I-0.3461 J0.2919
G3 X2.8847 Y0.2359 I-0.49 J0.303
G3 X2.9142 Y0.3135 I-0.6072 J0.2755
G3 X2.938 Y0.4071 I-0.8856 J0.2752
G3 X2.9512 Y0.5396 I-0.6631 J0.1325
G3 X2.9511 Y0.5513 I-0.6762 J0
G3 X2.9392 Y0.7304 I-1.8384 J-0.0318
G3 X2.9847 Y0.7666 I-0.0774 J0.144
G3 X3.0154 Y0.8206 I-0.1156 J0.1014
G3 X3.0223 Y0.8644 I-0.1351 J0.0438
G3 X3.0212 Y0.8818 I-0.142 J0
G1 X3.0118 Y0.9576
G3 X3.1536 Y1.015 I-0.1612 J0.6021
G3 X3.3104 Y1.1442 I-0.2735 J0.4917
G3 X3.408 Y1.3223 I-0.3928 J0.3309
G3 X3.4288 Y1.4591 I-0.4389 J0.1368
G3 X3.4253 Y1.5153 I-0.4597 J0
G1 X3.3703 Y1.9624
G1 X3.3661 Y1.9959
G1 X3.3835 Y1.9981
G3 X3.4422 Y2.0163 I-0.0216 J0.1737
G3 X3.4899 Y2.0536 I-0.0748 J0.1448
G3 X3.5206 Y2.1075 I-0.1153 J0.1011
G3 X3.5275 Y2.1513 I-0.1355 J0.0438
G3 X3.5264 Y2.1687 I-0.1424 J0
G1 X3.5033 Y2.3551
G3 X3.4828 Y2.4131 I-0.1408 J-0.0172
G3 X3.4399 Y2.4579 I-0.1293 J-0.0808
G3 X3.3845 Y2.4823 I-0.092 J-0.1337
G3 X3.3232 Y2.4854 I-0.0394 J-0.1704
G1 X3.3089 Y2.4836
G1 X3.1772 Y2.4671
G1 X3.1064 Y3.0429
G3 X3.0795 Y3.1189 I-0.184 J-0.0223
G3 X3.0226 Y3.1784 I-0.1718 J-0.1074
G3 X2.9483 Y3.2111 I-0.1236 J-0.1798
G3 X2.8648 Y3.2155 I-0.0539 J-0.2321
G3 X2.7851 Y3.1907 I0.03 J-0.2373
G3 X2.721 Y3.1407 I0.1008 J-0.1951
G3 X2.6802 Y3.069 I0.153 J-0.1347
G3 X2.6711 Y3.0115 I0.177 J-0.0575
G3 X2.6725 Y2.9888 I0.1861 J0
G1 X2.7433 Y2.4126
G1 X2.176 Y2.3413
G1 X2.1046 Y2.9209
G3 X2.0778 Y2.9969 I-0.1842 J-0.0225
G3 X2.0207 Y3.0564 I-0.1718 J-0.1075
G3 X1.9463 Y3.0892 I-0.1235 J-0.1798
G3 X1.863 Y3.0934 I-0.0536 J-0.2318
G3 X1.7833 Y3.0687 I0.0298 J-0.2367
G3 X1.7192 Y3.0187 I0.1008 J-0.1952
G3 X1.6784 Y2.9469 I0.153 J-0.1346
G3 X1.6693 Y2.8897 I0.1764 J-0.0572
G3 X1.6708 Y2.8668 I0.1854 J0
G1 Z-0.5 F30
G1 X1.742 Y2.2868 F60
G1 X1.6275 Y2.2724
G3 X1.5687 Y2.2543 I0.0216 J-0.1741
G3 X1.521 Y2.217 I0.0747 J-0.1449
G3 X1.4903 Y2.163 I0.115 J-0.1012
G3 X1.4834 Y2.1193 I0.1351 J-0.0437
G3 X1.4844 Y2.1019 I0.142 J0
G1 X1.5074 Y1.9152
G3 X1.528 Y1.8573 I0.1415 J0.0179
G3 X1.5709 Y1.8126 I0.1295 J0.0812
G3 X1.6263 Y1.7882 I0.0919 J0.1336
G3 X1.6876 Y1.7851 I0.0393 J0.1702
G1 X1.7047 Y1.7873
G1 X1.7462 Y1.4505
G1 X1.7639 Y1.3069
G3 X1.8242 Y1.1296 I0.4563 J0.0563
G3 X1.954 Y0.9835 I0.4373 J0.258
G3 X2.1272 Y0.8947 I0.3356 J0.441
G3 X2.3001 Y0.8677 I0.1801 J0.5872
G1 X2.3094 Y0.7924
G3 X2.33 Y0.7346 I0.1409 J0.0176
G3 X2.3729 Y0.6898 I0.1296 J0.0813
G3 X2.4283 Y0.6654 I0.0922 J0.1341
G3 X2.4523 Y0.6616 I0.0397 J0.1706
G2 X2.4582 Y0.5973 I-4.3952 J-0.4358
G2 X2.4633 Y0.5162 I-1.9268 J-0.1626
G2 X2.4644 Y0.4681 I-1.1401 J-0.0481
G2 X2.4639 Y0.4369 I-1.1411 J0
G2 X2.4606 Y0.4023 I-0.2576 J0.007
G2 X2.4297 Y0.3058 I-0.3406 J0.0558
G2 X2.3638 Y0.2068 I-0.4104 J0.2019
G2 X2.2944 Y0.1397 I-0.4344 J0.3795
G2 X2.1977 Y0.0714 I-0.5326 J0.6516
G3 X2.1676 Y0.0179 I0.0324 J-0.0535
G3 X2.2373 Y-0.0442 I0.0625 J0
G3 X2.3798 Y-0.0224 I-0.2403 J2.0461
G3 X2.5198 Y0.0092 I-0.38 J2.0101
G3 X2.6552 Y0.0499 I-0.5194 J1.9759
G3 X2.7874 Y0.0997 I-0.6549 J1.9357
G3 X2.8111 Y0.1171 I-0.0241 J0.0577
G3 X2.85 Y0.1709 I-0.3461 J0.2919
G3 X2.8847 Y0.2359 I-0.49 J0.303
G3 X2.9142 Y0.3135 I-0.6072 J0.2755
G3 X2.938 Y0.4071 I-0.8856 J0.2752
G3 X2.9512 Y0.5396 I-0.6631 J0.1325
G3 X2.9511 Y0.5513 I-0.6762 J0
G3 X2.9392 Y0.7304 I-1.8384 J-0.0318
G3 X2.9847 Y0.7666 I-0.0774 J0.144
G3 X3.0154 Y0.8206 I-0.1156 J0.1014
G3 X3.0223 Y0.8644 I-0.1351 J0.0438
G3 X3.0212 Y0.8818 I-0.142 J0
G1 X3.0118 Y0.9576
G3 X3.1536 Y1.015 I-0.1612 J0.6021
G3 X3.3104 Y1.1442 I-0.2735 J0.4917
G3 X3.408 Y1.3223 I-0.3928 J0.3309
G3 X3.4288 Y1.4591 I-0.4389 J0.1368
G3 X3.4253 Y1.5153 I-0.4597 J0
G1 X3.3703 Y1.9624
G1 X3.3661 Y1.9959
G1 X3.3835 Y1.9981
G3 X3.4422 Y2.0163 I-0.0216 J0.1737
G3 X3.4899 Y2.0536 I-0.0748 J0.1448
G3 X3.5206 Y2.1075 I-0.1153 J0.1011
G3 X3.5275 Y2.1513 I-0.1355 J0.0438
G3 X3.5264 Y2.1687 I-0.1424 J0
G1 X3.5033 Y2.3551
G3 X3.4828 Y2.4131 I-0.1408 J-0.0172
G3 X3.4399 Y2.4579 I-0.1293 J-0.0808
G3 X3.3845 Y2.4823 I-0.092 J-0.1337
G3 X3.3232 Y2.4854 I-0.0394 J-0.1704
G1 X3.3089 Y2.4836
G1 X3.1772 Y2.4671
G1 X3.1064 Y3.0429
G3 X3.0795 Y3.1189 I-0.184 J-0.0223
G3 X3.0226 Y3.1784 I-0.1718 J-0.1074
G3 X2.9483 Y3.2111 I-0.1236 J-0.1798
G3 X2.8648 Y3.2155 I-0.0539 J-0.2321
G3 X2.7851 Y3.1907 I0.03 J-0.2373
G3 X2.721 Y3.1407 I0.1008 J-0.1951
G3 X2.6802 Y3.069 I0.153 J-0.1347
G3 X2.6711 Y3.0115 I0.177 J-0.0575
G3 X2.6725 Y2.9888 I0.1861 J0
G1 X2.7433 Y2.4126
G1 X2.176 Y2.3413
G1 X2.1046 Y2.9209
G3 X2.0778 Y2.9969 I-0.1842 J-0.0225
G3 X2.0207 Y3.0564 I-0.1718 J-0.1075
G3 X1.9463 Y3.0892 I-0.1235 J-0.1798
G3 X1.863 Y3.0934 I-0.0536 J-0.2318
G3 X1.7833 Y3.0687 I0.0298 J-0.2367
G3 X1.7192 Y3.0187 I0.1008 J-0.1952
G3 X1.6784 Y2.9469 I0.153 J-0.1346
G3 X1.6693 Y2.8897 I0.1764 J-0.0572
G3 X1.6708 Y2.8668 I0.1854 J0
G1 Z-0.6 F30
G1 X1.742 Y2.2868 F60
G1 X1.6275 Y2.2724
G3 X1.5687 Y2.2543 I0.0216 J-0.1741
G3 X1.521 Y2.217 I0.0747 J-0.1449
G3 X1.4903 Y2.163 I0.115 J-0.1012
G3 X1.4834 Y2.1193 I0.1351 J-0.0437
G3 X1.4844 Y2.1019 I0.142 J0
G1 X1.5074 Y1.9152
G3 X1.528 Y1.8573 I0.1415 J0.0179
G3 X1.5709 Y1.8126 I0.1295 J0.0812
G3 X1.6263 Y1.7882 I0.0919 J0.1336
G3 X1.6876 Y1.7851 I0.0393 J0.1702
G1 X1.7047 Y1.7873
G1 X1.7462 Y1.4505
G1 X1.7639 Y1.3069
G3 X1.8242 Y1.1296 I0.4563 J0.0563
G3 X1.954 Y0.9835 I0.4373 J0.258
G3 X2.1272 Y0.8947 I0.3356 J0.441
G3 X2.3001 Y0.8677 I0.1801 J0.5872
G1 X2.3094 Y0.7924
G3 X2.33 Y0.7346 I0.1409 J0.0176
G3 X2.3729 Y0.6898 I0.1296 J0.0813
G3 X2.4283 Y0.6654 I0.0922 J0.1341
G3 X2.4523 Y0.6616 I0.0397 J0.1706
G2 X2.4582 Y0.5973 I-4.3952 J-0.4358
G2 X2.4633 Y0.5162 I-1.9268 J-0.1626
G2 X2.4644 Y0.4681 I-1.1401 J-0.0481
G2 X2.4639 Y0.4369 I-1.1411 J0
G2 X2.4606 Y0.4023 I-0.2576 J0.007
G2 X2.4297 Y0.3058 I-0.3406 J0.0558
G2 X2.3638 Y0.2068 I-0.4104 J0.2019
G2 X2.2944 Y0.1397 I-0.4344 J0.3795
G2 X2.1977 Y0.0714 I-0.5326 J0.6516
G3 X2.1676 Y0.0179 I0.0324 J-0.0535
G3 X2.2373 Y-0.0442 I0.0625 J0
G3 X2.3798 Y-0.0224 I-0.2403 J2.0461
G3 X2.5198 Y0.0092 I-0.38 J2.0101
G3 X2.6552 Y0.0499 I-0.5194 J1.9759
G3 X2.7874 Y0.0997 I-0.6549 J1.9357
G3 X2.8111 Y0.1171 I-0.0241 J0.0577
G3 X2.85 Y0.1709 I-0.3461 J0.2919
G3 X2.8847 Y0.2359 I-0.49 J0.303
G3 X2.9142 Y0.3135 I-0.6072 J0.2755
G3 X2.938 Y0.4071 I-0.8856 J0.2752
G3 X2.9512 Y0.5396 I-0.6631 J0.1325
G3 X2.9511 Y0.5513 I-0.6762 J0
G3 X2.9392 Y0.7304 I-1.8384 J-0.0318
G3 X2.9847 Y0.7666 I-0.0774 J0.144
G3 X3.0154 Y0.8206 I-0.1156 J0.1014
G3 X3.0223 Y0.8644 I-0.1351 J0.0438
G3 X3.0212 Y0.8818 I-0.142 J0
G1 X3.0118 Y0.9576
G3 X3.1536 Y1.015 I-0.1612 J0.6021
G3 X3.3104 Y1.1442 I-0.2735 J0.4917
G3 X3.408 Y1.3223 I-0.3928 J0.3309
G3 X3.4288 Y1.4591 I-0.4389 J0.1368
G3 X3.4253 Y1.5153 I-0.4597 J0
G1 X3.3703 Y1.9624
G1 X3.3661 Y1.9959
G1 X3.3835 Y1.9981
G3 X3.4422 Y2.0163 I-0.0216 J0.1737
G3 X3.4899 Y2.0536 I-0.0748 J0.1448
G3 X3.5206 Y2.1075 I-0.1153 J0.1011
G3 X3.5275 Y2.1513 I-0.1355 J0.0438
G3 X3.5264 Y2.1687 I-0.1424 J0
G1 X3.5033 Y2.3551
G3 X3.4828 Y2.4131 I-0.1408 J-0.0172
G3 X3.4399 Y2.4579 I-0.1293 J-0.0808
G3 X3.3845 Y2.4823 I-0.092 J-0.1337
G3 X3.3232 Y2.4854 I-0.0394 J-0.1704
G1 X3.3089 Y2.4836
G1 X3.1772 Y2.4671
G1 X3.1064 Y3.0429
G3 X3.0795 Y3.1189 I-0.184 J-0.0223
G3 X3.0226 Y3.1784 I-0.1718 J-0.1074
G3 X2.9483 Y3.2111 I-0.1236 J-0.1798
G3 X2.8648 Y3.2155 I-0.0539 J-0.2321
G3 X2.7851 Y3.1907 I0.03 J-0.2373
G3 X2.721 Y3.1407 I0.1008 J-0.1951
G3 X2.6802 Y3.069 I0.153 J-0.1347
G3 X2.6711 Y3.0115 I0.177 J-0.0575
G3 X2.6725 Y2.9888 I0.1861 J0
G1 X2.7433 Y2.4126
G1 X2.176 Y2.3413
G1 X2.1046 Y2.9209
G3 X2.0778 Y2.9969 I-0.1842 J-0.0225
G3 X2.0207 Y3.0564 I-0.1718 J-0.1075
G3 X1.9463 Y3.0892 I-0.1235 J-0.1798
G3 X1.863 Y3.0934 I-0.0536 J-0.2318
G3 X1.7833 Y3.0687 I0.0298 J-0.2367
G3 X1.7192 Y3.0187 I0.1008 J-0.1952
G3 X1.6784 Y2.9469 I0.153 J-0.1346
G3 X1.6693 Y2.8897 I0.1764 J-0.0572
G3 X1.6708 Y2.8668 I0.1854 J0
G1 Z-0.7 F30
G1 X1.742 Y2.2868 F60
G1 X1.6275 Y2.2724
G3 X1.5687 Y2.2543 I0.0216 J-0.1741
G3 X1.521 Y2.217 I0.0747 J-0.1449
G3 X1.4903 Y2.163 I0.115 J-0.1012
G3 X1.4834 Y2.1193 I0.1351 J-0.0437
G3 X1.4844 Y2.1019 I0.142 J0
G1 X1.5074 Y1.9152
G3 X1.528 Y1.8573 I0.1415 J0.0179
G3 X1.5709 Y1.8126 I0.1295 J0.0812
G3 X1.6263 Y1.7882 I0.0919 J0.1336
G3 X1.6876 Y1.7851 I0.0393 J0.1702
G1 X1.7047 Y1.7873
G1 X1.7462 Y1.4505
G1 X1.7639 Y1.3069
G3 X1.8242 Y1.1296 I0.4563 J0.0563
G3 X1.954 Y0.9835 I0.4373 J0.258
G3 X2.1272 Y0.8947 I0.3356 J0.441
G3 X2.3001 Y0.8677 I0.1801 J0.5872
G1 X2.3094 Y0.7924
G3 X2.33 Y0.7346 I0.1409 J0.0176
G3 X2.3729 Y0.6898 I0.1296 J0.0813
G3 X2.4283 Y0.6654 I0.0922 J0.1341
G3 X2.4523 Y0.6616 I0.0397 J0.1706
G2 X2.4582 Y0.5973 I-4.3952 J-0.4358
G2 X2.4633 Y0.5162 I-1.9268 J-0.1626
G2 X2.4644 Y0.4681 I-1.1401 J-0.0481
G2 X2.4639 Y0.4369 I-1.1411 J0
G2 X2.4606 Y0.4023 I-0.2576 J0.007
G2 X2.4297 Y0.3058 I-0.3406 J0.0558
G2 X2.3638 Y0.2068 I-0.4104 J0.2019
G2 X2.2944 Y0.1397 I-0.4344 J0.3795
G2 X2.1977 Y0.0714 I-0.5326 J0.6516
G3 X2.1676 Y0.0179 I0.0324 J-0.0535
G3 X2.2373 Y-0.0442 I0.0625 J0
G3 X2.3798 Y-0.0224 I-0.2403 J2.0461
G3 X2.5198 Y0.0092 I-0.38 J2.0101
G3 X2.6552 Y0.0499 I-0.5194 J1.9759
G3 X2.7874 Y0.0997 I-0.6549 J1.9357
G3 X2.8111 Y0.1171 I-0.0241 J0.0577
G3 X2.85 Y0.1709 I-0.3461 J0.2919
G3 X2.8847 Y0.2359 I-0.49 J0.303
G3 X2.9142 Y0.3135 I-0.6072 J0.2755
G3 X2.938 Y0.4071 I-0.8856 J0.2752
G3 X2.9512 Y0.5396 I-0.6631 J0.1325
G3 X2.9511 Y0.5513 I-0.6762 J0
G3 X2.9392 Y0.7304 I-1.8384 J-0.0318
G3 X2.9847 Y0.7666 I-0.0774 J0.144
G3 X3.0154 Y0.8206 I-0.1156 J0.1014
G3 X3.0223 Y0.8644 I-0.1351 J0.0438
G3 X3.0212 Y0.8818 I-0.142 J0
G1 X3.0118 Y0.9576
G3 X3.1536 Y1.015 I-0.1612 J0.6021
G3 X3.3104 Y1.1442 I-0.2735 J0.4917
G3 X3.408 Y1.3223 I-0.3928 J0.3309
G3 X3.4288 Y1.4591 I-0.4389 J0.1368
G3 X3.4253 Y1.5153 I-0.4597 J0
G1 X3.3703 Y1.9624
G1 X3.3661 Y1.9959
G1 X3.3835 Y1.9981
G3 X3.4422 Y2.0163 I-0.0216 J0.1737
G3 X3.4899 Y2.0536 I-0.0748 J0.1448
G3 X3.5206 Y2.1075 I-0.1153 J0.1011
G3 X3.5275 Y2.1513 I-0.1355 J0.0438
G3 X3.5264 Y2.1687 I-0.1424 J0
G1 X3.5033 Y2.3551
G3 X3.4828 Y2.4131 I-0.1408 J-0.0172
G3 X3.4399 Y2.4579 I-0.1293 J-0.0808
G3 X3.3845 Y2.4823 I-0.092 J-0.1337
G3 X3.3232 Y2.4854 I-0.0394 J-0.1704
G1 X3.3089 Y2.4836
G1 X3.1772 Y2.4671
G1 X3.1064 Y3.0429
G3 X3.0795 Y3.1189 I-0.184 J-0.0223
G3 X3.0226 Y3.1784 I-0.1718 J-0.1074
G3 X2.9483 Y3.2111 I-0.1236 J-0.1798
G3 X2.8648 Y3.2155 I-0.0539 J-0.2321
G3 X2.7851 Y3.1907 I0.03 J-0.2373
G3 X2.721 Y3.1407 I0.1008 J-0.1951
G3 X2.6802 Y3.069 I0.153 J-0.1347
G3 X2.6711 Y3.0115 I0.177 J-0.0575
G3 X2.6725 Y2.9888 I0.1861 J0
G1 X2.7433 Y2.4126
G1 X2.176 Y2.3413
G1 X2.1046 Y2.9209
G3 X2.0778 Y2.9969 I-0.1842 J-0.0225
G3 X2.0207 Y3.0564 I-0.1718 J-0.1075
G3 X1.9463 Y3.0892 I-0.1235 J-0.1798
G3 X1.863 Y3.0934 I-0.0536 J-0.2318
G3 X1.7833 Y3.0687 I0.0298 J-0.2367
G3 X1.7192 Y3.0187 I0.1008 J-0.1952
G3 X1.6784 Y2.9469 I0.153 J-0.1346
G3 X1.6693 Y2.8897 I0.1764 J-0.0572
G3 X1.6708 Y2.8668 I0.1854 J0
G1 Z-0.8 F30
G1 X1.742 Y2.2868 F60
G1 X1.6275 Y2.2724
G3 X1.5687 Y2.2543 I0.0216 J-0.1741
G3 X1.521 Y2.217 I0.0747 J-0.1449
G3 X1.4903 Y2.163 I0.115 J-0.1012
G3 X1.4834 Y2.1193 I0.1351 J-0.0437
G3 X1.4844 Y2.1019 I0.142 J0
G1 X1.5074 Y1.9152
G3 X1.528 Y1.8573 I0.1415 J0.0179
G3 X1.5709 Y1.8126 I0.1295 J0.0812
G3 X1.6263 Y1.7882 I0.0919 J0.1336
G3 X1.6876 Y1.7851 I0.0393 J0.1702
G1 X1.7047 Y1.7873
G1 X1.7462 Y1.4505
G1 X1.7639 Y1.3069
G3 X1.8242 Y1.1296 I0.4563 J0.0563
G3 X1.954 Y0.9835 I0.4373 J0.258
G3 X2.1272 Y0.8947 I0.3356 J0.441
G3 X2.3001 Y0.8677 I0.1801 J0.5872
G1 X2.3094 Y0.7924
G3 X2.33 Y0.7346 I0.1409 J0.0176
G3 X2.3729 Y0.6898 I0.1296 J0.0813
G3 X2.4283 Y0.6654 I0.0922 J0.1341
G3 X2.4523 Y0.6616 I0.0397 J0.1706
G2 X2.4582 Y0.5973 I-4.3952 J-0.4358
G2 X2.4633 Y0.5162 I-1.9268 J-0.1626
G2 X2.4644 Y0.4681 I-1.1401 J-0.0481
G2 X2.4639 Y0.4369 I-1.1411 J0
G2 X2.4606 Y0.4023 I-0.2576 J0.007
G2 X2.4297 Y0.3058 I-0.3406 J0.0558
G2 X2.3638 Y0.2068 I-0.4104 J0.2019
G2 X2.2944 Y0.1397 I-0.4344 J0.3795
G2 X2.1977 Y0.0714 I-0.5326 J0.6516
G3 X2.1676 Y0.0179 I0.0324 J-0.0535
G3 X2.2373 Y-0.0442 I0.0625 J0
G3 X2.3798 Y-0.0224 I-0.2403 J2.0461
G3 X2.5198 Y0.0092 I-0.38 J2.0101
G3 X2.6552 Y0.0499 I-0.5194 J1.9759
G3 X2.7874 Y0.0997 I-0.6549 J1.9357
G3 X2.8111 Y0.1171 I-0.0241 J0.0577
G3 X2.85 Y0.1709 I-0.3461 J0.2919
G3 X2.8847 Y0.2359 I-0.49 J0.303
G3 X2.9142 Y0.3135 I-0.6072 J0.2755
G3 X2.938 Y0.4071 I-0.8856 J0.2752
G3 X2.9512 Y0.5396 I-0.6631 J0.1325
G3 X2.9511 Y0.5513 I-0.6762 J0
G3 X2.9392 Y0.7304 I-1.8384 J-0.0318
G3 X2.9847 Y0.7666 I-0.0774 J0.144
G3 X3.0154 Y0.8206 I-0.1156 J0.1014
G3 X3.0223 Y0.8644 I-0.1351 J0.0438
G3 X3.0212 Y0.8818 I-0.142 J0
G1 X3.0118 Y0.9576
G3 X3.1536 Y1.015 I-0.1612 J0.6021
G3 X3.3104 Y1.1442 I-0.2735 J0.4917
G3 X3.408 Y1.3223 I-0.3928 J0.3309
G3 X3.4288 Y1.4591 I-0.4389 J0.1368
G3 X3.4253 Y1.5153 I-0.4597 J0
G1 X3.3703 Y1.9624
G1 X3.3661 Y1.9959
G1 X3.3835 Y1.9981
G3 X3.4422 Y2.0163 I-0.0216 J0.1737
G3 X3.4899 Y2.0536 I-0.0748 J0.1448
G3 X3.5206 Y2.1075 I-0.1153 J0.1011
G3 X3.5275 Y2.1513 I-0.1355 J0.0438
G3 X3.5264 Y2.1687 I-0.1424 J0
G1 X3.5033 Y2.3551
G3 X3.4828 Y2.4131 I-0.1408 J-0.0172
G3 X3.4399 Y2.4579 I-0.1293 J-0.0808
G3 X3.3845 Y2.4823 I-0.092 J-0.1337
G3 X3.3232 Y2.4854 I-0.0394 J-0.1704
G1 X3.3089 Y2.4836
G1 X3.1772 Y2.4671
G1 X3.1064 Y3.0429
G3 X3.0795 Y3.1189 I-0.184 J-0.0223
G3 X3.0226 Y3.1784 I-0.1718 J-0.1074
G3 X2.9483 Y3.2111 I-0.1236 J-0.1798
G3 X2.8648 Y3.2155 I-0.0539 J-0.2321
G3 X2.7851 Y3.1907 I0.03 J-0.2373
G3 X2.721 Y3.1407 I0.1008 J-0.1951
G3 X2.6802 Y3.069 I0.153 J-0.1347
G3 X2.6711 Y3.0115 I0.177 J-0.0575
G3 X2.6725 Y2.9888 I0.1861 J0
G1 X2.7433 Y2.4126
G1 X2.176 Y2.3413
G1 X2.1046 Y2.9209
G3 X2.0778 Y2.9969 I-0.1842 J-0.0225
G3 X2.0207 Y3.0564 I-0.1718 J-0.1075
G3 X1.9463 Y3.0892 I-0.1235 J-0.1798
G3 X1.863 Y3.0934 I-0.0536 J-0.2318
G3 X1.7833 Y3.0687 I0.0298 J-0.2367
G3 X1.7192 Y3.0187 I0.1008 J-0.1952
G3 X1.6784 Y2.9469 I0.153 J-0.1346
G3 X1.6693 Y2.8897 I0.1764 J-0.0572
G3 X1.6708 Y2.8668 I0.1854 J0
G0 Z0.25
M5
M30
