(Generated by PartKam Version 0.05)

G20 G90 G40

(DrillIT)
G0 Z0.25
T0 M6
G17
M3
G0 X3.937 Y3.937
G1 Z-0.1 F30
G1 Z0 F30
G1 Z-0.2 F30
G1 Z0 F30
G1 Z-0.3 F30
G1 Z0 F30
G1 Z-0.4 F30
G1 Z0 F30
G1 Z-0.5 F30
G1 Z0 F30
G1 Z-0.6 F30
G1 Z0 F30
G0 Z0.25
G0 X5.9055 Y3.937
G1 Z-0.1 F30
G1 Z0 F30
G1 Z-0.2 F30
G1 Z0 F30
G1 Z-0.3 F30
G1 Z0 F30
G1 Z-0.4 F30
G1 Z0 F30
G1 Z-0.5 F30
G1 Z0 F30
G1 Z-0.6 F30
G1 Z0 F30
G0 Z0.25
G0 X7.874 Y3.937
G1 Z-0.1 F30
G1 Z0 F30
G1 Z-0.2 F30
G1 Z0 F30
G1 Z-0.3 F30
G1 Z0 F30
G1 Z-0.4 F30
G1 Z0 F30
G1 Z-0.5 F30
G1 Z0 F30
G1 Z-0.6 F30
G1 Z0 F30
G0 Z0.25
G0 X9.8425 Y3.937
G1 Z-0.1 F30
G1 Z0 F30
G1 Z-0.2 F30
G1 Z0 F30
G1 Z-0.3 F30
G1 Z0 F30
G1 Z-0.4 F30
G1 Z0 F30
G1 Z-0.5 F30
G1 Z0 F30
G1 Z-0.6 F30
G1 Z0 F30
G0 Z0.25
G0 X11.811 Y3.937
G1 Z-0.1 F30
G1 Z0 F30
G1 Z-0.2 F30
G1 Z0 F30
G1 Z-0.3 F30
G1 Z0 F30
G1 Z-0.4 F30
G1 Z0 F30
G1 Z-0.5 F30
G1 Z0 F30
G1 Z-0.6 F30
G1 Z0 F30
G0 Z0.25
G0 X13.7795 Y3.937
G1 Z-0.1 F30
G1 Z0 F30
G1 Z-0.2 F30
G1 Z0 F30
G1 Z-0.3 F30
G1 Z0 F30
G1 Z-0.4 F30
G1 Z0 F30
G1 Z-0.5 F30
G1 Z0 F30
G1 Z-0.6 F30
G1 Z0 F30
G0 Z0.25
G0 X15.748 Y3.937
G1 Z-0.1 F30
G1 Z0 F30
G1 Z-0.2 F30
G1 Z0 F30
G1 Z-0.3 F30
G1 Z0 F30
G1 Z-0.4 F30
G1 Z0 F30
G1 Z-0.5 F30
G1 Z0 F30
G1 Z-0.6 F30
G1 Z0 F30
G0 Z0.25
G0 X17.7166 Y3.937
G1 Z-0.1 F30
G1 Z0 F30
G1 Z-0.2 F30
G1 Z0 F30
G1 Z-0.3 F30
G1 Z0 F30
G1 Z-0.4 F30
G1 Z0 F30
G1 Z-0.5 F30
G1 Z0 F30
G1 Z-0.6 F30
G1 Z0 F30
G0 Z0.25
G0 X1.9685 Y3.937
G1 Z-0.1 F30
G1 Z0 F30
G1 Z-0.2 F30
G1 Z0 F30
G1 Z-0.3 F30
G1 Z0 F30
G1 Z-0.4 F30
G1 Z0 F30
G1 Z-0.5 F30
G1 Z0 F30
G1 Z-0.6 F30
G1 Z0 F30
G0 Z0.25
G0 X3.937 Y1.9685
G1 Z-0.1 F30
G1 Z0 F30
G1 Z-0.2 F30
G1 Z0 F30
G1 Z-0.3 F30
G1 Z0 F30
G1 Z-0.4 F30
G1 Z0 F30
G1 Z-0.5 F30
G1 Z0 F30
G1 Z-0.6 F30
G1 Z0 F30
G0 Z0.25
G0 X5.9055 Y1.9685
G1 Z-0.1 F30
G1 Z0 F30
G1 Z-0.2 F30
G1 Z0 F30
G1 Z-0.3 F30
G1 Z0 F30
G1 Z-0.4 F30
G1 Z0 F30
G1 Z-0.5 F30
G1 Z0 F30
G1 Z-0.6 F30
G1 Z0 F30
G0 Z0.25
G0 X7.874 Y1.9685
G1 Z-0.1 F30
G1 Z0 F30
G1 Z-0.2 F30
G1 Z0 F30
G1 Z-0.3 F30
G1 Z0 F30
G1 Z-0.4 F30
G1 Z0 F30
G1 Z-0.5 F30
G1 Z0 F30
G1 Z-0.6 F30
G1 Z0 F30
G0 Z0.25
G0 X9.8425 Y1.9685
G1 Z-0.1 F30
G1 Z0 F30
G1 Z-0.2 F30
G1 Z0 F30
G1 Z-0.3 F30
G1 Z0 F30
G1 Z-0.4 F30
G1 Z0 F30
G1 Z-0.5 F30
G1 Z0 F30
G1 Z-0.6 F30
G1 Z0 F30
G0 Z0.25
G0 X11.811 Y1.9685
G1 Z-0.1 F30
G1 Z0 F30
G1 Z-0.2 F30
G1 Z0 F30
G1 Z-0.3 F30
G1 Z0 F30
G1 Z-0.4 F30
G1 Z0 F30
G1 Z-0.5 F30
G1 Z0 F30
G1 Z-0.6 F30
G1 Z0 F30
G0 Z0.25
G0 X13.7795 Y1.9685
G1 Z-0.1 F30
G1 Z0 F30
G1 Z-0.2 F30
G1 Z0 F30
G1 Z-0.3 F30
G1 Z0 F30
G1 Z-0.4 F30
G1 Z0 F30
G1 Z-0.5 F30
G1 Z0 F30
G1 Z-0.6 F30
G1 Z0 F30
G0 Z0.25
G0 X15.748 Y1.9685
G1 Z-0.1 F30
G1 Z0 F30
G1 Z-0.2 F30
G1 Z0 F30
G1 Z-0.3 F30
G1 Z0 F30
G1 Z-0.4 F30
G1 Z0 F30
G1 Z-0.5 F30
G1 Z0 F30
G1 Z-0.6 F30
G1 Z0 F30
G0 Z0.25
G0 X17.7166 Y1.9685
G1 Z-0.1 F30
G1 Z0 F30
G1 Z-0.2 F30
G1 Z0 F30
G1 Z-0.3 F30
G1 Z0 F30
G1 Z-0.4 F30
G1 Z0 F30
G1 Z-0.5 F30
G1 Z0 F30
G1 Z-0.6 F30
G1 Z0 F30
G0 Z0.25
G0 X1.9685 Y1.9685
G1 Z-0.1 F30
G1 Z0 F30
G1 Z-0.2 F30
G1 Z0 F30
G1 Z-0.3 F30
G1 Z0 F30
G1 Z-0.4 F30
G1 Z0 F30
G1 Z-0.5 F30
G1 Z0 F30
G1 Z-0.6 F30
G1 Z0 F30
G0 Z0.25
G0 X3.937 Y5.9055
G1 Z-0.1 F30
G1 Z0 F30
G1 Z-0.2 F30
G1 Z0 F30
G1 Z-0.3 F30
G1 Z0 F30
G1 Z-0.4 F30
G1 Z0 F30
G1 Z-0.5 F30
G1 Z0 F30
G1 Z-0.6 F30
G1 Z0 F30
G0 Z0.25
G0 X5.9055 Y5.9055
G1 Z-0.1 F30
G1 Z0 F30
G1 Z-0.2 F30
G1 Z0 F30
G1 Z-0.3 F30
G1 Z0 F30
G1 Z-0.4 F30
G1 Z0 F30
G1 Z-0.5 F30
G1 Z0 F30
G1 Z-0.6 F30
G1 Z0 F30
G0 Z0.25
G0 X7.874 Y5.9055
G1 Z-0.1 F30
G1 Z0 F30
G1 Z-0.2 F30
G1 Z0 F30
G1 Z-0.3 F30
G1 Z0 F30
G1 Z-0.4 F30
G1 Z0 F30
G1 Z-0.5 F30
G1 Z0 F30
G1 Z-0.6 F30
G1 Z0 F30
G0 Z0.25
G0 X9.8425 Y5.9055
G1 Z-0.1 F30
G1 Z0 F30
G1 Z-0.2 F30
G1 Z0 F30
G1 Z-0.3 F30
G1 Z0 F30
G1 Z-0.4 F30
G1 Z0 F30
G1 Z-0.5 F30
G1 Z0 F30
G1 Z-0.6 F30
G1 Z0 F30
G0 Z0.25
G0 X11.811 Y5.9055
G1 Z-0.1 F30
G1 Z0 F30
G1 Z-0.2 F30
G1 Z0 F30
G1 Z-0.3 F30
G1 Z0 F30
G1 Z-0.4 F30
G1 Z0 F30
G1 Z-0.5 F30
G1 Z0 F30
G1 Z-0.6 F30
G1 Z0 F30
G0 Z0.25
G0 X13.7795 Y5.9055
G1 Z-0.1 F30
G1 Z0 F30
G1 Z-0.2 F30
G1 Z0 F30
G1 Z-0.3 F30
G1 Z0 F30
G1 Z-0.4 F30
G1 Z0 F30
G1 Z-0.5 F30
G1 Z0 F30
G1 Z-0.6 F30
G1 Z0 F30
G0 Z0.25
G0 X15.748 Y5.9055
G1 Z-0.1 F30
G1 Z0 F30
G1 Z-0.2 F30
G1 Z0 F30
G1 Z-0.3 F30
G1 Z0 F30
G1 Z-0.4 F30
G1 Z0 F30
G1 Z-0.5 F30
G1 Z0 F30
G1 Z-0.6 F30
G1 Z0 F30
G0 Z0.25
G0 X17.7166 Y5.9055
G1 Z-0.1 F30
G1 Z0 F30
G1 Z-0.2 F30
G1 Z0 F30
G1 Z-0.3 F30
G1 Z0 F30
G1 Z-0.4 F30
G1 Z0 F30
G1 Z-0.5 F30
G1 Z0 F30
G1 Z-0.6 F30
G1 Z0 F30
G0 Z0.25
G0 X1.9685 Y5.9055
G1 Z-0.1 F30
G1 Z0 F30
G1 Z-0.2 F30
G1 Z0 F30
G1 Z-0.3 F30
G1 Z0 F30
G1 Z-0.4 F30
G1 Z0 F30
G1 Z-0.5 F30
G1 Z0 F30
G1 Z-0.6 F30
G1 Z0 F30
G0 Z0.25
G0 X3.937 Y9.8425
G1 Z-0.1 F30
G1 Z0 F30
G1 Z-0.2 F30
G1 Z0 F30
G1 Z-0.3 F30
G1 Z0 F30
G1 Z-0.4 F30
G1 Z0 F30
G1 Z-0.5 F30
G1 Z0 F30
G1 Z-0.6 F30
G1 Z0 F30
G0 Z0.25
G0 X5.9055 Y9.8425
G1 Z-0.1 F30
G1 Z0 F30
G1 Z-0.2 F30
G1 Z0 F30
G1 Z-0.3 F30
G1 Z0 F30
G1 Z-0.4 F30
G1 Z0 F30
G1 Z-0.5 F30
G1 Z0 F30
G1 Z-0.6 F30
G1 Z0 F30
G0 Z0.25
G0 X7.874 Y9.8425
G1 Z-0.1 F30
G1 Z0 F30
G1 Z-0.2 F30
G1 Z0 F30
G1 Z-0.3 F30
G1 Z0 F30
G1 Z-0.4 F30
G1 Z0 F30
G1 Z-0.5 F30
G1 Z0 F30
G1 Z-0.6 F30
G1 Z0 F30
G0 Z0.25
G0 X9.8425 Y9.8425
G1 Z-0.1 F30
G1 Z0 F30
G1 Z-0.2 F30
G1 Z0 F30
G1 Z-0.3 F30
G1 Z0 F30
G1 Z-0.4 F30
G1 Z0 F30
G1 Z-0.5 F30
G1 Z0 F30
G1 Z-0.6 F30
G1 Z0 F30
G0 Z0.25
G0 X11.811 Y9.8425
G1 Z-0.1 F30
G1 Z0 F30
G1 Z-0.2 F30
G1 Z0 F30
G1 Z-0.3 F30
G1 Z0 F30
G1 Z-0.4 F30
G1 Z0 F30
G1 Z-0.5 F30
G1 Z0 F30
G1 Z-0.6 F30
G1 Z0 F30
G0 Z0.25
G0 X13.7795 Y9.8425
G1 Z-0.1 F30
G1 Z0 F30
G1 Z-0.2 F30
G1 Z0 F30
G1 Z-0.3 F30
G1 Z0 F30
G1 Z-0.4 F30
G1 Z0 F30
G1 Z-0.5 F30
G1 Z0 F30
G1 Z-0.6 F30
G1 Z0 F30
G0 Z0.25
G0 X15.748 Y9.8425
G1 Z-0.1 F30
G1 Z0 F30
G1 Z-0.2 F30
G1 Z0 F30
G1 Z-0.3 F30
G1 Z0 F30
G1 Z-0.4 F30
G1 Z0 F30
G1 Z-0.5 F30
G1 Z0 F30
G1 Z-0.6 F30
G1 Z0 F30
G0 Z0.25
G0 X17.7166 Y9.8425
G1 Z-0.1 F30
G1 Z0 F30
G1 Z-0.2 F30
G1 Z0 F30
G1 Z-0.3 F30
G1 Z0 F30
G1 Z-0.4 F30
G1 Z0 F30
G1 Z-0.5 F30
G1 Z0 F30
G1 Z-0.6 F30
G1 Z0 F30
G0 Z0.25
G0 X1.9685 Y9.8425
G1 Z-0.1 F30
G1 Z0 F30
G1 Z-0.2 F30
G1 Z0 F30
G1 Z-0.3 F30
G1 Z0 F30
G1 Z-0.4 F30
G1 Z0 F30
G1 Z-0.5 F30
G1 Z0 F30
G1 Z-0.6 F30
G1 Z0 F30
G0 Z0.25
G0 X3.937 Y7.874
G1 Z-0.1 F30
G1 Z0 F30
G1 Z-0.2 F30
G1 Z0 F30
G1 Z-0.3 F30
G1 Z0 F30
G1 Z-0.4 F30
G1 Z0 F30
G1 Z-0.5 F30
G1 Z0 F30
G1 Z-0.6 F30
G1 Z0 F30
G0 Z0.25
G0 X5.9055 Y7.874
G1 Z-0.1 F30
G1 Z0 F30
G1 Z-0.2 F30
G1 Z0 F30
G1 Z-0.3 F30
G1 Z0 F30
G1 Z-0.4 F30
G1 Z0 F30
G1 Z-0.5 F30
G1 Z0 F30
G1 Z-0.6 F30
G1 Z0 F30
G0 Z0.25
G0 X7.874 Y7.874
G1 Z-0.1 F30
G1 Z0 F30
G1 Z-0.2 F30
G1 Z0 F30
G1 Z-0.3 F30
G1 Z0 F30
G1 Z-0.4 F30
G1 Z0 F30
G1 Z-0.5 F30
G1 Z0 F30
G1 Z-0.6 F30
G1 Z0 F30
G0 Z0.25
G0 X9.8425 Y7.874
G1 Z-0.1 F30
G1 Z0 F30
G1 Z-0.2 F30
G1 Z0 F30
G1 Z-0.3 F30
G1 Z0 F30
G1 Z-0.4 F30
G1 Z0 F30
G1 Z-0.5 F30
G1 Z0 F30
G1 Z-0.6 F30
G1 Z0 F30
G0 Z0.25
G0 X11.811 Y7.874
G1 Z-0.1 F30
G1 Z0 F30
G1 Z-0.2 F30
G1 Z0 F30
G1 Z-0.3 F30
G1 Z0 F30
G1 Z-0.4 F30
G1 Z0 F30
G1 Z-0.5 F30
G1 Z0 F30
G1 Z-0.6 F30
G1 Z0 F30
G0 Z0.25
G0 X13.7795 Y7.874
G1 Z-0.1 F30
G1 Z0 F30
G1 Z-0.2 F30
G1 Z0 F30
G1 Z-0.3 F30
G1 Z0 F30
G1 Z-0.4 F30
G1 Z0 F30
G1 Z-0.5 F30
G1 Z0 F30
G1 Z-0.6 F30
G1 Z0 F30
G0 Z0.25
G0 X15.748 Y7.874
G1 Z-0.1 F30
G1 Z0 F30
G1 Z-0.2 F30
G1 Z0 F30
G1 Z-0.3 F30
G1 Z0 F30
G1 Z-0.4 F30
G1 Z0 F30
G1 Z-0.5 F30
G1 Z0 F30
G1 Z-0.6 F30
G1 Z0 F30
G0 Z0.25
G0 X17.7166 Y7.874
G1 Z-0.1 F30
G1 Z0 F30
G1 Z-0.2 F30
G1 Z0 F30
G1 Z-0.3 F30
G1 Z0 F30
G1 Z-0.4 F30
G1 Z0 F30
G1 Z-0.5 F30
G1 Z0 F30
G1 Z-0.6 F30
G1 Z0 F30
G0 Z0.25
G0 X1.9685 Y7.874
G1 Z-0.1 F30
G1 Z0 F30
G1 Z-0.2 F30
G1 Z0 F30
G1 Z-0.3 F30
G1 Z0 F30
G1 Z-0.4 F30
G1 Z0 F30
G1 Z-0.5 F30
G1 Z0 F30
G1 Z-0.6 F30
G1 Z0 F30
G0 Z0.25
G0 X3.937 Y11.811
G1 Z-0.1 F30
G1 Z0 F30
G1 Z-0.2 F30
G1 Z0 F30
G1 Z-0.3 F30
G1 Z0 F30
G1 Z-0.4 F30
G1 Z0 F30
G1 Z-0.5 F30
G1 Z0 F30
G1 Z-0.6 F30
G1 Z0 F30
G0 Z0.25
G0 X5.9055 Y11.811
G1 Z-0.1 F30
G1 Z0 F30
G1 Z-0.2 F30
G1 Z0 F30
G1 Z-0.3 F30
G1 Z0 F30
G1 Z-0.4 F30
G1 Z0 F30
G1 Z-0.5 F30
G1 Z0 F30
G1 Z-0.6 F30
G1 Z0 F30
G0 Z0.25
G0 X7.874 Y11.811
G1 Z-0.1 F30
G1 Z0 F30
G1 Z-0.2 F30
G1 Z0 F30
G1 Z-0.3 F30
G1 Z0 F30
G1 Z-0.4 F30
G1 Z0 F30
G1 Z-0.5 F30
G1 Z0 F30
G1 Z-0.6 F30
G1 Z0 F30
G0 Z0.25
G0 X9.8425 Y11.811
G1 Z-0.1 F30
G1 Z0 F30
G1 Z-0.2 F30
G1 Z0 F30
G1 Z-0.3 F30
G1 Z0 F30
G1 Z-0.4 F30
G1 Z0 F30
G1 Z-0.5 F30
G1 Z0 F30
G1 Z-0.6 F30
G1 Z0 F30
G0 Z0.25
G0 X11.811 Y11.811
G1 Z-0.1 F30
G1 Z0 F30
G1 Z-0.2 F30
G1 Z0 F30
G1 Z-0.3 F30
G1 Z0 F30
G1 Z-0.4 F30
G1 Z0 F30
G1 Z-0.5 F30
G1 Z0 F30
G1 Z-0.6 F30
G1 Z0 F30
G0 Z0.25
G0 X13.7795 Y11.811
G1 Z-0.1 F30
G1 Z0 F30
G1 Z-0.2 F30
G1 Z0 F30
G1 Z-0.3 F30
G1 Z0 F30
G1 Z-0.4 F30
G1 Z0 F30
G1 Z-0.5 F30
G1 Z0 F30
G1 Z-0.6 F30
G1 Z0 F30
G0 Z0.25
G0 X15.748 Y11.811
G1 Z-0.1 F30
G1 Z0 F30
G1 Z-0.2 F30
G1 Z0 F30
G1 Z-0.3 F30
G1 Z0 F30
G1 Z-0.4 F30
G1 Z0 F30
G1 Z-0.5 F30
G1 Z0 F30
G1 Z-0.6 F30
G1 Z0 F30
G0 Z0.25
G0 X17.7166 Y11.811
G1 Z-0.1 F30
G1 Z0 F30
G1 Z-0.2 F30
G1 Z0 F30
G1 Z-0.3 F30
G1 Z0 F30
G1 Z-0.4 F30
G1 Z0 F30
G1 Z-0.5 F30
G1 Z0 F30
G1 Z-0.6 F30
G1 Z0 F30
G0 Z0.25
G0 X1.9685 Y11.811
G1 Z-0.1 F30
G1 Z0 F30
G1 Z-0.2 F30
G1 Z0 F30
G1 Z-0.3 F30
G1 Z0 F30
G1 Z-0.4 F30
G1 Z0 F30
G1 Z-0.5 F30
G1 Z0 F30
G1 Z-0.6 F30
G1 Z0 F30
G0 Z0.25
G0 X3.937 Y15.748
G1 Z-0.1 F30
G1 Z0 F30
G1 Z-0.2 F30
G1 Z0 F30
G1 Z-0.3 F30
G1 Z0 F30
G1 Z-0.4 F30
G1 Z0 F30
G1 Z-0.5 F30
G1 Z0 F30
G1 Z-0.6 F30
G1 Z0 F30
G0 Z0.25
G0 X5.9055 Y15.748
G1 Z-0.1 F30
G1 Z0 F30
G1 Z-0.2 F30
G1 Z0 F30
G1 Z-0.3 F30
G1 Z0 F30
G1 Z-0.4 F30
G1 Z0 F30
G1 Z-0.5 F30
G1 Z0 F30
G1 Z-0.6 F30
G1 Z0 F30
G0 Z0.25
G0 X7.874 Y15.748
G1 Z-0.1 F30
G1 Z0 F30
G1 Z-0.2 F30
G1 Z0 F30
G1 Z-0.3 F30
G1 Z0 F30
G1 Z-0.4 F30
G1 Z0 F30
G1 Z-0.5 F30
G1 Z0 F30
G1 Z-0.6 F30
G1 Z0 F30
G0 Z0.25
G0 X9.8425 Y15.748
G1 Z-0.1 F30
G1 Z0 F30
G1 Z-0.2 F30
G1 Z0 F30
G1 Z-0.3 F30
G1 Z0 F30
G1 Z-0.4 F30
G1 Z0 F30
G1 Z-0.5 F30
G1 Z0 F30
G1 Z-0.6 F30
G1 Z0 F30
G0 Z0.25
G0 X11.811 Y15.748
G1 Z-0.1 F30
G1 Z0 F30
G1 Z-0.2 F30
G1 Z0 F30
G1 Z-0.3 F30
G1 Z0 F30
G1 Z-0.4 F30
G1 Z0 F30
G1 Z-0.5 F30
G1 Z0 F30
G1 Z-0.6 F30
G1 Z0 F30
G0 Z0.25
G0 X13.7795 Y15.748
G1 Z-0.1 F30
G1 Z0 F30
G1 Z-0.2 F30
G1 Z0 F30
G1 Z-0.3 F30
G1 Z0 F30
G1 Z-0.4 F30
G1 Z0 F30
G1 Z-0.5 F30
G1 Z0 F30
G1 Z-0.6 F30
G1 Z0 F30
G0 Z0.25
G0 X15.748 Y15.748
G1 Z-0.1 F30
G1 Z0 F30
G1 Z-0.2 F30
G1 Z0 F30
G1 Z-0.3 F30
G1 Z0 F30
G1 Z-0.4 F30
G1 Z0 F30
G1 Z-0.5 F30
G1 Z0 F30
G1 Z-0.6 F30
G1 Z0 F30
G0 Z0.25
G0 X17.7166 Y15.748
G1 Z-0.1 F30
G1 Z0 F30
G1 Z-0.2 F30
G1 Z0 F30
G1 Z-0.3 F30
G1 Z0 F30
G1 Z-0.4 F30
G1 Z0 F30
G1 Z-0.5 F30
G1 Z0 F30
G1 Z-0.6 F30
G1 Z0 F30
G0 Z0.25
G0 X1.9685 Y15.748
G1 Z-0.1 F30
G1 Z0 F30
G1 Z-0.2 F30
G1 Z0 F30
G1 Z-0.3 F30
G1 Z0 F30
G1 Z-0.4 F30
G1 Z0 F30
G1 Z-0.5 F30
G1 Z0 F30
G1 Z-0.6 F30
G1 Z0 F30
G0 Z0.25
G0 X3.937 Y13.7795
G1 Z-0.1 F30
G1 Z0 F30
G1 Z-0.2 F30
G1 Z0 F30
G1 Z-0.3 F30
G1 Z0 F30
G1 Z-0.4 F30
G1 Z0 F30
G1 Z-0.5 F30
G1 Z0 F30
G1 Z-0.6 F30
G1 Z0 F30
G0 Z0.25
G0 X5.9055 Y13.7795
G1 Z-0.1 F30
G1 Z0 F30
G1 Z-0.2 F30
G1 Z0 F30
G1 Z-0.3 F30
G1 Z0 F30
G1 Z-0.4 F30
G1 Z0 F30
G1 Z-0.5 F30
G1 Z0 F30
G1 Z-0.6 F30
G1 Z0 F30
G0 Z0.25
G0 X7.874 Y13.7795
G1 Z-0.1 F30
G1 Z0 F30
G1 Z-0.2 F30
G1 Z0 F30
G1 Z-0.3 F30
G1 Z0 F30
G1 Z-0.4 F30
G1 Z0 F30
G1 Z-0.5 F30
G1 Z0 F30
G1 Z-0.6 F30
G1 Z0 F30
G0 Z0.25
G0 X9.8425 Y13.7795
G1 Z-0.1 F30
G1 Z0 F30
G1 Z-0.2 F30
G1 Z0 F30
G1 Z-0.3 F30
G1 Z0 F30
G1 Z-0.4 F30
G1 Z0 F30
G1 Z-0.5 F30
G1 Z0 F30
G1 Z-0.6 F30
G1 Z0 F30
G0 Z0.25
G0 X11.811 Y13.7795
G1 Z-0.1 F30
G1 Z0 F30
G1 Z-0.2 F30
G1 Z0 F30
G1 Z-0.3 F30
G1 Z0 F30
G1 Z-0.4 F30
G1 Z0 F30
G1 Z-0.5 F30
G1 Z0 F30
G1 Z-0.6 F30
G1 Z0 F30
G0 Z0.25
G0 X13.7795 Y13.7795
G1 Z-0.1 F30
G1 Z0 F30
G1 Z-0.2 F30
G1 Z0 F30
G1 Z-0.3 F30
G1 Z0 F30
G1 Z-0.4 F30
G1 Z0 F30
G1 Z-0.5 F30
G1 Z0 F30
G1 Z-0.6 F30
G1 Z0 F30
G0 Z0.25
G0 X15.748 Y13.7795
G1 Z-0.1 F30
G1 Z0 F30
G1 Z-0.2 F30
G1 Z0 F30
G1 Z-0.3 F30
G1 Z0 F30
G1 Z-0.4 F30
G1 Z0 F30
G1 Z-0.5 F30
G1 Z0 F30
G1 Z-0.6 F30
G1 Z0 F30
G0 Z0.25
G0 X17.7166 Y13.7795
G1 Z-0.1 F30
G1 Z0 F30
G1 Z-0.2 F30
G1 Z0 F30
G1 Z-0.3 F30
G1 Z0 F30
G1 Z-0.4 F30
G1 Z0 F30
G1 Z-0.5 F30
G1 Z0 F30
G1 Z-0.6 F30
G1 Z0 F30
G0 Z0.25
G0 X1.9685 Y13.7795
G1 Z-0.1 F30
G1 Z0 F30
G1 Z-0.2 F30
G1 Z0 F30
G1 Z-0.3 F30
G1 Z0 F30
G1 Z-0.4 F30
G1 Z0 F30
G1 Z-0.5 F30
G1 Z0 F30
G1 Z-0.6 F30
G1 Z0 F30
G0 Z0.25
G0 X3.937 Y17.7165
G1 Z-0.1 F30
G1 Z0 F30
G1 Z-0.2 F30
G1 Z0 F30
G1 Z-0.3 F30
G1 Z0 F30
G1 Z-0.4 F30
G1 Z0 F30
G1 Z-0.5 F30
G1 Z0 F30
G1 Z-0.6 F30
G1 Z0 F30
G0 Z0.25
G0 X5.9055 Y17.7165
G1 Z-0.1 F30
G1 Z0 F30
G1 Z-0.2 F30
G1 Z0 F30
G1 Z-0.3 F30
G1 Z0 F30
G1 Z-0.4 F30
G1 Z0 F30
G1 Z-0.5 F30
G1 Z0 F30
G1 Z-0.6 F30
G1 Z0 F30
G0 Z0.25
G0 X7.874 Y17.7165
G1 Z-0.1 F30
G1 Z0 F30
G1 Z-0.2 F30
G1 Z0 F30
G1 Z-0.3 F30
G1 Z0 F30
G1 Z-0.4 F30
G1 Z0 F30
G1 Z-0.5 F30
G1 Z0 F30
G1 Z-0.6 F30
G1 Z0 F30
G0 Z0.25
G0 X9.8425 Y17.7165
G1 Z-0.1 F30
G1 Z0 F30
G1 Z-0.2 F30
G1 Z0 F30
G1 Z-0.3 F30
G1 Z0 F30
G1 Z-0.4 F30
G1 Z0 F30
G1 Z-0.5 F30
G1 Z0 F30
G1 Z-0.6 F30
G1 Z0 F30
G0 Z0.25
G0 X11.811 Y17.7165
G1 Z-0.1 F30
G1 Z0 F30
G1 Z-0.2 F30
G1 Z0 F30
G1 Z-0.3 F30
G1 Z0 F30
G1 Z-0.4 F30
G1 Z0 F30
G1 Z-0.5 F30
G1 Z0 F30
G1 Z-0.6 F30
G1 Z0 F30
G0 Z0.25
G0 X13.7795 Y17.7165
G1 Z-0.1 F30
G1 Z0 F30
G1 Z-0.2 F30
G1 Z0 F30
G1 Z-0.3 F30
G1 Z0 F30
G1 Z-0.4 F30
G1 Z0 F30
G1 Z-0.5 F30
G1 Z0 F30
G1 Z-0.6 F30
G1 Z0 F30
G0 Z0.25
G0 X15.748 Y17.7165
G1 Z-0.1 F30
G1 Z0 F30
G1 Z-0.2 F30
G1 Z0 F30
G1 Z-0.3 F30
G1 Z0 F30
G1 Z-0.4 F30
G1 Z0 F30
G1 Z-0.5 F30
G1 Z0 F30
G1 Z-0.6 F30
G1 Z0 F30
G0 Z0.25
G0 X17.7166 Y17.7165
G1 Z-0.1 F30
G1 Z0 F30
G1 Z-0.2 F30
G1 Z0 F30
G1 Z-0.3 F30
G1 Z0 F30
G1 Z-0.4 F30
G1 Z0 F30
G1 Z-0.5 F30
G1 Z0 F30
G1 Z-0.6 F30
G1 Z0 F30
G0 Z0.25
G0 X1.9685 Y17.7165
G1 Z-0.1 F30
G1 Z0 F30
G1 Z-0.2 F30
G1 Z0 F30
G1 Z-0.3 F30
G1 Z0 F30
G1 Z-0.4 F30
G1 Z0 F30
G1 Z-0.5 F30
G1 Z0 F30
G1 Z-0.6 F30
G1 Z0 F30
G0 Z0.25
G0 X3.937 Y21.6536
G1 Z-0.1 F30
G1 Z0 F30
G1 Z-0.2 F30
G1 Z0 F30
G1 Z-0.3 F30
G1 Z0 F30
G1 Z-0.4 F30
G1 Z0 F30
G1 Z-0.5 F30
G1 Z0 F30
G1 Z-0.6 F30
G1 Z0 F30
G0 Z0.25
G0 X5.9055 Y21.6536
G1 Z-0.1 F30
G1 Z0 F30
G1 Z-0.2 F30
G1 Z0 F30
G1 Z-0.3 F30
G1 Z0 F30
G1 Z-0.4 F30
G1 Z0 F30
G1 Z-0.5 F30
G1 Z0 F30
G1 Z-0.6 F30
G1 Z0 F30
G0 Z0.25
G0 X7.874 Y21.6536
G1 Z-0.1 F30
G1 Z0 F30
G1 Z-0.2 F30
G1 Z0 F30
G1 Z-0.3 F30
G1 Z0 F30
G1 Z-0.4 F30
G1 Z0 F30
G1 Z-0.5 F30
G1 Z0 F30
G1 Z-0.6 F30
G1 Z0 F30
G0 Z0.25
G0 X9.8425 Y21.6536
G1 Z-0.1 F30
G1 Z0 F30
G1 Z-0.2 F30
G1 Z0 F30
G1 Z-0.3 F30
G1 Z0 F30
G1 Z-0.4 F30
G1 Z0 F30
G1 Z-0.5 F30
G1 Z0 F30
G1 Z-0.6 F30
G1 Z0 F30
G0 Z0.25
G0 X11.811 Y21.6536
G1 Z-0.1 F30
G1 Z0 F30
G1 Z-0.2 F30
G1 Z0 F30
G1 Z-0.3 F30
G1 Z0 F30
G1 Z-0.4 F30
G1 Z0 F30
G1 Z-0.5 F30
G1 Z0 F30
G1 Z-0.6 F30
G1 Z0 F30
G0 Z0.25
G0 X13.7795 Y21.6536
G1 Z-0.1 F30
G1 Z0 F30
G1 Z-0.2 F30
G1 Z0 F30
G1 Z-0.3 F30
G1 Z0 F30
G1 Z-0.4 F30
G1 Z0 F30
G1 Z-0.5 F30
G1 Z0 F30
G1 Z-0.6 F30
G1 Z0 F30
G0 Z0.25
G0 X15.748 Y21.6536
G1 Z-0.1 F30
G1 Z0 F30
G1 Z-0.2 F30
G1 Z0 F30
G1 Z-0.3 F30
G1 Z0 F30
G1 Z-0.4 F30
G1 Z0 F30
G1 Z-0.5 F30
G1 Z0 F30
G1 Z-0.6 F30
G1 Z0 F30
G0 Z0.25
G0 X17.7166 Y21.6536
G1 Z-0.1 F30
G1 Z0 F30
G1 Z-0.2 F30
G1 Z0 F30
G1 Z-0.3 F30
G1 Z0 F30
G1 Z-0.4 F30
G1 Z0 F30
G1 Z-0.5 F30
G1 Z0 F30
G1 Z-0.6 F30
G1 Z0 F30
G0 Z0.25
G0 X1.9685 Y21.6536
G1 Z-0.1 F30
G1 Z0 F30
G1 Z-0.2 F30
G1 Z0 F30
G1 Z-0.3 F30
G1 Z0 F30
G1 Z-0.4 F30
G1 Z0 F30
G1 Z-0.5 F30
G1 Z0 F30
G1 Z-0.6 F30
G1 Z0 F30
G0 Z0.25
G0 X3.937 Y19.6851
G1 Z-0.1 F30
G1 Z0 F30
G1 Z-0.2 F30
G1 Z0 F30
G1 Z-0.3 F30
G1 Z0 F30
G1 Z-0.4 F30
G1 Z0 F30
G1 Z-0.5 F30
G1 Z0 F30
G1 Z-0.6 F30
G1 Z0 F30
G0 Z0.25
G0 X5.9055 Y19.6851
G1 Z-0.1 F30
G1 Z0 F30
G1 Z-0.2 F30
G1 Z0 F30
G1 Z-0.3 F30
G1 Z0 F30
G1 Z-0.4 F30
G1 Z0 F30
G1 Z-0.5 F30
G1 Z0 F30
G1 Z-0.6 F30
G1 Z0 F30
G0 Z0.25
G0 X7.874 Y19.6851
G1 Z-0.1 F30
G1 Z0 F30
G1 Z-0.2 F30
G1 Z0 F30
G1 Z-0.3 F30
G1 Z0 F30
G1 Z-0.4 F30
G1 Z0 F30
G1 Z-0.5 F30
G1 Z0 F30
G1 Z-0.6 F30
G1 Z0 F30
G0 Z0.25
G0 X9.8425 Y19.6851
G1 Z-0.1 F30
G1 Z0 F30
G1 Z-0.2 F30
G1 Z0 F30
G1 Z-0.3 F30
G1 Z0 F30
G1 Z-0.4 F30
G1 Z0 F30
G1 Z-0.5 F30
G1 Z0 F30
G1 Z-0.6 F30
G1 Z0 F30
G0 Z0.25
G0 X11.811 Y19.6851
G1 Z-0.1 F30
G1 Z0 F30
G1 Z-0.2 F30
G1 Z0 F30
G1 Z-0.3 F30
G1 Z0 F30
G1 Z-0.4 F30
G1 Z0 F30
G1 Z-0.5 F30
G1 Z0 F30
G1 Z-0.6 F30
G1 Z0 F30
G0 Z0.25
G0 X13.7795 Y19.6851
G1 Z-0.1 F30
G1 Z0 F30
G1 Z-0.2 F30
G1 Z0 F30
G1 Z-0.3 F30
G1 Z0 F30
G1 Z-0.4 F30
G1 Z0 F30
G1 Z-0.5 F30
G1 Z0 F30
G1 Z-0.6 F30
G1 Z0 F30
G0 Z0.25
G0 X15.748 Y19.6851
G1 Z-0.1 F30
G1 Z0 F30
G1 Z-0.2 F30
G1 Z0 F30
G1 Z-0.3 F30
G1 Z0 F30
G1 Z-0.4 F30
G1 Z0 F30
G1 Z-0.5 F30
G1 Z0 F30
G1 Z-0.6 F30
G1 Z0 F30
G0 Z0.25
G0 X17.7166 Y19.6851
G1 Z-0.1 F30
G1 Z0 F30
G1 Z-0.2 F30
G1 Z0 F30
G1 Z-0.3 F30
G1 Z0 F30
G1 Z-0.4 F30
G1 Z0 F30
G1 Z-0.5 F30
G1 Z0 F30
G1 Z-0.6 F30
G1 Z0 F30
G0 Z0.25
G0 X1.9685 Y19.6851
G1 Z-0.1 F30
G1 Z0 F30
G1 Z-0.2 F30
G1 Z0 F30
G1 Z-0.3 F30
G1 Z0 F30
G1 Z-0.4 F30
G1 Z0 F30
G1 Z-0.5 F30
G1 Z0 F30
G1 Z-0.6 F30
G1 Z0 F30
G0 Z0.25
G0 X3.937 Y23.6221
G1 Z-0.1 F30
G1 Z0 F30
G1 Z-0.2 F30
G1 Z0 F30
G1 Z-0.3 F30
G1 Z0 F30
G1 Z-0.4 F30
G1 Z0 F30
G1 Z-0.5 F30
G1 Z0 F30
G1 Z-0.6 F30
G1 Z0 F30
G0 Z0.25
G0 X5.9055 Y23.6221
G1 Z-0.1 F30
G1 Z0 F30
G1 Z-0.2 F30
G1 Z0 F30
G1 Z-0.3 F30
G1 Z0 F30
G1 Z-0.4 F30
G1 Z0 F30
G1 Z-0.5 F30
G1 Z0 F30
G1 Z-0.6 F30
G1 Z0 F30
G0 Z0.25
G0 X7.874 Y23.6221
G1 Z-0.1 F30
G1 Z0 F30
G1 Z-0.2 F30
G1 Z0 F30
G1 Z-0.3 F30
G1 Z0 F30
G1 Z-0.4 F30
G1 Z0 F30
G1 Z-0.5 F30
G1 Z0 F30
G1 Z-0.6 F30
G1 Z0 F30
G0 Z0.25
G0 X9.8425 Y23.6221
G1 Z-0.1 F30
G1 Z0 F30
G1 Z-0.2 F30
G1 Z0 F30
G1 Z-0.3 F30
G1 Z0 F30
G1 Z-0.4 F30
G1 Z0 F30
G1 Z-0.5 F30
G1 Z0 F30
G1 Z-0.6 F30
G1 Z0 F30
G0 Z0.25
G0 X11.811 Y23.6221
G1 Z-0.1 F30
G1 Z0 F30
G1 Z-0.2 F30
G1 Z0 F30
G1 Z-0.3 F30
G1 Z0 F30
G1 Z-0.4 F30
G1 Z0 F30
G1 Z-0.5 F30
G1 Z0 F30
G1 Z-0.6 F30
G1 Z0 F30
G0 Z0.25
G0 X13.7795 Y23.6221
G1 Z-0.1 F30
G1 Z0 F30
G1 Z-0.2 F30
G1 Z0 F30
G1 Z-0.3 F30
G1 Z0 F30
G1 Z-0.4 F30
G1 Z0 F30
G1 Z-0.5 F30
G1 Z0 F30
G1 Z-0.6 F30
G1 Z0 F30
G0 Z0.25
G0 X15.748 Y23.6221
G1 Z-0.1 F30
G1 Z0 F30
G1 Z-0.2 F30
G1 Z0 F30
G1 Z-0.3 F30
G1 Z0 F30
G1 Z-0.4 F30
G1 Z0 F30
G1 Z-0.5 F30
G1 Z0 F30
G1 Z-0.6 F30
G1 Z0 F30
G0 Z0.25
G0 X17.7166 Y23.6221
G1 Z-0.1 F30
G1 Z0 F30
G1 Z-0.2 F30
G1 Z0 F30
G1 Z-0.3 F30
G1 Z0 F30
G1 Z-0.4 F30
G1 Z0 F30
G1 Z-0.5 F30
G1 Z0 F30
G1 Z-0.6 F30
G1 Z0 F30
G0 Z0.25
G0 X1.9685 Y23.6221
G1 Z-0.1 F30
G1 Z0 F30
G1 Z-0.2 F30
G1 Z0 F30
G1 Z-0.3 F30
G1 Z0 F30
G1 Z-0.4 F30
G1 Z0 F30
G1 Z-0.5 F30
G1 Z0 F30
G1 Z-0.6 F30
G1 Z0 F30
G0 Z0.25
G0 X3.937 Y27.5591
G1 Z-0.1 F30
G1 Z0 F30
G1 Z-0.2 F30
G1 Z0 F30
G1 Z-0.3 F30
G1 Z0 F30
G1 Z-0.4 F30
G1 Z0 F30
G1 Z-0.5 F30
G1 Z0 F30
G1 Z-0.6 F30
G1 Z0 F30
G0 Z0.25
G0 X5.9055 Y27.5591
G1 Z-0.1 F30
G1 Z0 F30
G1 Z-0.2 F30
G1 Z0 F30
G1 Z-0.3 F30
G1 Z0 F30
G1 Z-0.4 F30
G1 Z0 F30
G1 Z-0.5 F30
G1 Z0 F30
G1 Z-0.6 F30
G1 Z0 F30
G0 Z0.25
G0 X7.874 Y27.5591
G1 Z-0.1 F30
G1 Z0 F30
G1 Z-0.2 F30
G1 Z0 F30
G1 Z-0.3 F30
G1 Z0 F30
G1 Z-0.4 F30
G1 Z0 F30
G1 Z-0.5 F30
G1 Z0 F30
G1 Z-0.6 F30
G1 Z0 F30
G0 Z0.25
G0 X9.8425 Y27.5591
G1 Z-0.1 F30
G1 Z0 F30
G1 Z-0.2 F30
G1 Z0 F30
G1 Z-0.3 F30
G1 Z0 F30
G1 Z-0.4 F30
G1 Z0 F30
G1 Z-0.5 F30
G1 Z0 F30
G1 Z-0.6 F30
G1 Z0 F30
G0 Z0.25
G0 X11.811 Y27.5591
G1 Z-0.1 F30
G1 Z0 F30
G1 Z-0.2 F30
G1 Z0 F30
G1 Z-0.3 F30
G1 Z0 F30
G1 Z-0.4 F30
G1 Z0 F30
G1 Z-0.5 F30
G1 Z0 F30
G1 Z-0.6 F30
G1 Z0 F30
G0 Z0.25
G0 X13.7795 Y27.5591
G1 Z-0.1 F30
G1 Z0 F30
G1 Z-0.2 F30
G1 Z0 F30
G1 Z-0.3 F30
G1 Z0 F30
G1 Z-0.4 F30
G1 Z0 F30
G1 Z-0.5 F30
G1 Z0 F30
G1 Z-0.6 F30
G1 Z0 F30
G0 Z0.25
G0 X15.748 Y27.5591
G1 Z-0.1 F30
G1 Z0 F30
G1 Z-0.2 F30
G1 Z0 F30
G1 Z-0.3 F30
G1 Z0 F30
G1 Z-0.4 F30
G1 Z0 F30
G1 Z-0.5 F30
G1 Z0 F30
G1 Z-0.6 F30
G1 Z0 F30
G0 Z0.25
G0 X17.7166 Y27.5591
G1 Z-0.1 F30
G1 Z0 F30
G1 Z-0.2 F30
G1 Z0 F30
G1 Z-0.3 F30
G1 Z0 F30
G1 Z-0.4 F30
G1 Z0 F30
G1 Z-0.5 F30
G1 Z0 F30
G1 Z-0.6 F30
G1 Z0 F30
G0 Z0.25
G0 X1.9685 Y27.5591
G1 Z-0.1 F30
G1 Z0 F30
G1 Z-0.2 F30
G1 Z0 F30
G1 Z-0.3 F30
G1 Z0 F30
G1 Z-0.4 F30
G1 Z0 F30
G1 Z-0.5 F30
G1 Z0 F30
G1 Z-0.6 F30
G1 Z0 F30
G0 Z0.25
G0 X3.937 Y25.5906
G1 Z-0.1 F30
G1 Z0 F30
G1 Z-0.2 F30
G1 Z0 F30
G1 Z-0.3 F30
G1 Z0 F30
G1 Z-0.4 F30
G1 Z0 F30
G1 Z-0.5 F30
G1 Z0 F30
G1 Z-0.6 F30
G1 Z0 F30
G0 Z0.25
G0 X5.9055 Y25.5906
G1 Z-0.1 F30
G1 Z0 F30
G1 Z-0.2 F30
G1 Z0 F30
G1 Z-0.3 F30
G1 Z0 F30
G1 Z-0.4 F30
G1 Z0 F30
G1 Z-0.5 F30
G1 Z0 F30
G1 Z-0.6 F30
G1 Z0 F30
G0 Z0.25
G0 X7.874 Y25.5906
G1 Z-0.1 F30
G1 Z0 F30
G1 Z-0.2 F30
G1 Z0 F30
G1 Z-0.3 F30
G1 Z0 F30
G1 Z-0.4 F30
G1 Z0 F30
G1 Z-0.5 F30
G1 Z0 F30
G1 Z-0.6 F30
G1 Z0 F30
G0 Z0.25
G0 X9.8425 Y25.5906
G1 Z-0.1 F30
G1 Z0 F30
G1 Z-0.2 F30
G1 Z0 F30
G1 Z-0.3 F30
G1 Z0 F30
G1 Z-0.4 F30
G1 Z0 F30
G1 Z-0.5 F30
G1 Z0 F30
G1 Z-0.6 F30
G1 Z0 F30
G0 Z0.25
G0 X11.811 Y25.5906
G1 Z-0.1 F30
G1 Z0 F30
G1 Z-0.2 F30
G1 Z0 F30
G1 Z-0.3 F30
G1 Z0 F30
G1 Z-0.4 F30
G1 Z0 F30
G1 Z-0.5 F30
G1 Z0 F30
G1 Z-0.6 F30
G1 Z0 F30
G0 Z0.25
G0 X13.7795 Y25.5906
G1 Z-0.1 F30
G1 Z0 F30
G1 Z-0.2 F30
G1 Z0 F30
G1 Z-0.3 F30
G1 Z0 F30
G1 Z-0.4 F30
G1 Z0 F30
G1 Z-0.5 F30
G1 Z0 F30
G1 Z-0.6 F30
G1 Z0 F30
G0 Z0.25
G0 X15.748 Y25.5906
G1 Z-0.1 F30
G1 Z0 F30
G1 Z-0.2 F30
G1 Z0 F30
G1 Z-0.3 F30
G1 Z0 F30
G1 Z-0.4 F30
G1 Z0 F30
G1 Z-0.5 F30
G1 Z0 F30
G1 Z-0.6 F30
G1 Z0 F30
G0 Z0.25
G0 X17.7166 Y25.5906
G1 Z-0.1 F30
G1 Z0 F30
G1 Z-0.2 F30
G1 Z0 F30
G1 Z-0.3 F30
G1 Z0 F30
G1 Z-0.4 F30
G1 Z0 F30
G1 Z-0.5 F30
G1 Z0 F30
G1 Z-0.6 F30
G1 Z0 F30
G0 Z0.25
G0 X1.9685 Y25.5906
G1 Z-0.1 F30
G1 Z0 F30
G1 Z-0.2 F30
G1 Z0 F30
G1 Z-0.3 F30
G1 Z0 F30
G1 Z-0.4 F30
G1 Z0 F30
G1 Z-0.5 F30
G1 Z0 F30
G1 Z-0.6 F30
G1 Z0 F30
G0 Z0.25
G0 X3.937 Y29.5276
G1 Z-0.1 F30
G1 Z0 F30
G1 Z-0.2 F30
G1 Z0 F30
G1 Z-0.3 F30
G1 Z0 F30
G1 Z-0.4 F30
G1 Z0 F30
G1 Z-0.5 F30
G1 Z0 F30
G1 Z-0.6 F30
G1 Z0 F30
G0 Z0.25
G0 X5.9055 Y29.5276
G1 Z-0.1 F30
G1 Z0 F30
G1 Z-0.2 F30
G1 Z0 F30
G1 Z-0.3 F30
G1 Z0 F30
G1 Z-0.4 F30
G1 Z0 F30
G1 Z-0.5 F30
G1 Z0 F30
G1 Z-0.6 F30
G1 Z0 F30
G0 Z0.25
G0 X7.874 Y29.5276
G1 Z-0.1 F30
G1 Z0 F30
G1 Z-0.2 F30
G1 Z0 F30
G1 Z-0.3 F30
G1 Z0 F30
G1 Z-0.4 F30
G1 Z0 F30
G1 Z-0.5 F30
G1 Z0 F30
G1 Z-0.6 F30
G1 Z0 F30
G0 Z0.25
G0 X9.8425 Y29.5276
G1 Z-0.1 F30
G1 Z0 F30
G1 Z-0.2 F30
G1 Z0 F30
G1 Z-0.3 F30
G1 Z0 F30
G1 Z-0.4 F30
G1 Z0 F30
G1 Z-0.5 F30
G1 Z0 F30
G1 Z-0.6 F30
G1 Z0 F30
G0 Z0.25
G0 X11.811 Y29.5276
G1 Z-0.1 F30
G1 Z0 F30
G1 Z-0.2 F30
G1 Z0 F30
G1 Z-0.3 F30
G1 Z0 F30
G1 Z-0.4 F30
G1 Z0 F30
G1 Z-0.5 F30
G1 Z0 F30
G1 Z-0.6 F30
G1 Z0 F30
G0 Z0.25
G0 X13.7795 Y29.5276
G1 Z-0.1 F30
G1 Z0 F30
G1 Z-0.2 F30
G1 Z0 F30
G1 Z-0.3 F30
G1 Z0 F30
G1 Z-0.4 F30
G1 Z0 F30
G1 Z-0.5 F30
G1 Z0 F30
G1 Z-0.6 F30
G1 Z0 F30
G0 Z0.25
G0 X15.748 Y29.5276
G1 Z-0.1 F30
G1 Z0 F30
G1 Z-0.2 F30
G1 Z0 F30
G1 Z-0.3 F30
G1 Z0 F30
G1 Z-0.4 F30
G1 Z0 F30
G1 Z-0.5 F30
G1 Z0 F30
G1 Z-0.6 F30
G1 Z0 F30
G0 Z0.25
G0 X17.7166 Y29.5276
G1 Z-0.1 F30
G1 Z0 F30
G1 Z-0.2 F30
G1 Z0 F30
G1 Z-0.3 F30
G1 Z0 F30
G1 Z-0.4 F30
G1 Z0 F30
G1 Z-0.5 F30
G1 Z0 F30
G1 Z-0.6 F30
G1 Z0 F30
G0 Z0.25
G0 X1.9685 Y29.5276
G1 Z-0.1 F30
G1 Z0 F30
G1 Z-0.2 F30
G1 Z0 F30
G1 Z-0.3 F30
G1 Z0 F30
G1 Z-0.4 F30
G1 Z0 F30
G1 Z-0.5 F30
G1 Z0 F30
G1 Z-0.6 F30
G1 Z0 F30
G0 Z0.25
G0 X3.937 Y33.4646
G1 Z-0.1 F30
G1 Z0 F30
G1 Z-0.2 F30
G1 Z0 F30
G1 Z-0.3 F30
G1 Z0 F30
G1 Z-0.4 F30
G1 Z0 F30
G1 Z-0.5 F30
G1 Z0 F30
G1 Z-0.6 F30
G1 Z0 F30
G0 Z0.25
G0 X5.9055 Y33.4646
G1 Z-0.1 F30
G1 Z0 F30
G1 Z-0.2 F30
G1 Z0 F30
G1 Z-0.3 F30
G1 Z0 F30
G1 Z-0.4 F30
G1 Z0 F30
G1 Z-0.5 F30
G1 Z0 F30
G1 Z-0.6 F30
G1 Z0 F30
G0 Z0.25
G0 X7.874 Y33.4646
G1 Z-0.1 F30
G1 Z0 F30
G1 Z-0.2 F30
G1 Z0 F30
G1 Z-0.3 F30
G1 Z0 F30
G1 Z-0.4 F30
G1 Z0 F30
G1 Z-0.5 F30
G1 Z0 F30
G1 Z-0.6 F30
G1 Z0 F30
G0 Z0.25
G0 X9.8425 Y33.4646
G1 Z-0.1 F30
G1 Z0 F30
G1 Z-0.2 F30
G1 Z0 F30
G1 Z-0.3 F30
G1 Z0 F30
G1 Z-0.4 F30
G1 Z0 F30
G1 Z-0.5 F30
G1 Z0 F30
G1 Z-0.6 F30
G1 Z0 F30
G0 Z0.25
G0 X11.811 Y33.4646
G1 Z-0.1 F30
G1 Z0 F30
G1 Z-0.2 F30
G1 Z0 F30
G1 Z-0.3 F30
G1 Z0 F30
G1 Z-0.4 F30
G1 Z0 F30
G1 Z-0.5 F30
G1 Z0 F30
G1 Z-0.6 F30
G1 Z0 F30
G0 Z0.25
G0 X13.7795 Y33.4646
G1 Z-0.1 F30
G1 Z0 F30
G1 Z-0.2 F30
G1 Z0 F30
G1 Z-0.3 F30
G1 Z0 F30
G1 Z-0.4 F30
G1 Z0 F30
G1 Z-0.5 F30
G1 Z0 F30
G1 Z-0.6 F30
G1 Z0 F30
G0 Z0.25
G0 X15.748 Y33.4646
G1 Z-0.1 F30
G1 Z0 F30
G1 Z-0.2 F30
G1 Z0 F30
G1 Z-0.3 F30
G1 Z0 F30
G1 Z-0.4 F30
G1 Z0 F30
G1 Z-0.5 F30
G1 Z0 F30
G1 Z-0.6 F30
G1 Z0 F30
G0 Z0.25
G0 X17.7166 Y33.4646
G1 Z-0.1 F30
G1 Z0 F30
G1 Z-0.2 F30
G1 Z0 F30
G1 Z-0.3 F30
G1 Z0 F30
G1 Z-0.4 F30
G1 Z0 F30
G1 Z-0.5 F30
G1 Z0 F30
G1 Z-0.6 F30
G1 Z0 F30
G0 Z0.25
G0 X1.9685 Y33.4646
G1 Z-0.1 F30
G1 Z0 F30
G1 Z-0.2 F30
G1 Z0 F30
G1 Z-0.3 F30
G1 Z0 F30
G1 Z-0.4 F30
G1 Z0 F30
G1 Z-0.5 F30
G1 Z0 F30
G1 Z-0.6 F30
G1 Z0 F30
G0 Z0.25
G0 X3.937 Y31.4961
G1 Z-0.1 F30
G1 Z0 F30
G1 Z-0.2 F30
G1 Z0 F30
G1 Z-0.3 F30
G1 Z0 F30
G1 Z-0.4 F30
G1 Z0 F30
G1 Z-0.5 F30
G1 Z0 F30
G1 Z-0.6 F30
G1 Z0 F30
G0 Z0.25
G0 X5.9055 Y31.4961
G1 Z-0.1 F30
G1 Z0 F30
G1 Z-0.2 F30
G1 Z0 F30
G1 Z-0.3 F30
G1 Z0 F30
G1 Z-0.4 F30
G1 Z0 F30
G1 Z-0.5 F30
G1 Z0 F30
G1 Z-0.6 F30
G1 Z0 F30
G0 Z0.25
G0 X7.874 Y31.4961
G1 Z-0.1 F30
G1 Z0 F30
G1 Z-0.2 F30
G1 Z0 F30
G1 Z-0.3 F30
G1 Z0 F30
G1 Z-0.4 F30
G1 Z0 F30
G1 Z-0.5 F30
G1 Z0 F30
G1 Z-0.6 F30
G1 Z0 F30
G0 Z0.25
G0 X9.8425 Y31.4961
G1 Z-0.1 F30
G1 Z0 F30
G1 Z-0.2 F30
G1 Z0 F30
G1 Z-0.3 F30
G1 Z0 F30
G1 Z-0.4 F30
G1 Z0 F30
G1 Z-0.5 F30
G1 Z0 F30
G1 Z-0.6 F30
G1 Z0 F30
G0 Z0.25
G0 X11.811 Y31.4961
G1 Z-0.1 F30
G1 Z0 F30
G1 Z-0.2 F30
G1 Z0 F30
G1 Z-0.3 F30
G1 Z0 F30
G1 Z-0.4 F30
G1 Z0 F30
G1 Z-0.5 F30
G1 Z0 F30
G1 Z-0.6 F30
G1 Z0 F30
G0 Z0.25
G0 X13.7795 Y31.4961
G1 Z-0.1 F30
G1 Z0 F30
G1 Z-0.2 F30
G1 Z0 F30
G1 Z-0.3 F30
G1 Z0 F30
G1 Z-0.4 F30
G1 Z0 F30
G1 Z-0.5 F30
G1 Z0 F30
G1 Z-0.6 F30
G1 Z0 F30
G0 Z0.25
G0 X15.748 Y31.4961
G1 Z-0.1 F30
G1 Z0 F30
G1 Z-0.2 F30
G1 Z0 F30
G1 Z-0.3 F30
G1 Z0 F30
G1 Z-0.4 F30
G1 Z0 F30
G1 Z-0.5 F30
G1 Z0 F30
G1 Z-0.6 F30
G1 Z0 F30
G0 Z0.25
G0 X17.7166 Y31.4961
G1 Z-0.1 F30
G1 Z0 F30
G1 Z-0.2 F30
G1 Z0 F30
G1 Z-0.3 F30
G1 Z0 F30
G1 Z-0.4 F30
G1 Z0 F30
G1 Z-0.5 F30
G1 Z0 F30
G1 Z-0.6 F30
G1 Z0 F30
G0 Z0.25
G0 X1.9685 Y31.4961
G1 Z-0.1 F30
G1 Z0 F30
G1 Z-0.2 F30
G1 Z0 F30
G1 Z-0.3 F30
G1 Z0 F30
G1 Z-0.4 F30
G1 Z0 F30
G1 Z-0.5 F30
G1 Z0 F30
G1 Z-0.6 F30
G1 Z0 F30
G0 Z0.25
G0 X3.937 Y35.4331
G1 Z-0.1 F30
G1 Z0 F30
G1 Z-0.2 F30
G1 Z0 F30
G1 Z-0.3 F30
G1 Z0 F30
G1 Z-0.4 F30
G1 Z0 F30
G1 Z-0.5 F30
G1 Z0 F30
G1 Z-0.6 F30
G1 Z0 F30
G0 Z0.25
G0 X5.9055 Y35.4331
G1 Z-0.1 F30
G1 Z0 F30
G1 Z-0.2 F30
G1 Z0 F30
G1 Z-0.3 F30
G1 Z0 F30
G1 Z-0.4 F30
G1 Z0 F30
G1 Z-0.5 F30
G1 Z0 F30
G1 Z-0.6 F30
G1 Z0 F30
G0 Z0.25
G0 X7.874 Y35.4331
G1 Z-0.1 F30
G1 Z0 F30
G1 Z-0.2 F30
G1 Z0 F30
G1 Z-0.3 F30
G1 Z0 F30
G1 Z-0.4 F30
G1 Z0 F30
G1 Z-0.5 F30
G1 Z0 F30
G1 Z-0.6 F30
G1 Z0 F30
G0 Z0.25
G0 X9.8425 Y35.4331
G1 Z-0.1 F30
G1 Z0 F30
G1 Z-0.2 F30
G1 Z0 F30
G1 Z-0.3 F30
G1 Z0 F30
G1 Z-0.4 F30
G1 Z0 F30
G1 Z-0.5 F30
G1 Z0 F30
G1 Z-0.6 F30
G1 Z0 F30
G0 Z0.25
G0 X11.811 Y35.4331
G1 Z-0.1 F30
G1 Z0 F30
G1 Z-0.2 F30
G1 Z0 F30
G1 Z-0.3 F30
G1 Z0 F30
G1 Z-0.4 F30
G1 Z0 F30
G1 Z-0.5 F30
G1 Z0 F30
G1 Z-0.6 F30
G1 Z0 F30
G0 Z0.25
G0 X13.7795 Y35.4331
G1 Z-0.1 F30
G1 Z0 F30
G1 Z-0.2 F30
G1 Z0 F30
G1 Z-0.3 F30
G1 Z0 F30
G1 Z-0.4 F30
G1 Z0 F30
G1 Z-0.5 F30
G1 Z0 F30
G1 Z-0.6 F30
G1 Z0 F30
G0 Z0.25
G0 X15.748 Y35.4331
G1 Z-0.1 F30
G1 Z0 F30
G1 Z-0.2 F30
G1 Z0 F30
G1 Z-0.3 F30
G1 Z0 F30
G1 Z-0.4 F30
G1 Z0 F30
G1 Z-0.5 F30
G1 Z0 F30
G1 Z-0.6 F30
G1 Z0 F30
G0 Z0.25
G0 X17.7166 Y35.4331
G1 Z-0.1 F30
G1 Z0 F30
G1 Z-0.2 F30
G1 Z0 F30
G1 Z-0.3 F30
G1 Z0 F30
G1 Z-0.4 F30
G1 Z0 F30
G1 Z-0.5 F30
G1 Z0 F30
G1 Z-0.6 F30
G1 Z0 F30
G0 Z0.25
G0 X1.9685 Y35.4331
G1 Z-0.1 F30
G1 Z0 F30
G1 Z-0.2 F30
G1 Z0 F30
G1 Z-0.3 F30
G1 Z0 F30
G1 Z-0.4 F30
G1 Z0 F30
G1 Z-0.5 F30
G1 Z0 F30
G1 Z-0.6 F30
G1 Z0 F30
G0 Z0.25
G0 X3.937 Y37.4016
G1 Z-0.1 F30
G1 Z0 F30
G1 Z-0.2 F30
G1 Z0 F30
G1 Z-0.3 F30
G1 Z0 F30
G1 Z-0.4 F30
G1 Z0 F30
G1 Z-0.5 F30
G1 Z0 F30
G1 Z-0.6 F30
G1 Z0 F30
G0 Z0.25
G0 X5.9055 Y37.4016
G1 Z-0.1 F30
G1 Z0 F30
G1 Z-0.2 F30
G1 Z0 F30
G1 Z-0.3 F30
G1 Z0 F30
G1 Z-0.4 F30
G1 Z0 F30
G1 Z-0.5 F30
G1 Z0 F30
G1 Z-0.6 F30
G1 Z0 F30
G0 Z0.25
G0 X7.874 Y37.4016
G1 Z-0.1 F30
G1 Z0 F30
G1 Z-0.2 F30
G1 Z0 F30
G1 Z-0.3 F30
G1 Z0 F30
G1 Z-0.4 F30
G1 Z0 F30
G1 Z-0.5 F30
G1 Z0 F30
G1 Z-0.6 F30
G1 Z0 F30
G0 Z0.25
G0 X9.8425 Y37.4016
G1 Z-0.1 F30
G1 Z0 F30
G1 Z-0.2 F30
G1 Z0 F30
G1 Z-0.3 F30
G1 Z0 F30
G1 Z-0.4 F30
G1 Z0 F30
G1 Z-0.5 F30
G1 Z0 F30
G1 Z-0.6 F30
G1 Z0 F30
G0 Z0.25
G0 X11.811 Y37.4016
G1 Z-0.1 F30
G1 Z0 F30
G1 Z-0.2 F30
G1 Z0 F30
G1 Z-0.3 F30
G1 Z0 F30
G1 Z-0.4 F30
G1 Z0 F30
G1 Z-0.5 F30
G1 Z0 F30
G1 Z-0.6 F30
G1 Z0 F30
G0 Z0.25
G0 X13.7795 Y37.4016
G1 Z-0.1 F30
G1 Z0 F30
G1 Z-0.2 F30
G1 Z0 F30
G1 Z-0.3 F30
G1 Z0 F30
G1 Z-0.4 F30
G1 Z0 F30
G1 Z-0.5 F30
G1 Z0 F30
G1 Z-0.6 F30
G1 Z0 F30
G0 Z0.25
G0 X15.748 Y37.4016
G1 Z-0.1 F30
G1 Z0 F30
G1 Z-0.2 F30
G1 Z0 F30
G1 Z-0.3 F30
G1 Z0 F30
G1 Z-0.4 F30
G1 Z0 F30
G1 Z-0.5 F30
G1 Z0 F30
G1 Z-0.6 F30
G1 Z0 F30
G0 Z0.25
G0 X17.7166 Y37.4016
G1 Z-0.1 F30
G1 Z0 F30
G1 Z-0.2 F30
G1 Z0 F30
G1 Z-0.3 F30
G1 Z0 F30
G1 Z-0.4 F30
G1 Z0 F30
G1 Z-0.5 F30
G1 Z0 F30
G1 Z-0.6 F30
G1 Z0 F30
G0 Z0.25
G0 X1.9685 Y37.4016
G1 Z-0.1 F30
G1 Z0 F30
G1 Z-0.2 F30
G1 Z0 F30
G1 Z-0.3 F30
G1 Z0 F30
G1 Z-0.4 F30
G1 Z0 F30
G1 Z-0.5 F30
G1 Z0 F30
G1 Z-0.6 F30
G1 Z0 F30
G0 Z0.25
M5
M30
