(Generated by PartKam Version 0.05)

G20 G90 G40

(LineEmUp)
G0 Z0.25
T0 M6
G17
M3
G0 X7.9969 Y-0.0029
G1 Z-0.1 F30
G1 X9.9969 Y-0.0029 F120
G0 Z0.25
G0 X-0.0031 Y17.9971
G1 Z-0.1 F30
G1 X1.9969 Y17.9971 F120
G1 X1.9969 Y19.9971
G1 X1.9969 Y17.9971
G1 X3.9969 Y17.9971
G1 X3.9969 Y19.9971
G1 X3.9969 Y17.9971
G1 X5.9969 Y17.9971
G1 X7.9969 Y17.9971
G1 X7.9969 Y15.9971
G1 X9.9969 Y15.9971
G1 X9.9969 Y13.9971
G1 X7.9969 Y13.9971
G1 X5.9969 Y13.9971
G1 X5.9969 Y15.9971
G1 X3.9969 Y15.9971
G1 X1.9969 Y15.9971
G1 X-0.0031 Y15.9971
G1 X-0.0031 Y17.9971
G1 X-0.0031 Y15.9971
G1 X1.9969 Y15.9971
G1 X1.9969 Y17.9971
G1 X1.9969 Y15.9971
G1 X3.9969 Y15.9971
G1 X3.9969 Y17.9971
G1 X3.9969 Y15.9971
G1 X5.9969 Y15.9971
G1 X7.9969 Y15.9971
G1 X7.9969 Y13.9971
G1 X9.9969 Y13.9971
G1 X9.9969 Y11.9971
G1 X7.9969 Y11.9971
G1 X5.9969 Y11.9971
G1 X5.9969 Y13.9971
G1 X3.9969 Y13.9971
G1 X1.9969 Y13.9971
G1 X-0.0031 Y13.9971
G1 X-0.0031 Y15.9971
G1 X-0.0031 Y13.9971
G1 X1.9969 Y13.9971
G1 X1.9969 Y15.9971
G1 X1.9969 Y13.9971
G1 X3.9969 Y13.9971
G1 X3.9969 Y15.9971
G1 X3.9969 Y13.9971
G1 X5.9969 Y13.9971
G1 X7.9969 Y13.9971
G1 X7.9969 Y11.9971
G1 X9.9969 Y11.9971
G1 X9.9969 Y9.9971
G1 X7.9969 Y9.9971
G1 X5.9969 Y9.9971
G1 X5.9969 Y11.9971
G1 X3.9969 Y11.9971
G1 X1.9969 Y11.9971
G1 X-0.0031 Y11.9971
G1 X-0.0031 Y13.9971
G1 X-0.0031 Y11.9971
G1 X1.9969 Y11.9971
G1 X1.9969 Y13.9971
G1 X1.9969 Y11.9971
G1 X3.9969 Y11.9971
G1 X3.9969 Y13.9971
G1 X3.9969 Y11.9971
G1 X5.9969 Y11.9971
G1 X7.9969 Y11.9971
G1 X7.9969 Y9.9971
G1 X9.9969 Y9.9971
G1 X9.9969 Y7.9971
G1 X7.9969 Y7.9971
G1 X5.9969 Y7.9971
G1 X5.9969 Y9.9971
G1 X3.9969 Y9.9971
G1 X1.9969 Y9.9971
G1 X-0.0031 Y9.9971
G1 X-0.0031 Y11.9971
G1 X-0.0031 Y9.9971
G1 X1.9969 Y9.9971
G1 X1.9969 Y11.9971
G1 X1.9969 Y9.9971
G1 X3.9969 Y9.9971
G1 X3.9969 Y11.9971
G1 X3.9969 Y9.9971
G1 X5.9969 Y9.9971
G1 X7.9969 Y9.9971
G1 X7.9969 Y7.9971
G1 X9.9969 Y7.9971
G1 X9.9969 Y5.9971
G1 X7.9969 Y5.9971
G1 X5.9969 Y5.9971
G1 X5.9969 Y7.9971
G1 X3.9969 Y7.9971
G1 X1.9969 Y7.9971
G1 X-0.0031 Y7.9971
G1 X-0.0031 Y9.9971
G1 X-0.0031 Y7.9971
G1 X1.9969 Y7.9971
G1 X1.9969 Y9.9971
G1 X1.9969 Y7.9971
G1 X3.9969 Y7.9971
G1 X3.9969 Y9.9971
G1 X3.9969 Y7.9971
G1 X5.9969 Y7.9971
G1 X7.9969 Y7.9971
G1 X7.9969 Y5.9971
G1 X9.9969 Y5.9971
G1 X9.9969 Y3.9971
G1 X7.9969 Y3.9971
G1 X5.9969 Y3.9971
G1 X5.9969 Y5.9971
G1 X3.9969 Y5.9971
G1 X1.9969 Y5.9971
G1 X-0.0031 Y5.9971
G1 X-0.0031 Y7.9971
G1 X-0.0031 Y5.9971
G1 X1.9969 Y5.9971
G1 X1.9969 Y7.9971
G1 X1.9969 Y5.9971
G1 X3.9969 Y5.9971
G1 X3.9969 Y7.9971
G1 X3.9969 Y5.9971
G1 X5.9969 Y5.9971
G1 X7.9969 Y5.9971
G1 X7.9969 Y3.9971
G1 X9.9969 Y3.9971
G1 X9.9969 Y1.9971
G1 X7.9969 Y1.9971
G1 X5.9969 Y1.9971
G1 X5.9969 Y3.9971
G1 X3.9969 Y3.9971
G1 X3.9969 Y1.9971
G1 X1.9969 Y1.9971
G1 X1.9969 Y3.9971
G1 X1.9969 Y1.9971
G1 X-0.0031 Y1.9971
G1 X-0.0031 Y3.9971
G1 X-0.0031 Y1.9971
G1 X1.9969 Y1.9971
G1 X3.9969 Y1.9971
G1 X3.9969 Y-0.0029
G1 X5.9969 Y-0.0029
G1 X3.9969 Y-0.0029
G1 X1.9969 Y-0.0029
G1 X-0.0031 Y-0.0029
G1 X-0.0031 Y1.9971
G1 X-0.0031 Y-0.0029
G1 X1.9969 Y-0.0029
G1 X1.9969 Y1.9971
G1 X1.9969 Y-0.0029
G1 X3.9969 Y-0.0029
G1 X3.9969 Y1.9971
G1 X5.9969 Y1.9971
G1 X3.9969 Y1.9971
G1 X3.9969 Y3.9971
G1 X1.9969 Y3.9971
G1 X-0.0031 Y3.9971
G1 X-0.0031 Y5.9971
G1 X-0.0031 Y3.9971
G1 X1.9969 Y3.9971
G1 X1.9969 Y5.9971
G1 X1.9969 Y3.9971
G1 X3.9969 Y3.9971
G1 X3.9969 Y5.9971
G1 X3.9969 Y3.9971
G1 X5.9969 Y3.9971
G1 X7.9969 Y3.9971
G1 X7.9969 Y1.9971
G1 X9.9969 Y1.9971
G1 X9.9969 Y-0.0029
G1 X7.9969 Y-0.0029
G1 X5.9969 Y-0.0029
G1 X7.9969 Y-0.0029
G1 X7.9969 Y1.9971
G1 X5.9969 Y1.9971
G1 X5.9969 Y-0.0029
G0 Z0.25
G0 X3.9969 Y19.9971
G1 Z-0.1 F30
G1 X5.9969 Y19.9971 F120
G1 X7.9969 Y19.9971
G1 X7.9969 Y17.9971
G1 X9.9969 Y17.9971
G1 X9.9969 Y15.9971
G1 X7.9969 Y15.9971
G1 X5.9969 Y15.9971
G1 X5.9969 Y17.9971
G1 X3.9969 Y17.9971
G1 X1.9969 Y17.9971
G1 X-0.0031 Y17.9971
G1 X-0.0031 Y19.9971
G1 X1.9969 Y19.9971
G1 X3.9969 Y19.9971
G1 X5.9969 Y19.9971
G1 X5.9969 Y17.9971
G1 X7.9969 Y17.9971
G1 X9.9969 Y17.9971
G1 X9.9969 Y19.9971
G1 X7.9969 Y19.9971
G1 X7.9969 Y21.9971
G1 X5.9969 Y21.9971
G1 X5.9969 Y19.9971
G1 X7.9969 Y19.9971
G1 X9.9969 Y19.9971
G1 X9.9969 Y21.9971
G1 X7.9969 Y21.9971
G1 X7.9969 Y23.9971
G1 X5.9969 Y23.9971
G1 X5.9969 Y21.9971
G1 X3.9969 Y21.9971
G1 X3.9969 Y23.9971
G1 X1.9969 Y23.9971
G1 X1.9969 Y21.9971
G1 X-0.0031 Y21.9971
G1 X-0.0031 Y19.9971
G1 X1.9969 Y19.9971
G1 X1.9969 Y21.9971
G1 X3.9969 Y21.9971
G1 X3.9969 Y19.9971
G1 X1.9969 Y19.9971
G0 Z0.25
G0 X-0.0031 Y27.9971
G1 Z-0.1 F30
G1 X1.9969 Y27.9971 F120
G1 X-0.0031 Y27.9971
G1 X-0.0031 Y25.9971
G1 X1.9969 Y25.9971
G1 X3.9969 Y25.9971
G1 X3.9969 Y23.9971
G1 X5.9969 Y23.9971
G1 X3.9969 Y23.9971
G1 X1.9969 Y23.9971
G1 X-0.0031 Y23.9971
G1 X-0.0031 Y25.9971
G1 X1.9969 Y25.9971
G1 X1.9969 Y23.9971
G1 X-0.0031 Y23.9971
G1 X-0.0031 Y21.9971
G1 X1.9969 Y21.9971
G1 X3.9969 Y21.9971
G1 X5.9969 Y21.9971
G1 X7.9969 Y21.9971
G1 X9.9969 Y21.9971
G1 X9.9969 Y23.9971
G1 X7.9969 Y23.9971
G1 X7.9969 Y25.9971
G1 X5.9969 Y25.9971
G1 X3.9969 Y25.9971
G1 X1.9969 Y25.9971
G1 X1.9969 Y27.9971
G1 X3.9969 Y27.9971
G1 X3.9969 Y25.9971
G1 X5.9969 Y25.9971
G1 X5.9969 Y23.9971
G1 X7.9969 Y23.9971
G1 X9.9969 Y23.9971
G1 X9.9969 Y25.9971
G1 X7.9969 Y25.9971
G1 X7.9969 Y27.9971
G1 X5.9969 Y27.9971
G1 X3.9969 Y27.9971
G0 Z0.25
G0 X5.9969 Y27.9971
G1 Z-0.1 F30
G1 X7.9969 Y27.9971 F120
G1 X9.9969 Y27.9971
G1 X9.9969 Y25.9971
G1 X7.9969 Y25.9971
G1 X5.9969 Y25.9971
G1 X5.9969 Y27.9971
G1 X3.9969 Y27.9971
G1 X1.9969 Y27.9971
G0 Z0.25
G0 X7.9969 Y27.9971
G1 Z-0.1 F30
G1 X9.9969 Y27.9971 F120
G0 Z0.25
M5
M30
